; generated by Slic3r 1.31.6-prusa3d-win64 on 2017-03-14 at 14:22:33

; external perimeters extrusion width = 0.45mm
; perimeters extrusion width = 0.45mm
; infill extrusion width = 0.45mm
; solid infill extrusion width = 0.45mm
; top infill extrusion width = 0.40mm
; support material extrusion width = 0.35mm

M107
M115 U3.0.9 ; tell printer latest fw version
M83  ; extruder relative mode
M104 S230 ; set extruder temp
M140 S85 ; set bed temp
M190 S85 ; wait for bed temp
M109 S230 ; wait for extruder temp
G28 W ; home all without mesh bed level
G80 ; mesh bed leveling
G1 Y-3.0 F1000.0 ; go outside pritn area
G1 X60.0 E9.0  F1000.0 ; intro line
G1 X100.0 E12.5  F1000.0 ; intro line
G21 ; set units to millimeters
G90 ; use absolute coordinates
M83 ; use relative distances for extrusion
G1 E-0.80000 F2100.00000
G1 Z0.200 F7200.000
G1 X116.722 Y79.242 F7200.000
G1 E0.80000 F2100.00000
M204 S1000
G1 F2100
G1 X117.196 Y78.758 E0.02125
G1 X117.779 Y78.412 E0.02125
G1 X118.490 Y78.222 E0.02305
G1 X118.800 Y78.201 E0.00975
G1 X131.200 Y78.201 E0.38879
G1 X131.568 Y78.229 E0.01156
G1 X132.167 Y78.390 E0.01944
G1 X132.758 Y78.722 E0.02126
G1 X133.278 Y79.242 E0.02305
G1 X133.610 Y79.833 E0.02126
G1 X133.771 Y80.432 E0.01945
G1 X133.799 Y80.800 E0.01157
G1 X133.799 Y129.200 E1.51755
G1 X133.771 Y129.568 E0.01156
G1 X133.610 Y130.167 E0.01945
G1 X133.278 Y130.758 E0.02126
G1 X132.804 Y131.242 E0.02125
G1 X132.167 Y131.610 E0.02305
G1 X131.567 Y131.771 E0.01947
G1 X131.200 Y131.799 E0.01155
G1 X118.800 Y131.799 E0.38879
G1 X118.490 Y131.778 E0.00974
G1 X117.833 Y131.610 E0.02126
G1 X117.196 Y131.243 E0.02305
G1 X116.722 Y130.758 E0.02126
G1 X116.390 Y130.167 E0.02126
G1 X116.229 Y129.568 E0.01945
G1 X116.201 Y129.200 E0.01156
G1 X116.201 Y80.800 E1.51755
G1 X116.229 Y80.432 E0.01156
G1 X116.390 Y79.833 E0.01946
G1 X116.692 Y79.294 E0.01937
G1 F5760
G1 X116.730 Y79.232 E-0.02534
G1 F5760
G1 X116.730 Y79.232 E-0.00005
G1 F5760
G1 X116.758 Y79.196 E-0.01543
G1 F5760
G1 X117.196 Y78.758 E-0.21487
G1 F5760
G1 X117.207 Y78.750 E-0.00459
G1 F5760
G1 X117.207 Y78.750 E-0.00002
G1 F5760
G1 X117.242 Y78.722 E-0.01544
G1 F5760
G1 X117.779 Y78.412 E-0.21488
G1 F5760
G1 X117.792 Y78.407 E-0.00459
G1 F5760
G1 X117.792 Y78.407 E-0.00007
G1 F5760
G1 X117.833 Y78.390 E-0.01543
G1 F5760
G1 X118.432 Y78.229 E-0.21489
G1 F5760
G1 X118.445 Y78.228 E-0.00459
G1 F5760
G1 X118.445 Y78.228 E-0.00001
G1 F5760
G1 X118.490 Y78.222 E-0.01544
G1 F5760
G1 X118.531 Y78.219 E-0.01437
G1 E-0.04000 F2100.00000
G1 X119.958 Y118.458 F7200.000
G1 E0.80000 F2100.00000
G1 F840
G1 X130.042 Y118.458 E0.31618
G1 X130.042 Y126.242 E0.24406
G1 X119.958 Y126.242 E0.31618
G1 X119.958 Y118.518 E0.24217
G1 X120.335 Y118.835 F7200.000
G1 F840
G1 X129.665 Y118.835 E0.29253
G1 X129.665 Y125.865 E0.22042
G1 X120.335 Y125.865 E0.29253
G1 X120.335 Y118.895 E0.21853
G1 X120.712 Y119.212 F7200.000
G1 F840
G1 X129.288 Y119.212 E0.26889
G1 X129.288 Y125.488 E0.19677
G1 X120.712 Y125.488 E0.26889
G1 X120.712 Y119.272 E0.19489
G1 X120.589 Y118.832 F7200.000
G1 F5760
G1 X122.420 Y119.211 E-0.59190
G1 F5760
G1 X122.905 Y119.211 E-0.16810
G1 E-0.04000 F2100.00000
G1 X119.958 Y110.258 F7200.000
G1 E0.80000 F2100.00000
G1 F840
G1 X130.042 Y110.258 E0.31618
G1 X130.042 Y118.042 E0.24406
G1 X119.958 Y118.042 E0.31618
G1 X119.958 Y110.318 E0.24217
G1 X120.335 Y110.635 F7200.000
G1 F840
G1 X129.665 Y110.635 E0.29253
G1 X129.665 Y117.665 E0.22042
G1 X120.335 Y117.665 E0.29253
G1 X120.335 Y110.695 E0.21853
G1 X120.712 Y111.012 F7200.000
G1 F840
G1 X129.288 Y111.012 E0.26889
G1 X129.288 Y117.288 E0.19677
G1 X120.712 Y117.288 E0.26889
G1 X120.712 Y111.072 E0.19489
G1 X120.589 Y110.632 F7200.000
G1 F5760
G1 X122.420 Y111.011 E-0.59190
G1 F5760
G1 X122.905 Y111.011 E-0.16810
G1 E-0.04000 F2100.00000
G1 X119.958 Y102.058 F7200.000
G1 E0.80000 F2100.00000
G1 F840
G1 X130.042 Y102.058 E0.31618
G1 X130.042 Y109.842 E0.24406
G1 X119.958 Y109.842 E0.31618
G1 X119.958 Y102.118 E0.24217
G1 X120.335 Y102.435 F7200.000
G1 F840
G1 X129.665 Y102.435 E0.29253
G1 X129.665 Y109.465 E0.22042
G1 X120.335 Y109.465 E0.29253
G1 X120.335 Y102.495 E0.21853
G1 X120.712 Y102.812 F7200.000
G1 F840
G1 X129.288 Y102.812 E0.26889
G1 X129.288 Y109.088 E0.19677
G1 X120.712 Y109.088 E0.26889
G1 X120.712 Y102.872 E0.19489
G1 X120.589 Y102.432 F7200.000
G1 F5760
G1 X122.420 Y102.811 E-0.59190
G1 F5760
G1 X122.905 Y102.811 E-0.16810
G1 E-0.04000 F2100.00000
G1 X119.958 Y93.858 F7200.000
G1 E0.80000 F2100.00000
G1 F840
G1 X130.042 Y93.858 E0.31618
G1 X130.042 Y101.642 E0.24406
G1 X119.958 Y101.642 E0.31618
G1 X119.958 Y93.918 E0.24217
G1 X120.335 Y94.235 F7200.000
G1 F840
G1 X129.665 Y94.235 E0.29253
G1 X129.665 Y101.265 E0.22042
G1 X120.335 Y101.265 E0.29253
G1 X120.335 Y94.295 E0.21853
G1 X120.712 Y94.612 F7200.000
G1 F840
G1 X129.288 Y94.612 E0.26889
G1 X129.288 Y100.888 E0.19677
G1 X120.712 Y100.888 E0.26889
G1 X120.712 Y94.672 E0.19489
G1 X120.589 Y94.232 F7200.000
G1 F5760
G1 X122.420 Y94.611 E-0.59190
G1 F5760
G1 X122.905 Y94.611 E-0.16810
G1 E-0.04000 F2100.00000
G1 X119.958 Y85.658 F7200.000
G1 E0.80000 F2100.00000
G1 F840
G1 X130.042 Y85.658 E0.31618
G1 X130.042 Y93.442 E0.24406
G1 X119.958 Y93.442 E0.31618
G1 X119.958 Y85.718 E0.24217
G1 X120.335 Y86.035 F7200.000
G1 F840
G1 X129.665 Y86.035 E0.29253
G1 X129.665 Y93.065 E0.22042
G1 X120.335 Y93.065 E0.29253
G1 X120.335 Y86.095 E0.21853
G1 X120.712 Y86.412 F7200.000
G1 F840
G1 X129.288 Y86.412 E0.26889
G1 X129.288 Y92.688 E0.19677
G1 X120.712 Y92.688 E0.26889
G1 X120.712 Y86.472 E0.19489
G1 X120.589 Y86.032 F7200.000
G1 F5760
G1 X122.420 Y86.411 E-0.59190
G1 F5760
G1 X122.905 Y86.411 E-0.16810
G1 E-0.04000 F2100.00000
G1 X130.042 Y126.658 F7200.000
G1 E0.80000 F2100.00000
G1 F1680
G1 X119.958 Y126.658 E0.31616
G1 X119.958 Y128.457 E0.05642
G1 X119.550 Y128.457 E0.01278
G1 X119.543 Y81.546 E1.47088
G1 X119.957 Y81.547 E0.01300
G1 X119.958 Y85.242 E0.11585
G1 X130.042 Y85.242 E0.31617
G1 X130.043 Y81.543 E0.11599
G1 X130.450 Y81.543 E0.01277
G1 X130.457 Y128.453 E1.47083
G1 X130.042 Y128.454 E0.01300
G1 X130.042 Y126.718 E0.05445
G1 X129.665 Y127.035 F7200.000
G1 F1680
G1 X120.335 Y127.035 E0.29252
G1 X120.335 Y128.834 E0.05642
G1 X119.173 Y128.834 E0.03641
G1 X119.166 Y81.167 E1.49458
G1 X120.334 Y81.172 E0.03665
G1 X120.335 Y84.865 E0.11581
G1 X129.665 Y84.865 E0.29253
G1 X129.666 Y81.166 E0.11599
G1 X130.827 Y81.166 E0.03641
G1 X130.834 Y128.828 E1.49443
G1 X129.665 Y128.833 E0.03665
G1 X129.665 Y127.095 E0.05449
G1 F5760
G1 X127.471 Y127.081 E-0.76000
G1 E-0.04000 F2100.00000
G1 X120.712 Y84.488 F7200.000
G1 E0.80000 F2100.00000
G1 F1260
G1 X129.288 Y84.488 E0.26889
G1 X129.289 Y80.789 E0.11599
G1 X131.204 Y80.789 E0.06005
G1 X131.211 Y129.204 E1.51803
G1 X129.289 Y129.211 E0.06029
G1 X129.288 Y127.412 E0.05642
G1 X120.712 Y127.412 E0.26888
G1 X120.711 Y129.211 E0.05642
G1 X118.796 Y129.211 E0.06005
G1 X118.789 Y80.789 E1.51827
G1 X120.711 Y80.796 E0.06029
G1 X120.712 Y84.428 E0.11388
G1 X120.776 Y84.883 F7200.000
G1 F5760
G1 X122.906 Y84.443 E-0.76000
G1 E-0.04000 F2100.00000
G1 Z0.200 F7200.000
M104 S240 ; set temperature
M140 S90 ; set bed temperature
G1 Z0.300 F7200.000
G1 X119.913 Y118.414 F7200.000
G1 E0.80000 F2100.00000
M204 S800
G1 F1200
G1 X130.087 Y118.414 E0.18125
G1 X130.087 Y126.287 E0.14026
G1 X119.913 Y126.287 E0.18125
G1 X119.913 Y118.474 E0.13920
M204 S1000
G1 X120.342 Y118.842 F7200.000
M204 S800
G1 F1200
G1 X129.658 Y118.842 E0.16598
G1 X129.658 Y125.858 E0.12499
G1 X120.342 Y125.858 E0.16598
G1 X120.342 Y118.902 E0.12393
M204 S1000
G1 X120.771 Y119.271 F7200.000
M204 S800
G1 F1200
G1 X129.229 Y119.271 E0.15071
G1 X129.229 Y125.429 E0.10973
G1 X120.771 Y125.429 E0.15071
G1 X120.771 Y119.331 E0.10866
M204 S1000
G1 X120.647 Y118.890 F7200.000
G1 F5760
G1 X122.965 Y119.304 E-0.76000
G1 E-0.04000 F2100.00000
G1 X119.913 Y110.214 F7200.000
G1 E0.80000 F2100.00000
M204 S800
G1 F1200
G1 X130.087 Y110.214 E0.18125
G1 X130.087 Y118.087 E0.14026
G1 X119.913 Y118.087 E0.18125
G1 X119.913 Y110.274 E0.13920
M204 S1000
G1 X120.342 Y110.642 F7200.000
M204 S800
G1 F1200
G1 X129.658 Y110.642 E0.16598
G1 X129.658 Y117.658 E0.12500
G1 X120.342 Y117.658 E0.16598
G1 X120.342 Y110.702 E0.12393
M204 S1000
G1 X120.771 Y111.071 F7200.000
M204 S800
G1 F1200
G1 X129.229 Y111.071 E0.15071
G1 X129.229 Y117.229 E0.10973
G1 X120.771 Y117.229 E0.15071
G1 X120.771 Y111.131 E0.10866
M204 S1000
G1 X120.647 Y110.690 F7200.000
G1 F5760
G1 X122.965 Y111.104 E-0.76000
G1 E-0.04000 F2100.00000
G1 X119.913 Y102.014 F7200.000
G1 E0.80000 F2100.00000
M204 S800
G1 F1200
G1 X130.087 Y102.014 E0.18125
G1 X130.087 Y109.887 E0.14026
G1 X119.913 Y109.887 E0.18125
G1 X119.913 Y102.074 E0.13920
M204 S1000
G1 X120.342 Y102.442 F7200.000
M204 S800
G1 F1200
G1 X129.658 Y102.442 E0.16598
G1 X129.658 Y109.458 E0.12500
G1 X120.342 Y109.458 E0.16598
G1 X120.342 Y102.502 E0.12393
M204 S1000
G1 X120.770 Y102.871 F7200.000
M204 S800
G1 F1200
G1 X129.229 Y102.871 E0.15071
G1 X129.229 Y109.029 E0.10973
G1 X120.771 Y109.029 E0.15071
G1 X120.770 Y102.931 E0.10866
M204 S1000
G1 X120.647 Y102.490 F7200.000
G1 F5760
G1 X122.965 Y102.904 E-0.76000
G1 E-0.04000 F2100.00000
G1 X119.913 Y93.814 F7200.000
G1 E0.80000 F2100.00000
M204 S800
G1 F1200
G1 X130.087 Y93.814 E0.18125
G1 X130.087 Y101.687 E0.14026
G1 X119.913 Y101.687 E0.18125
G1 X119.913 Y93.874 E0.13920
M204 S1000
G1 X120.342 Y94.242 F7200.000
M204 S800
G1 F1200
G1 X129.658 Y94.242 E0.16598
G1 X129.658 Y101.258 E0.12499
G1 X120.342 Y101.258 E0.16598
G1 X120.342 Y94.302 E0.12393
M204 S1000
G1 X120.770 Y94.671 F7200.000
M204 S800
G1 F1200
G1 X129.229 Y94.671 E0.15071
G1 X129.229 Y100.829 E0.10973
G1 X120.771 Y100.829 E0.15071
G1 X120.770 Y94.731 E0.10866
M204 S1000
G1 X120.647 Y94.290 F7200.000
G1 F5760
G1 X122.965 Y94.704 E-0.76000
G1 E-0.04000 F2100.00000
G1 X119.913 Y85.614 F7200.000
G1 E0.80000 F2100.00000
M204 S800
G1 F1200
G1 X130.087 Y85.614 E0.18125
G1 X130.087 Y93.487 E0.14026
G1 X119.913 Y93.487 E0.18125
G1 X119.913 Y85.674 E0.13920
M204 S1000
G1 X120.342 Y86.042 F7200.000
M204 S800
G1 F1200
G1 X129.658 Y86.042 E0.16598
G1 X129.658 Y93.058 E0.12499
G1 X120.342 Y93.058 E0.16598
G1 X120.342 Y86.102 E0.12393
M204 S1000
G1 X120.771 Y86.471 F7200.000
M204 S800
G1 F1200
G1 X129.229 Y86.471 E0.15071
G1 X129.229 Y92.629 E0.10973
G1 X120.771 Y92.629 E0.15071
G1 X120.771 Y86.531 E0.10866
M204 S1000
G1 X120.647 Y86.090 F7200.000
G1 F5760
G1 X122.965 Y86.504 E-0.76000
G1 E-0.04000 F2100.00000
G1 X130.085 Y126.613 F7200.000
G1 E0.80000 F2100.00000
M204 S800
G1 F2400
G1 X119.915 Y126.613 E0.18120
G1 X119.912 Y128.411 E0.03203
G1 X119.598 Y128.411 E0.00559
G1 X119.589 Y81.590 E0.83420
G1 X119.911 Y81.591 E0.00575
G1 X119.911 Y85.287 E0.06585
G1 X130.086 Y85.287 E0.18128
G1 X130.088 Y81.589 E0.06588
G1 X130.402 Y81.589 E0.00558
G1 X130.411 Y128.406 E0.83412
G1 X130.088 Y128.407 E0.00577
G1 X130.085 Y126.673 E0.03089
M204 S1000
G1 X129.657 Y127.042 F7200.000
M204 S800
G1 F2400
G1 X120.343 Y127.042 E0.16595
G1 X120.340 Y128.840 E0.03203
G1 X119.170 Y128.840 E0.02085
G1 X119.160 Y81.161 E0.84948
G1 X120.340 Y81.163 E0.02102
G1 X120.340 Y84.858 E0.06583
G1 X129.658 Y84.858 E0.16601
G1 X129.660 Y81.160 E0.06588
G1 X130.830 Y81.160 E0.02085
G1 X130.840 Y128.832 E0.84935
G1 X129.660 Y128.838 E0.02103
G1 X129.657 Y127.102 E0.03093
M204 S1000
G1 F5760
G1 X127.463 Y127.088 E-0.76000
G1 E-0.04000 F2100.00000
G1 X120.768 Y84.429 F7200.000
G1 E0.80000 F2100.00000
M204 S800
G1 F1800
G1 X129.229 Y84.429 E0.15075
G1 X129.232 Y80.732 E0.06588
G1 X131.258 Y80.732 E0.03611
G1 X131.268 Y129.258 E0.86458
G1 X129.232 Y129.269 E0.03629
G1 X129.229 Y127.471 E0.03204
G1 X120.771 Y127.471 E0.15070
G1 X120.768 Y129.268 E0.03203
G1 X118.742 Y129.268 E0.03611
G1 X118.732 Y80.731 E0.86476
G1 X120.768 Y80.735 E0.03629
G1 X120.768 Y84.369 E0.06475
M204 S1000
G1 X120.835 Y84.824 F7200.000
G1 F5760
G1 X122.963 Y84.385 E-0.76000
G1 E-0.04000 F2100.00000
G1 Z0.400 F7200.000
G1 X119.918 Y118.418 F7200.000
G1 E0.80000 F2100.00000
M204 S800
G1 F1200
G1 X130.082 Y118.418 E0.18109
G1 X130.082 Y126.282 E0.14011
G1 X119.918 Y126.282 E0.18109
G1 X119.918 Y118.478 E0.13904
M204 S1000
G1 X120.346 Y118.846 F7200.000
M204 S800
G1 F1200
G1 X129.654 Y118.846 E0.16582
G1 X129.654 Y125.854 E0.12484
G1 X120.346 Y125.854 E0.16582
G1 X120.346 Y118.906 E0.12377
M204 S1000
G1 X120.775 Y119.275 F7200.000
M204 S800
G1 F1200
G1 X129.225 Y119.275 E0.15055
G1 X129.225 Y125.425 E0.10957
G1 X120.775 Y125.425 E0.15055
G1 X120.775 Y119.335 E0.10850
M204 S1000
G1 X120.651 Y118.895 F7200.000
G1 F5760
G1 X122.969 Y119.319 E-0.76000
G1 E-0.04000 F2100.00000
G1 X119.918 Y110.218 F7200.000
G1 E0.80000 F2100.00000
M204 S800
G1 F1200
G1 X130.082 Y110.218 E0.18109
G1 X130.082 Y118.082 E0.14011
G1 X119.918 Y118.082 E0.18109
G1 X119.918 Y110.278 E0.13904
M204 S1000
G1 X120.346 Y110.646 F7200.000
M204 S800
G1 F1200
G1 X129.654 Y110.646 E0.16582
G1 X129.654 Y117.654 E0.12484
G1 X120.346 Y117.654 E0.16582
G1 X120.346 Y110.706 E0.12377
M204 S1000
G1 X120.775 Y111.075 F7200.000
M204 S800
G1 F1200
G1 X129.225 Y111.075 E0.15055
G1 X129.225 Y117.225 E0.10957
G1 X120.775 Y117.225 E0.15055
G1 X120.775 Y111.135 E0.10850
M204 S1000
G1 X120.651 Y110.695 F7200.000
G1 F5760
G1 X122.969 Y111.119 E-0.76000
G1 E-0.04000 F2100.00000
G1 X119.918 Y102.018 F7200.000
G1 E0.80000 F2100.00000
M204 S800
G1 F1200
G1 X130.082 Y102.018 E0.18109
G1 X130.082 Y109.882 E0.14011
G1 X119.918 Y109.882 E0.18109
G1 X119.918 Y102.078 E0.13904
M204 S1000
G1 X120.346 Y102.446 F7200.000
M204 S800
G1 F1200
G1 X129.654 Y102.446 E0.16582
G1 X129.654 Y109.454 E0.12484
G1 X120.346 Y109.454 E0.16582
G1 X120.346 Y102.506 E0.12377
M204 S1000
G1 X120.775 Y102.875 F7200.000
M204 S800
G1 F1200
G1 X129.225 Y102.875 E0.15055
G1 X129.225 Y109.025 E0.10957
G1 X120.775 Y109.025 E0.15055
G1 X120.775 Y102.935 E0.10850
M204 S1000
G1 X120.651 Y102.495 F7200.000
G1 F5760
G1 X122.969 Y102.919 E-0.76000
G1 E-0.04000 F2100.00000
G1 X119.918 Y93.818 F7200.000
G1 E0.80000 F2100.00000
M204 S800
G1 F1200
G1 X130.082 Y93.818 E0.18109
G1 X130.082 Y101.682 E0.14011
G1 X119.918 Y101.682 E0.18109
G1 X119.918 Y93.878 E0.13904
M204 S1000
G1 X120.346 Y94.246 F7200.000
M204 S800
G1 F1200
G1 X129.654 Y94.246 E0.16582
G1 X129.654 Y101.254 E0.12484
G1 X120.346 Y101.254 E0.16582
G1 X120.346 Y94.306 E0.12377
M204 S1000
G1 X120.775 Y94.675 F7200.000
M204 S800
G1 F1200
G1 X129.225 Y94.675 E0.15055
G1 X129.225 Y100.825 E0.10957
G1 X120.775 Y100.825 E0.15055
G1 X120.775 Y94.735 E0.10850
M204 S1000
G1 X120.651 Y94.295 F7200.000
G1 F5760
G1 X122.969 Y94.719 E-0.76000
G1 E-0.04000 F2100.00000
G1 X119.918 Y85.618 F7200.000
G1 E0.80000 F2100.00000
M204 S800
G1 F1200
G1 X130.082 Y85.618 E0.18109
G1 X130.082 Y93.482 E0.14011
G1 X119.918 Y93.482 E0.18109
G1 X119.918 Y85.678 E0.13904
M204 S1000
G1 X120.346 Y86.046 F7200.000
M204 S800
G1 F1200
G1 X129.654 Y86.046 E0.16582
G1 X129.654 Y93.054 E0.12484
G1 X120.346 Y93.054 E0.16582
G1 X120.346 Y86.106 E0.12377
M204 S1000
G1 X120.775 Y86.475 F7200.000
M204 S800
G1 F1200
G1 X129.225 Y86.475 E0.15055
G1 X129.225 Y92.625 E0.10957
G1 X120.775 Y92.625 E0.15055
G1 X120.775 Y86.535 E0.10850
M204 S1000
G1 X120.651 Y86.095 F7200.000
G1 F5760
G1 X122.969 Y86.519 E-0.76000
G1 E-0.04000 F2100.00000
G1 X130.082 Y126.618 F7200.000
G1 E0.80000 F2100.00000
M204 S800
G1 F2400
G1 X119.918 Y126.618 E0.18109
G1 X119.918 Y128.418 E0.03207
G1 X119.592 Y128.418 E0.00580
G1 X119.582 Y81.588 E0.83435
G1 X119.918 Y81.587 E0.00598
G1 X119.918 Y85.282 E0.06584
G1 X130.082 Y85.282 E0.18109
G1 X130.082 Y81.582 E0.06592
G1 X130.408 Y81.582 E0.00580
G1 X130.418 Y128.412 E0.83435
G1 X130.082 Y128.414 E0.00598
G1 X130.082 Y126.678 E0.03093
M204 S1000
G1 X129.654 Y127.046 F7200.000
M204 S800
G1 F2400
G1 X120.346 Y127.046 E0.16582
G1 X120.346 Y128.846 E0.03207
G1 X119.164 Y128.846 E0.02107
G1 X119.154 Y81.162 E0.84958
G1 X120.346 Y81.156 E0.02125
G1 X120.346 Y84.854 E0.06588
G1 X129.654 Y84.854 E0.16582
G1 X129.654 Y81.154 E0.06592
G1 X130.836 Y81.154 E0.02107
G1 X130.846 Y128.838 E0.84958
