; generated by Slic3r 1.31.6-prusa3d-win64 on 2017-03-17 at 10:17:06

; external perimeters extrusion width = 0.45mm
; perimeters extrusion width = 0.45mm
; infill extrusion width = 0.45mm
; solid infill extrusion width = 0.45mm
; top infill extrusion width = 0.40mm

M107
M115 U3.0.9 ; tell printer latest fw version
M83  ; extruder relative mode
M104 S230 ; set extruder temp
M140 S85 ; set bed temp
M190 S85 ; wait for bed temp
M109 S230 ; wait for extruder temp
G28 W ; home all without mesh bed level
G80 ; mesh bed leveling
G1 Y-3.0 F1000.0 ; go outside pritn area
G1 X60.0 E9.0  F1000.0 ; intro line
G1 X100.0 E12.5  F1000.0 ; intro line
G21 ; set units to millimeters
G90 ; use absolute coordinates
M83 ; use relative distances for extrusion
G1 E-0.80000 F2100.00000
G1 Z0.200 F7200.000
G1 X6.088 Y43.863 F7200.000
G1 E0.80000 F2100.00000
M204 S1000
G1 F2100
G1 X7.167 Y43.029 E0.04278
G1 X8.019 Y42.871 E0.02716
G1 X123.029 Y42.871 E3.60606
G1 X243.010 Y43.375 E3.76195
G1 X244.315 Y43.772 E0.04278
G1 X245.187 Y44.821 E0.04278
G1 X245.377 Y45.752 E0.02978
G1 X245.377 Y164.752 E3.73116
G1 X244.985 Y166.059 E0.04278
G1 X243.940 Y166.935 E0.04278
G1 X243.000 Y167.129 E0.03008
G1 X7.000 Y167.129 E7.39961
G1 X5.693 Y166.737 E0.04278
G1 X4.817 Y165.692 E0.04278
G1 X4.623 Y164.752 E0.03008
G1 X4.623 Y70.752 E2.94730
G1 X5.644 Y45.153 E0.80327
G1 X6.068 Y43.920 E0.04090
G1 F5760
G1 X7.167 Y43.029 E-0.49007
G1 F5760
G1 X7.934 Y42.887 E-0.26993
G1 E-0.04000 F2100.00000
G1 X8.983 Y46.212 F7200.000
G1 E0.80000 F2100.00000
G1 F1680
G1 X28.125 Y46.212 E0.60016
G1 X29.139 Y46.234 E0.03181
G1 X30.194 Y46.301 E0.03315
G1 X31.218 Y46.411 E0.03229
G1 X32.237 Y46.565 E0.03231
G1 X33.248 Y46.763 E0.03231
G1 X34.250 Y47.003 E0.03231
G1 X35.241 Y47.287 E0.03231
G1 X36.219 Y47.613 E0.03231
G1 X37.191 Y47.984 E0.03263
G1 X46.135 Y51.617 E0.30267
G1 X46.895 Y51.901 E0.02545
G1 X47.682 Y52.148 E0.02586
G1 X48.481 Y52.350 E0.02586
G1 X49.291 Y52.508 E0.02586
G1 X50.108 Y52.622 E0.02586
G1 X50.930 Y52.690 E0.02586
G1 X51.741 Y52.712 E0.02545
G1 X79.297 Y52.712 E0.86400
G1 X80.109 Y52.690 E0.02545
G1 X80.911 Y52.623 E0.02524
G1 X81.747 Y52.509 E0.02647
G1 X82.557 Y52.350 E0.02588
G1 X83.357 Y52.148 E0.02586
G1 X84.144 Y51.901 E0.02586
G1 X84.904 Y51.617 E0.02545
G1 X93.847 Y47.984 E0.30268
G1 X94.820 Y47.613 E0.03263
G1 X95.798 Y47.287 E0.03231
G1 X96.788 Y47.003 E0.03231
G1 X97.765 Y46.769 E0.03149
G1 X98.802 Y46.565 E0.03315
G1 X99.820 Y46.411 E0.03229
G1 X100.845 Y46.301 E0.03231
G1 X101.847 Y46.236 E0.03149
G1 X102.914 Y46.212 E0.03347
G1 X122.055 Y46.212 E0.60014
G1 X122.055 Y63.284 E0.53527
G1 X102.914 Y63.284 E0.60016
G1 X101.873 Y63.262 E0.03263
G1 X100.845 Y63.195 E0.03231
G1 X99.820 Y63.085 E0.03231
G1 X98.802 Y62.931 E0.03231
G1 X97.790 Y62.733 E0.03231
G1 X96.788 Y62.493 E0.03231
G1 X95.798 Y62.209 E0.03231
G1 X94.820 Y61.884 E0.03231
G1 X93.847 Y61.513 E0.03263
G1 X84.904 Y57.879 E0.30267
G1 X84.144 Y57.595 E0.02545
G1 X83.357 Y57.348 E0.02586
G1 X82.557 Y57.146 E0.02586
G1 X81.748 Y56.988 E0.02586
G1 X80.950 Y56.877 E0.02524
G1 X80.109 Y56.806 E0.02647
G1 X79.297 Y56.784 E0.02547
G1 X51.741 Y56.784 E0.86400
G1 X50.930 Y56.806 E0.02545
G1 X50.108 Y56.874 E0.02586
G1 X49.291 Y56.988 E0.02586
G1 X48.481 Y57.146 E0.02586
G1 X47.682 Y57.348 E0.02586
G1 X46.895 Y57.595 E0.02586
G1 X46.135 Y57.879 E0.02545
G1 X37.191 Y61.513 E0.30267
G1 X36.219 Y61.884 E0.03263
G1 X35.241 Y62.209 E0.03231
G1 X34.250 Y62.493 E0.03231
G1 X33.248 Y62.733 E0.03231
G1 X32.237 Y62.931 E0.03231
G1 X31.218 Y63.085 E0.03231
G1 X30.194 Y63.195 E0.03231
G1 X29.165 Y63.262 E0.03231
G1 X28.125 Y63.284 E0.03263
G1 X8.983 Y63.284 E0.60016
G1 X8.983 Y46.272 E0.53339
G1 X8.606 Y45.835 F7200.000
G1 F1680
G1 X28.129 Y45.835 E0.61211
G1 X29.155 Y45.857 E0.03218
G1 X30.226 Y45.925 E0.03366
G1 X31.266 Y46.037 E0.03281
G1 X32.301 Y46.193 E0.03282
G1 X33.329 Y46.394 E0.03282
G1 X34.346 Y46.639 E0.03282
G1 X35.352 Y46.927 E0.03282
G1 X36.345 Y47.257 E0.03282
G1 X37.329 Y47.633 E0.03301
G1 X46.272 Y51.266 E0.30264
G1 X47.017 Y51.545 E0.02496
G1 X47.784 Y51.785 E0.02521
G1 X48.564 Y51.982 E0.02521
G1 X49.353 Y52.136 E0.02521
G1 X50.149 Y52.247 E0.02521
G1 X50.951 Y52.313 E0.02521
G1 X51.746 Y52.335 E0.02496
G1 X79.292 Y52.335 E0.86368
G1 X80.088 Y52.313 E0.02496
G1 X80.869 Y52.248 E0.02459
G1 X81.685 Y52.136 E0.02581
G1 X82.475 Y51.982 E0.02522
G1 X83.254 Y51.785 E0.02521
G1 X84.021 Y51.545 E0.02521
G1 X84.767 Y51.266 E0.02496
G1 X93.709 Y47.633 E0.30264
G1 X94.693 Y47.257 E0.03301
G1 X95.686 Y46.927 E0.03282
G1 X96.692 Y46.639 E0.03282
G1 X97.684 Y46.400 E0.03199
G1 X98.737 Y46.193 E0.03366
G1 X99.772 Y46.037 E0.03281
G1 X100.813 Y45.925 E0.03282
G1 X101.831 Y45.859 E0.03199
G1 X102.910 Y45.835 E0.03385
G1 X122.432 Y45.835 E0.61210
G1 X122.432 Y63.661 E0.55892
G1 X102.910 Y63.661 E0.61211
G1 X101.857 Y63.638 E0.03301
G1 X100.813 Y63.571 E0.03282
G1 X99.772 Y63.459 E0.03282
G1 X98.737 Y63.303 E0.03282
G1 X97.710 Y63.102 E0.03282
G1 X96.692 Y62.857 E0.03282
G1 X95.686 Y62.570 E0.03282
G1 X94.693 Y62.239 E0.03282
G1 X93.709 Y61.863 E0.03301
G1 X84.767 Y58.231 E0.30264
G1 X84.021 Y57.951 E0.02496
G1 X83.254 Y57.711 E0.02521
G1 X82.475 Y57.514 E0.02521
G1 X81.685 Y57.360 E0.02521
G1 X80.909 Y57.252 E0.02459
G1 X80.088 Y57.183 E0.02581
G1 X79.292 Y57.161 E0.02497
G1 X51.746 Y57.161 E0.86368
G1 X50.951 Y57.183 E0.02496
G1 X50.149 Y57.249 E0.02521
G1 X49.353 Y57.360 E0.02521
G1 X48.564 Y57.514 E0.02521
G1 X47.784 Y57.711 E0.02521
G1 X47.017 Y57.951 E0.02521
G1 X46.272 Y58.231 E0.02496
G1 X37.329 Y61.863 E0.30264
G1 X36.345 Y62.239 E0.03301
G1 X35.352 Y62.570 E0.03282
G1 X34.346 Y62.857 E0.03282
G1 X33.329 Y63.102 E0.03282
G1 X32.301 Y63.303 E0.03282
G1 X31.266 Y63.459 E0.03282
G1 X30.226 Y63.571 E0.03282
G1 X29.181 Y63.638 E0.03282
G1 X28.129 Y63.661 E0.03301
G1 X8.606 Y63.661 E0.61211
G1 X8.606 Y45.895 E0.55704
G1 X8.229 Y45.458 F7200.000
G1 F1260
G1 X28.133 Y45.458 E0.62406
G1 X29.171 Y45.480 E0.03256
G1 X30.258 Y45.549 E0.03416
G1 X31.315 Y45.663 E0.03332
G1 X32.366 Y45.822 E0.03332
G1 X33.409 Y46.026 E0.03332
G1 X34.442 Y46.274 E0.03332
G1 X35.464 Y46.566 E0.03332
G1 X36.472 Y46.902 E0.03332
G1 X37.467 Y47.282 E0.03339
G1 X46.409 Y50.914 E0.30260
G1 X47.140 Y51.188 E0.02447
G1 X47.887 Y51.422 E0.02456
G1 X48.646 Y51.614 E0.02456
G1 X49.415 Y51.764 E0.02456
G1 X50.191 Y51.872 E0.02456
G1 X50.971 Y51.937 E0.02456
G1 X51.752 Y51.958 E0.02447
G1 X79.287 Y51.958 E0.86335
G1 X80.067 Y51.937 E0.02447
G1 X80.828 Y51.873 E0.02395
G1 X81.623 Y51.764 E0.02516
G1 X82.392 Y51.614 E0.02456
G1 X83.151 Y51.422 E0.02456
G1 X83.899 Y51.188 E0.02456
G1 X84.630 Y50.914 E0.02447
G1 X93.571 Y47.282 E0.30260
G1 X94.566 Y46.902 E0.03339
G1 X95.575 Y46.566 E0.03332
G1 X96.596 Y46.274 E0.03332
G1 X97.604 Y46.032 E0.03249
G1 X98.673 Y45.822 E0.03416
G1 X99.724 Y45.663 E0.03332
G1 X100.780 Y45.549 E0.03332
G1 X101.814 Y45.483 E0.03249
G1 X102.906 Y45.458 E0.03423
G1 X122.809 Y45.458 E0.62406
G1 X122.809 Y64.038 E0.58256
G1 X102.906 Y64.038 E0.62406
G1 X101.841 Y64.015 E0.03339
G1 X100.780 Y63.947 E0.03332
G1 X99.724 Y63.833 E0.03332
G1 X98.673 Y63.674 E0.03332
G1 X97.630 Y63.471 E0.03332
G1 X96.596 Y63.222 E0.03332
G1 X95.575 Y62.930 E0.03332
G1 X94.566 Y62.594 E0.03332
G1 X93.571 Y62.214 E0.03339
G1 X84.630 Y58.582 E0.30260
G1 X83.899 Y58.308 E0.02447
G1 X83.151 Y58.074 E0.02456
G1 X82.392 Y57.882 E0.02456
G1 X81.623 Y57.732 E0.02456
G1 X80.867 Y57.627 E0.02395
G1 X80.067 Y57.560 E0.02516
G1 X79.287 Y57.538 E0.02447
G1 X51.752 Y57.538 E0.86335
G1 X50.971 Y57.560 E0.02447
G1 X50.191 Y57.624 E0.02456
G1 X49.415 Y57.732 E0.02456
G1 X48.646 Y57.882 E0.02456
G1 X47.887 Y58.074 E0.02456
G1 X47.140 Y58.308 E0.02456
G1 X46.409 Y58.582 E0.02447
G1 X37.467 Y62.214 E0.30260
G1 X36.472 Y62.594 E0.03339
G1 X35.464 Y62.930 E0.03332
G1 X34.442 Y63.222 E0.03332
G1 X33.409 Y63.471 E0.03332
G1 X32.366 Y63.674 E0.03332
G1 X31.315 Y63.833 E0.03332
G1 X30.258 Y63.947 E0.03332
G1 X29.198 Y64.015 E0.03332
G1 X28.133 Y64.038 E0.03339
G1 X8.229 Y64.038 E0.62406
G1 X8.229 Y45.518 E0.58068
G1 X8.617 Y45.557 F7200.000
G1 F5760
G1 X10.424 Y45.511 E-0.76000
G1 E-0.04000 F2100.00000
G1 X9.096 Y62.407 F7200.000
G1 E0.80000 F2100.00000
G1 F1680
G1 X9.690 Y63.001 E0.02637
G1 X10.224 Y63.001 E0.01677
G1 X9.266 Y62.043 E0.04255
G1 X9.266 Y61.509 E0.01677
G1 X10.758 Y63.001 E0.06626
G1 X11.292 Y63.001 E0.01677
G1 X9.266 Y60.975 E0.08997
G1 X9.266 Y60.441 E0.01677
G1 X11.826 Y63.001 E0.11368
G1 X12.360 Y63.001 E0.01677
G1 X9.266 Y59.907 E0.13739
G1 X9.266 Y59.373 E0.01677
G1 X12.894 Y63.001 E0.16111
G1 X13.428 Y63.001 E0.01677
G1 X9.266 Y58.839 E0.18482
G1 X9.266 Y58.305 E0.01677
G1 X13.962 Y63.001 E0.20853
G1 X14.496 Y63.001 E0.01677
G1 X9.266 Y57.771 E0.23224
G1 X9.266 Y57.237 E0.01677
G1 X15.030 Y63.001 E0.25596
G1 X15.565 Y63.001 E0.01677
G1 X9.266 Y56.703 E0.27967
G1 X9.266 Y56.169 E0.01677
G1 X16.099 Y63.001 E0.30338
G1 X16.633 Y63.001 E0.01677
G1 X9.266 Y55.635 E0.32709
G1 X9.266 Y55.101 E0.01677
G1 X17.167 Y63.001 E0.35081
G1 X17.701 Y63.001 E0.01677
G1 X9.266 Y54.567 E0.37452
G1 X9.266 Y54.033 E0.01677
G1 X18.235 Y63.001 E0.39823
G1 X18.769 Y63.001 E0.01677
G1 X9.266 Y53.499 E0.42194
G1 X9.266 Y52.965 E0.01677
G1 X19.303 Y63.001 E0.44565
G1 X19.837 Y63.001 E0.01677
G1 X9.266 Y52.431 E0.46937
G1 X9.266 Y51.897 E0.01677
G1 X20.371 Y63.001 E0.49308
G1 X20.905 Y63.001 E0.01677
G1 X9.266 Y51.363 E0.51679
G1 X9.266 Y50.829 E0.01677
G1 X21.439 Y63.001 E0.54050
G1 X21.973 Y63.001 E0.01677
G1 X9.266 Y50.295 E0.56422
G1 X9.266 Y49.761 E0.01677
G1 X22.507 Y63.001 E0.58793
G1 X23.041 Y63.001 E0.01677
G1 X9.266 Y49.227 E0.61164
G1 X9.266 Y48.693 E0.01677
G1 X23.575 Y63.001 E0.63535
G1 X24.109 Y63.001 E0.01677
G1 X9.266 Y48.159 E0.65907
G1 X9.266 Y47.625 E0.01677
G1 X24.643 Y63.001 E0.68278
G1 X25.177 Y63.001 E0.01677
G1 X9.266 Y47.090 E0.70649
G1 X9.266 Y46.556 E0.01677
G1 X25.711 Y63.001 E0.73020
G1 X26.245 Y63.001 E0.01677
G1 X9.739 Y46.495 E0.73293
G1 X10.273 Y46.495 E0.01677
G1 X26.779 Y63.001 E0.73293
G1 X27.313 Y63.001 E0.01677
G1 X10.807 Y46.495 E0.73293
G1 X11.341 Y46.495 E0.01677
G1 X27.847 Y63.001 E0.73293
G1 X28.375 Y62.996 E0.01660
G1 X11.875 Y46.495 E0.73269
G1 X12.409 Y46.495 E0.01677
G1 X28.898 Y62.984 E0.73219
G1 X29.410 Y62.962 E0.01609
G1 X12.943 Y46.495 E0.73121
G1 X13.477 Y46.495 E0.01677
G1 X29.912 Y62.930 E0.72978
G1 X30.404 Y62.888 E0.01551
G1 X14.011 Y46.495 E0.72792
G1 X14.545 Y46.495 E0.01677
G1 X30.886 Y62.836 E0.72562
G1 X31.361 Y62.777 E0.01503
G1 X15.079 Y46.495 E0.72300
G1 X15.613 Y46.495 E0.01677
G1 X31.825 Y62.707 E0.71989
G1 X32.285 Y62.633 E0.01463
G1 X16.147 Y46.495 E0.71661
G1 X16.681 Y46.495 E0.01677
G1 X32.732 Y62.546 E0.71273
G1 X33.179 Y62.459 E0.01429
G1 X17.215 Y46.495 E0.70886
G1 X17.749 Y46.495 E0.01677
G1 X33.610 Y62.356 E0.70428
G1 X34.040 Y62.252 E0.01390
G1 X18.283 Y46.495 E0.69968
G1 X18.817 Y46.495 E0.01677
G1 X34.460 Y62.138 E0.69463
G1 X34.876 Y62.020 E0.01356
G1 X19.351 Y46.495 E0.68935
G1 X19.885 Y46.495 E0.01677
G1 X35.286 Y61.896 E0.68387
G1 X35.687 Y61.763 E0.01326
G1 X20.419 Y46.495 E0.67794
G1 X20.953 Y46.495 E0.01677
G1 X36.087 Y61.629 E0.67202
G1 X36.475 Y61.483 E0.01301
G1 X21.487 Y46.495 E0.66552
G1 X22.021 Y46.495 E0.01677
G1 X36.862 Y61.336 E0.65898
G1 X37.245 Y61.185 E0.01294
G1 X22.555 Y46.495 E0.65230
G1 X23.089 Y46.495 E0.01677
G1 X37.625 Y61.031 E0.64545
G1 X38.005 Y60.877 E0.01287
G1 X23.623 Y46.495 E0.63860
G1 X24.157 Y46.495 E0.01677
G1 X38.385 Y60.722 E0.63175
G1 X38.764 Y60.568 E0.01287
G1 X24.691 Y46.495 E0.62490
G1 X25.225 Y46.495 E0.01677
G1 X39.144 Y60.414 E0.61805
G1 X39.524 Y60.260 E0.01287
G1 X25.759 Y46.495 E0.61120
G1 X26.293 Y46.495 E0.01677
G1 X39.904 Y60.105 E0.60435
G1 X40.283 Y59.951 E0.01287
G1 X26.827 Y46.495 E0.59750
G1 X27.361 Y46.495 E0.01677
G1 X40.663 Y59.797 E0.59065
G1 X41.043 Y59.643 E0.01287
G1 X27.895 Y46.495 E0.58380
G1 X28.436 Y46.502 E0.01698
G1 X41.423 Y59.488 E0.57665
G1 X41.802 Y59.334 E0.01287
G1 X28.982 Y46.513 E0.56928
G1 X29.545 Y46.543 E0.01772
G1 X42.182 Y59.180 E0.56111
G1 X42.562 Y59.025 E0.01287
G1 X30.116 Y46.579 E0.55266
G1 X30.711 Y46.641 E0.01880
G1 X42.942 Y58.871 E0.54307
G1 X43.321 Y58.717 E0.01287
G1 X31.316 Y46.712 E0.53307
G1 X31.945 Y46.807 E0.01998
G1 X43.701 Y58.563 E0.52200
G1 X44.081 Y58.408 E0.01287
G1 X32.596 Y46.923 E0.50998
G1 X33.264 Y47.057 E0.02139
G1 X44.461 Y58.254 E0.49719
G1 X44.840 Y58.100 E0.01287
G1 X33.967 Y47.226 E0.48284
G1 X34.701 Y47.427 E0.02390
G1 X45.220 Y57.946 E0.46708
G1 X45.600 Y57.791 E0.01287
G1 X35.470 Y47.661 E0.44982
G1 X36.282 Y47.939 E0.02696
G1 X45.980 Y57.637 E0.43061
G1 X46.367 Y57.490 E0.01300
G1 X37.148 Y48.271 E0.40936
G1 X38.047 Y48.637 E0.03048
G1 X46.755 Y57.345 E0.38668
G1 X47.160 Y57.215 E0.01334
G1 X38.946 Y49.002 E0.36471
G1 X39.846 Y49.367 E0.03048
G1 X47.567 Y57.088 E0.34283
G1 X47.991 Y56.978 E0.01376
G1 X40.745 Y49.733 E0.32173
G1 X41.645 Y50.098 E0.03048
G1 X48.417 Y56.870 E0.30072
G1 X48.864 Y56.783 E0.01429
G1 X42.544 Y50.463 E0.28061
G1 X43.443 Y50.829 E0.03048
G1 X49.314 Y56.699 E0.26066
G1 X49.783 Y56.634 E0.01487
G1 X44.343 Y51.194 E0.24155
G1 X45.242 Y51.560 E0.03048
G1 X50.261 Y56.578 E0.22284
G1 X50.754 Y56.537 E0.01554
G1 X46.136 Y51.919 E0.20504
G1 X46.973 Y52.222 E0.02795
G1 X51.265 Y56.514 E0.19057
G1 X51.786 Y56.501 E0.01636
G1 X47.739 Y52.454 E0.17971
G1 X48.451 Y52.632 E0.02307
G1 X52.320 Y56.501 E0.17178
G1 X52.854 Y56.501 E0.01677
G1 X49.115 Y52.762 E0.16602
G1 X49.743 Y52.857 E0.01996
G1 X53.388 Y56.501 E0.16183
G1 X53.922 Y56.501 E0.01677
G1 X50.346 Y52.925 E0.15878
G1 X50.928 Y52.973 E0.01832
G1 X54.456 Y56.501 E0.15668
G1 X54.990 Y56.501 E0.01677
G1 X51.477 Y52.988 E0.15600
G1 X52.018 Y52.995 E0.01699
G1 X55.524 Y56.501 E0.15568
G1 X56.058 Y56.501 E0.01677
G1 X52.552 Y52.995 E0.15568
G1 X53.086 Y52.995 E0.01677
G1 X56.592 Y56.501 E0.15568
G1 X57.126 Y56.501 E0.01677
G1 X53.620 Y52.995 E0.15568
G1 X54.154 Y52.995 E0.01677
G1 X57.660 Y56.501 E0.15568
G1 X58.194 Y56.501 E0.01677
G1 X54.688 Y52.995 E0.15568
G1 X55.222 Y52.995 E0.01677
G1 X58.728 Y56.501 E0.15568
G1 X59.262 Y56.501 E0.01677
G1 X55.756 Y52.995 E0.15568
G1 X56.290 Y52.995 E0.01677
G1 X59.796 Y56.501 E0.15568
G1 X60.330 Y56.501 E0.01677
G1 X56.824 Y52.995 E0.15568
G1 X57.358 Y52.995 E0.01677
G1 X60.864 Y56.501 E0.15568
G1 X61.398 Y56.501 E0.01677
G1 X57.892 Y52.995 E0.15568
G1 X58.426 Y52.995 E0.01677
G1 X61.932 Y56.501 E0.15568
G1 X62.466 Y56.501 E0.01677
G1 X58.960 Y52.995 E0.15568
G1 X59.494 Y52.995 E0.01677
G1 X63.000 Y56.501 E0.15568
G1 X63.534 Y56.501 E0.01677
G1 X60.028 Y52.995 E0.15568
G1 X60.562 Y52.995 E0.01677
G1 X64.068 Y56.501 E0.15568
G1 X64.602 Y56.501 E0.01677
G1 X61.096 Y52.995 E0.15568
G1 X61.630 Y52.995 E0.01677
G1 X65.136 Y56.501 E0.15568
G1 X65.670 Y56.501 E0.01677
G1 X62.164 Y52.995 E0.15568
G1 X62.698 Y52.995 E0.01677
G1 X66.204 Y56.501 E0.15568
G1 X66.738 Y56.501 E0.01677
G1 X63.232 Y52.995 E0.15568
G1 X63.766 Y52.995 E0.01677
G1 X67.272 Y56.501 E0.15568
G1 X67.806 Y56.501 E0.01677
G1 X64.300 Y52.995 E0.15568
G1 X64.834 Y52.995 E0.01677
G1 X68.340 Y56.501 E0.15568
G1 X68.874 Y56.501 E0.01677
G1 X65.368 Y52.995 E0.15568
G1 X65.902 Y52.995 E0.01677
G1 X69.408 Y56.501 E0.15568
G1 X69.942 Y56.501 E0.01677
G1 X66.436 Y52.995 E0.15568
G1 X66.970 Y52.995 E0.01677
G1 X70.476 Y56.501 E0.15568
G1 X71.010 Y56.501 E0.01677
G1 X67.504 Y52.995 E0.15568
G1 X68.038 Y52.995 E0.01677
G1 X71.544 Y56.501 E0.15568
G1 X72.079 Y56.501 E0.01677
G1 X68.572 Y52.995 E0.15568
G1 X69.106 Y52.995 E0.01677
G1 X72.613 Y56.501 E0.15568
G1 X73.147 Y56.501 E0.01677
G1 X69.640 Y52.995 E0.15568
G1 X70.174 Y52.995 E0.01677
G1 X73.681 Y56.501 E0.15568
G1 X74.215 Y56.501 E0.01677
G1 X70.708 Y52.995 E0.15568
G1 X71.242 Y52.995 E0.01677
G1 X74.749 Y56.501 E0.15568
G1 X75.283 Y56.501 E0.01677
G1 X71.776 Y52.995 E0.15568
G1 X72.311 Y52.995 E0.01677
G1 X75.817 Y56.501 E0.15568
G1 X76.351 Y56.501 E0.01677
G1 X72.845 Y52.995 E0.15568
G1 X73.379 Y52.995 E0.01677
G1 X76.885 Y56.501 E0.15568
G1 X77.419 Y56.501 E0.01677
G1 X73.913 Y52.995 E0.15568
G1 X74.447 Y52.995 E0.01677
