; generated by Slic3r 1.31.6-prusa3d-win64 on 2017-04-27 at 10:45:43

; external perimeters extrusion width = 0.45mm
; perimeters extrusion width = 0.45mm
; infill extrusion width = 0.45mm
; solid infill extrusion width = 0.45mm
; top infill extrusion width = 0.45mm

M107
M115 U3.0.9 ; tell printer latest fw version
M83  ; extruder relative mode
M104 S230 ; set extruder temp
M140 S85 ; set bed temp
M190 S85 ; wait for bed temp
M109 S230 ; wait for extruder temp
G28 W ; home all without mesh bed level
G80 ; mesh bed leveling
G1 Y-3.0 F1000.0 ; go outside pritn area
G1 X60.0 E9.0  F1000.0 ; intro line
G1 X100.0 E12.5  F1000.0 ; intro line
G21 ; set units to millimeters
G90 ; use absolute coordinates
M83 ; use relative distances for extrusion
G1 E-1.00000 F3000.00000
G1 Z0.200 F7200.000
G1 X121.344 Y92.842 F7200.000
G1 E1.00000 F3000.00000
M204 S1000
G1 F2100
G1 X123.000 Y92.369 E0.05400
G1 X127.000 Y92.369 E0.12542
G1 X128.520 Y92.762 E0.04923
G1 X129.658 Y93.844 E0.04923
G1 X130.131 Y95.500 E0.05400
G1 X130.131 Y114.500 E0.59573
G1 X129.738 Y116.020 E0.04923
G1 X128.656 Y117.158 E0.04923
G1 X127.000 Y117.631 E0.05400
G1 X123.000 Y117.631 E0.12542
G1 X121.480 Y117.238 E0.04923
G1 X120.342 Y116.156 E0.04923
G1 X119.869 Y114.500 E0.05400
G1 X119.869 Y95.500 E0.59573
G1 X120.262 Y93.980 E0.04923
G1 X121.318 Y92.870 E0.04805
G1 F5760
G1 X123.000 Y92.369 E-0.86814
G1 F5760
G1 X123.165 Y92.369 E-0.08186
G1 E-0.05000 F3000.00000
G1 X120.639 Y94.083 F7200.000
G1 E1.00000 F3000.00000
G1 F2100
G1 X121.705 Y93.069 E0.04612
G1 X123.000 Y92.746 E0.04186
G1 X127.000 Y92.746 E0.12542
G1 X128.417 Y93.139 E0.04612
G1 X129.431 Y94.205 E0.04612
G1 X129.754 Y95.500 E0.04186
G1 X129.754 Y114.500 E0.59573
G1 X129.361 Y115.917 E0.04612
G1 X128.295 Y116.931 E0.04612
G1 X127.000 Y117.254 E0.04186
G1 X123.000 Y117.254 E0.12542
G1 X121.583 Y116.861 E0.04612
G1 X120.569 Y115.795 E0.04612
G1 X120.246 Y114.500 E0.04186
G1 X120.246 Y95.500 E0.59573
G1 X120.629 Y94.119 E0.04494
G1 X121.015 Y94.193 F7200.000
G1 F2100
G1 X122.060 Y93.317 E0.04278
G1 X123.000 Y93.123 E0.03008
G1 X127.000 Y93.123 E0.12542
G1 X128.307 Y93.515 E0.04278
G1 X129.183 Y94.560 E0.04278
G1 X129.377 Y95.500 E0.03008
G1 X129.377 Y114.500 E0.59573
G1 X128.985 Y115.807 E0.04278
G1 X127.940 Y116.683 E0.04278
G1 X127.000 Y116.877 E0.03008
G1 X123.000 Y116.877 E0.12542
G1 X121.693 Y116.485 E0.04278
G1 X120.817 Y115.440 E0.04278
G1 X120.623 Y114.500 E0.03008
G1 X120.623 Y95.500 E0.59573
G1 X121.004 Y94.229 E0.04160
G1 F5760
G1 X122.060 Y93.317 E-0.69068
G1 F5760
G1 X122.574 Y93.211 E-0.25932
G1 E-0.05000 F3000.00000
G1 X123.964 Y96.464 F7200.000
G1 E1.00000 F3000.00000
G1 F840
G1 X126.036 Y96.464 E0.06496
G1 X126.036 Y113.536 E0.53527
G1 X123.964 Y113.536 E0.06496
G1 X123.964 Y96.502 E0.53409
G1 X123.587 Y96.087 F7200.000
G1 F1680
G1 X126.413 Y96.087 E0.08860
G1 X126.413 Y113.913 E0.55892
G1 X123.587 Y113.913 E0.08860
G1 X123.587 Y96.125 E0.55774
G1 X123.210 Y95.710 F7200.000
G1 F1050
G1 X126.790 Y95.710 E0.11225
G1 X126.790 Y114.290 E0.58256
G1 X123.210 Y114.290 E0.11225
G1 X123.210 Y95.747 E0.58139
G1 X123.434 Y95.821 F7200.000
G1 F5760
G1 X125.130 Y95.727 E-0.95000
G1 E-0.05000 F3000.00000
G1 X125.923 Y97.344 F7200.000
G1 E1.00000 F3000.00000
G1 F1680
G1 X125.326 Y96.747 E0.02661
G1 X124.790 Y96.747 E0.01690
G1 X125.753 Y97.710 E0.04295
G1 X125.753 Y98.247 E0.01690
G1 X124.247 Y96.747 E0.06700
G1 X124.247 Y97.277 E0.01670
G1 X125.753 Y98.783 E0.06715
G1 X125.753 Y99.319 E0.01690
G1 X124.247 Y97.813 E0.06715
G1 X124.247 Y98.349 E0.01690
G1 X125.753 Y99.855 E0.06715
G1 X125.753 Y100.391 E0.01690
G1 X124.247 Y98.885 E0.06715
G1 X124.247 Y99.421 E0.01690
G1 X125.753 Y100.927 E0.06715
G1 X125.753 Y101.464 E0.01690
G1 X124.247 Y99.958 E0.06715
G1 X124.247 Y100.494 E0.01690
G1 X125.753 Y102.000 E0.06715
G1 X125.753 Y102.536 E0.01690
G1 X124.247 Y101.030 E0.06715
G1 X124.247 Y101.566 E0.01690
G1 X125.753 Y103.072 E0.06715
G1 X125.753 Y103.608 E0.01690
G1 X124.247 Y102.102 E0.06715
G1 X124.247 Y102.638 E0.01690
G1 X125.753 Y104.145 E0.06715
G1 X125.753 Y104.681 E0.01690
G1 X124.247 Y103.175 E0.06715
G1 X124.247 Y103.711 E0.01690
G1 X125.753 Y105.217 E0.06715
G1 X125.753 Y105.753 E0.01690
G1 X124.247 Y104.247 E0.06715
G1 X124.247 Y104.783 E0.01690
G1 X125.753 Y106.289 E0.06715
G1 X125.753 Y106.825 E0.01690
G1 X124.247 Y105.319 E0.06715
G1 X124.247 Y105.856 E0.01690
G1 X125.753 Y107.362 E0.06715
G1 X125.753 Y107.898 E0.01690
G1 X124.247 Y106.392 E0.06715
G1 X124.247 Y106.928 E0.01690
G1 X125.753 Y108.434 E0.06715
G1 X125.753 Y108.970 E0.01690
G1 X124.247 Y107.464 E0.06715
G1 X124.247 Y108.000 E0.01690
G1 X125.753 Y109.506 E0.06715
G1 X125.753 Y110.043 E0.01690
G1 X124.247 Y108.536 E0.06715
G1 X124.247 Y109.073 E0.01690
G1 X125.753 Y110.579 E0.06715
G1 X125.753 Y111.115 E0.01690
G1 X124.247 Y109.609 E0.06715
G1 X124.247 Y110.145 E0.01690
G1 X125.753 Y111.651 E0.06715
G1 X125.753 Y112.187 E0.01690
G1 X124.247 Y110.681 E0.06715
G1 X124.247 Y111.217 E0.01690
G1 X125.753 Y112.723 E0.06715
G1 X125.753 Y113.253 E0.01669
G1 X124.247 Y111.754 E0.06700
G1 X124.247 Y112.290 E0.01690
G1 X125.210 Y113.253 E0.04295
G1 X124.674 Y113.253 E0.01690
G1 X124.077 Y112.656 E0.02661
M104 S240 ; set temperature
M140 S90 ; set bed temperature
G1 F5760
G1 X124.674 Y113.253 E-0.41761
G1 F5760
G1 X125.210 Y113.253 E-0.26530
G1 F5760
G1 X124.829 Y112.871 E-0.26709
G1 E-0.05000 F3000.00000
G1 Z0.300 F7200.000
G1 X124.082 Y113.418 F7200.000
G1 E1.00000 F3000.00000
M204 S800
G1 F579.946
G1 X124.082 Y96.582 E0.29996
G1 X125.918 Y96.582 E0.03271
G1 X125.918 Y113.418 E0.29996
G1 X124.120 Y113.418 E0.03204
M204 S1000
G1 X123.654 Y113.846 F7200.000
M204 S800
G1 F579.946
G1 X123.654 Y96.154 E0.31523
G1 X126.346 Y96.154 E0.04798
G1 X126.346 Y113.846 E0.31523
G1 X123.691 Y113.846 E0.04731
M204 S1000
G1 X123.225 Y114.275 F7200.000
M204 S800
G1 F724.932
G1 X123.225 Y95.725 E0.33050
G1 X126.775 Y95.725 E0.06325
G1 X126.775 Y114.275 E0.33050
G1 X123.262 Y114.275 E0.06258
M204 S1000
G1 X123.241 Y114.025 F7200.000
G1 F5760
G1 X123.259 Y112.355 E-0.95000
G1 E-0.05000 F3000.00000
G1 X124.920 Y113.289 F7200.000
G1 E1.00000 F3000.00000
M204 S2000
G1 F1159.891
G1 X125.597 Y112.613 E0.01710
G1 X125.597 Y112.005 E0.01087
G1 X124.505 Y113.097 E0.02760
G1 X124.403 Y113.097 E0.00181
G1 X124.403 Y112.590 E0.00906
G1 X125.597 Y111.397 E0.03016
G1 X125.597 Y110.789 E0.01087
G1 X124.403 Y111.982 E0.03016
G1 X124.403 Y111.373 E0.01087
G1 X125.597 Y110.180 E0.03016
G1 X125.597 Y109.572 E0.01087
G1 X124.403 Y110.765 E0.03016
G1 X124.403 Y110.157 E0.01087
G1 X125.597 Y108.964 E0.03016
G1 X125.597 Y108.356 E0.01087
G1 X124.403 Y109.549 E0.03016
G1 X124.403 Y108.941 E0.01087
G1 X125.597 Y107.748 E0.03016
G1 X125.597 Y107.140 E0.01087
G1 X124.403 Y108.333 E0.03016
G1 X124.403 Y107.725 E0.01087
G1 X125.597 Y106.532 E0.03016
G1 X125.597 Y105.924 E0.01087
G1 X124.403 Y107.117 E0.03016
G1 X124.403 Y106.509 E0.01087
G1 X125.597 Y105.316 E0.03016
G1 X125.597 Y104.707 E0.01087
G1 X124.403 Y105.901 E0.03016
G1 X124.403 Y105.292 E0.01087
G1 X125.597 Y104.099 E0.03016
G1 X125.597 Y103.491 E0.01087
G1 X124.403 Y104.684 E0.03016
G1 X124.403 Y104.076 E0.01087
G1 X125.597 Y102.883 E0.03016
G1 X125.597 Y102.275 E0.01087
G1 X124.403 Y103.468 E0.03016
G1 X124.403 Y102.860 E0.01087
G1 X125.597 Y101.667 E0.03016
G1 X125.597 Y101.059 E0.01087
G1 X124.403 Y102.252 E0.03016
G1 X124.403 Y101.644 E0.01087
G1 X125.597 Y100.451 E0.03016
G1 X125.597 Y99.843 E0.01087
G1 X124.403 Y101.036 E0.03016
G1 X124.403 Y100.428 E0.01087
G1 X125.597 Y99.235 E0.03016
G1 X125.597 Y98.626 E0.01087
G1 X124.403 Y99.819 E0.03016
G1 X124.403 Y99.211 E0.01087
G1 X125.597 Y98.018 E0.03016
G1 X125.597 Y97.410 E0.01087
G1 X124.403 Y98.603 E0.03016
G1 X124.403 Y97.995 E0.01087
G1 X125.495 Y96.903 E0.02760
G1 X124.887 Y96.903 E0.01087
G1 X124.211 Y97.580 E0.01710
M204 S1000
G1 F5760
G1 X124.887 Y96.903 E-0.47331
G1 F5760
G1 X125.495 Y96.903 E-0.30089
G1 F5760
G1 X125.244 Y97.155 E-0.17580
G1 E-0.05000 F3000.00000
G1 Z0.400 F7200.000
G1 X124.082 Y96.582 F7200.000
G1 E1.00000 F3000.00000
M204 S800
G1 F580.918
G1 X125.918 Y96.582 E0.03271
G1 X125.918 Y113.418 E0.29996
G1 X124.082 Y113.418 E0.03271
G1 X124.082 Y96.620 E0.29929
M204 S1000
G1 X123.654 Y96.154 F7200.000
M204 S800
G1 F580.918
G1 X126.346 Y96.154 E0.04798
G1 X126.346 Y113.846 E0.31523
G1 X123.654 Y113.846 E0.04798
G1 X123.654 Y96.191 E0.31456
M204 S1000
G1 X123.225 Y95.725 F7200.000
M204 S800
G1 F726.148
G1 X126.775 Y95.725 E0.06325
G1 X126.775 Y114.275 E0.33050
G1 X123.225 Y114.275 E0.06325
G1 X123.225 Y95.762 E0.32983
M204 S1000
G1 X123.449 Y95.836 F7200.000
G1 F5760
G1 X125.145 Y95.742 E-0.95000
G1 E-0.05000 F3000.00000
G1 X125.789 Y97.580 F7200.000
G1 E1.00000 F3000.00000
M204 S2000
G1 F1161.837
G1 X125.113 Y96.903 E0.01710
G1 X124.505 Y96.903 E0.01087
G1 X125.597 Y97.995 E0.02760
G1 X125.597 Y98.603 E0.01087
G1 X124.403 Y97.410 E0.03016
G1 X124.403 Y98.018 E0.01087
G1 X125.597 Y99.211 E0.03016
G1 X125.597 Y99.820 E0.01087
G1 X124.403 Y98.627 E0.03016
G1 X124.403 Y99.235 E0.01087
G1 X125.597 Y100.428 E0.03016
G1 X125.597 Y101.036 E0.01087
G1 X124.403 Y99.843 E0.03016
G1 X124.403 Y100.451 E0.01087
G1 X125.597 Y101.644 E0.03016
G1 X125.597 Y102.252 E0.01087
G1 X124.403 Y101.059 E0.03016
G1 X124.403 Y101.667 E0.01087
G1 X125.597 Y102.860 E0.03016
G1 X125.597 Y103.468 E0.01087
G1 X124.403 Y102.275 E0.03016
G1 X124.403 Y102.883 E0.01087
G1 X125.597 Y104.076 E0.03016
G1 X125.597 Y104.684 E0.01087
G1 X124.403 Y103.491 E0.03016
G1 X124.403 Y104.099 E0.01087
G1 X125.597 Y105.293 E0.03016
G1 X125.597 Y105.901 E0.01087
G1 X124.403 Y104.708 E0.03016
G1 X124.403 Y105.316 E0.01087
G1 X125.597 Y106.509 E0.03016
G1 X125.597 Y107.117 E0.01087
G1 X124.403 Y105.924 E0.03016
G1 X124.403 Y106.532 E0.01087
G1 X125.597 Y107.725 E0.03016
G1 X125.597 Y108.333 E0.01087
G1 X124.403 Y107.140 E0.03016
G1 X124.403 Y107.748 E0.01087
G1 X125.597 Y108.941 E0.03016
G1 X125.597 Y109.549 E0.01087
G1 X124.403 Y108.356 E0.03016
G1 X124.403 Y108.964 E0.01087
G1 X125.597 Y110.157 E0.03016
G1 X125.597 Y110.765 E0.01087
G1 X124.403 Y109.572 E0.03016
G1 X124.403 Y110.181 E0.01087
G1 X125.597 Y111.374 E0.03016
G1 X125.597 Y111.982 E0.01087
G1 X124.403 Y110.789 E0.03016
G1 X124.403 Y111.397 E0.01087
G1 X125.597 Y112.590 E0.03016
G1 X125.597 Y113.097 E0.00906
G1 X125.495 Y113.097 E0.00181
G1 X124.403 Y112.005 E0.02760
G1 X124.403 Y112.613 E0.01087
G1 X125.080 Y113.289 E0.01710
M204 S1000
M106 S127.5
G1 F5760
G1 X124.403 Y112.613 E-0.47331
G1 F5760
G1 X124.403 Y112.005 E-0.30089
G1 F5760
G1 X124.655 Y112.256 E-0.17581
G1 E-0.05000 F3000.00000
G1 Z0.500 F7200.000
G1 X125.918 Y113.418 F7200.000
G1 E1.00000 F3000.00000
M204 S800
G1 F580.106
G1 X124.082 Y113.418 E0.03271
G1 X124.082 Y96.582 E0.29996
G1 X125.918 Y96.582 E0.03271
G1 X125.918 Y113.380 E0.29929
M204 S1000
G1 X126.346 Y113.846 F7200.000
M204 S800
G1 F580.106
G1 X123.654 Y113.846 E0.04798
G1 X123.654 Y96.154 E0.31523
G1 X126.346 Y96.154 E0.04798
G1 X126.346 Y113.809 E0.31456
M204 S1000
G1 X126.775 Y114.275 F7200.000
M204 S800
G1 F725.133
G1 X123.225 Y114.275 E0.06325
G1 X123.225 Y95.725 E0.33050
G1 X126.775 Y95.725 E0.06325
G1 X126.775 Y114.238 E0.32983
M204 S1000
G1 X126.551 Y114.164 F7200.000
G1 F5760
G1 X124.855 Y114.258 E-0.95000
G1 E-0.05000 F3000.00000
G1 X124.920 Y113.289 F7200.000
G1 E1.00000 F3000.00000
M204 S2000
G1 F1160.213
G1 X125.597 Y112.613 E0.01710
G1 X125.597 Y112.005 E0.01087
G1 X124.505 Y113.097 E0.02760
G1 X124.403 Y113.097 E0.00181
G1 X124.403 Y112.590 E0.00906
G1 X125.597 Y111.397 E0.03016
G1 X125.597 Y110.789 E0.01087
G1 X124.403 Y111.982 E0.03016
G1 X124.403 Y111.373 E0.01087
G1 X125.597 Y110.180 E0.03016
G1 X125.597 Y109.572 E0.01087
G1 X124.403 Y110.765 E0.03016
G1 X124.403 Y110.157 E0.01087
G1 X125.597 Y108.964 E0.03016
G1 X125.597 Y108.356 E0.01087
G1 X124.403 Y109.549 E0.03016
G1 X124.403 Y108.941 E0.01087
G1 X125.597 Y107.748 E0.03016
G1 X125.597 Y107.140 E0.01087
G1 X124.403 Y108.333 E0.03016
G1 X124.403 Y107.725 E0.01087
G1 X125.597 Y106.532 E0.03016
G1 X125.597 Y105.924 E0.01087
G1 X124.403 Y107.117 E0.03016
G1 X124.403 Y106.509 E0.01087
G1 X125.597 Y105.316 E0.03016
G1 X125.597 Y104.707 E0.01087
G1 X124.403 Y105.901 E0.03016
G1 X124.403 Y105.292 E0.01087
G1 X125.597 Y104.099 E0.03016
G1 X125.597 Y103.491 E0.01087
G1 X124.403 Y104.684 E0.03016
G1 X124.403 Y104.076 E0.01087
G1 X125.597 Y102.883 E0.03016
G1 X125.597 Y102.275 E0.01087
G1 X124.403 Y103.468 E0.03016
G1 X124.403 Y102.860 E0.01087
G1 X125.597 Y101.667 E0.03016
G1 X125.597 Y101.059 E0.01087
G1 X124.403 Y102.252 E0.03016
G1 X124.403 Y101.644 E0.01087
G1 X125.597 Y100.451 E0.03016
G1 X125.597 Y99.843 E0.01087
G1 X124.403 Y101.036 E0.03016
G1 X124.403 Y100.428 E0.01087
G1 X125.597 Y99.235 E0.03016
G1 X125.597 Y98.626 E0.01087
G1 X124.403 Y99.819 E0.03016
G1 X124.403 Y99.211 E0.01087
G1 X125.597 Y98.018 E0.03016
G1 X125.597 Y97.410 E0.01087
G1 X124.403 Y98.603 E0.03016
G1 X124.403 Y97.995 E0.01087
G1 X125.495 Y96.903 E0.02760
G1 X124.887 Y96.903 E0.01087
G1 X124.211 Y97.580 E0.01710
M204 S1000
G1 F5760
G1 X124.887 Y96.903 E-0.47331
G1 F5760
G1 X125.495 Y96.903 E-0.30089
G1 F5760
G1 X125.244 Y97.155 E-0.17580
G1 E-0.05000 F3000.00000
G1 Z0.600 F7200.000
G1 X124.082 Y96.582 F7200.000
G1 E1.00000 F3000.00000
M204 S800
G1 F580.918
G1 X125.918 Y96.582 E0.03271
G1 X125.918 Y113.418 E0.29996
G1 X124.082 Y113.418 E0.03271
G1 X124.082 Y96.620 E0.29929
M204 S1000
G1 X123.654 Y96.154 F7200.000
M204 S800
G1 F580.918
G1 X126.346 Y96.154 E0.04798
G1 X126.346 Y113.846 E0.31523
G1 X123.654 Y113.846 E0.04798
G1 X123.654 Y96.191 E0.31456
M204 S1000
G1 X123.225 Y95.725 F7200.000
M204 S800
G1 F726.148
G1 X126.775 Y95.725 E0.06325
G1 X126.775 Y114.275 E0.33050
G1 X123.225 Y114.275 E0.06325
G1 X123.225 Y95.762 E0.32983
M204 S1000
G1 X123.449 Y95.836 F7200.000
G1 F5760
G1 X125.145 Y95.742 E-0.95000
G1 E-0.05000 F3000.00000
G1 X125.789 Y97.580 F7200.000
G1 E1.00000 F3000.00000
M204 S2000
G1 F1161.837
G1 X125.113 Y96.903 E0.01710
G1 X124.505 Y96.903 E0.01087
G1 X125.597 Y97.995 E0.02760
G1 X125.597 Y98.603 E0.01087
G1 X124.403 Y97.410 E0.03016
G1 X124.403 Y98.018 E0.01087
G1 X125.597 Y99.211 E0.03016
G1 X125.597 Y99.820 E0.01087
G1 X124.403 Y98.627 E0.03016
G1 X124.403 Y99.235 E0.01087
G1 X125.597 Y100.428 E0.03016
G1 X125.597 Y101.036 E0.01087
G1 X124.403 Y99.843 E0.03016
G1 X124.403 Y100.451 E0.01087
G1 X125.597 Y101.644 E0.03016
G1 X125.597 Y102.252 E0.01087
G1 X124.403 Y101.059 E0.03016
G1 X124.403 Y101.667 E0.01087
G1 X125.597 Y102.860 E0.03016
G1 X125.597 Y103.468 E0.01087
G1 X124.403 Y102.275 E0.03016
G1 X124.403 Y102.883 E0.01087
G1 X125.597 Y104.076 E0.03016
G1 X125.597 Y104.684 E0.01087
G1 X124.403 Y103.491 E0.03016
G1 X124.403 Y104.099 E0.01087
G1 X125.597 Y105.293 E0.03016
G1 X125.597 Y105.901 E0.01087
G1 X124.403 Y104.708 E0.03016
G1 X124.403 Y105.316 E0.01087
G1 X125.597 Y106.509 E0.03016
G1 X125.597 Y107.117 E0.01087
G1 X124.403 Y105.924 E0.03016
G1 X124.403 Y106.532 E0.01087
G1 X125.597 Y107.725 E0.03016
G1 X125.597 Y108.333 E0.01087
G1 X124.403 Y107.140 E0.03016
G1 X124.403 Y107.748 E0.01087
G1 X125.597 Y108.941 E0.03016
G1 X125.597 Y109.549 E0.01087
G1 X124.403 Y108.356 E0.03016
G1 X124.403 Y108.964 E0.01087
G1 X125.597 Y110.157 E0.03016
G1 X125.597 Y110.765 E0.01087
G1 X124.403 Y109.572 E0.03016
G1 X124.403 Y110.181 E0.01087
G1 X125.597 Y111.374 E0.03016
G1 X125.597 Y111.982 E0.01087
G1 X124.403 Y110.789 E0.03016
G1 X124.403 Y111.397 E0.01087
G1 X125.597 Y112.590 E0.03016
G1 X125.597 Y113.097 E0.00906
G1 X125.495 Y113.097 E0.00181
G1 X124.403 Y112.005 E0.02760
G1 X124.403 Y112.613 E0.01087
G1 X125.080 Y113.289 E0.01710
M204 S1000
G1 F5760
G1 X124.403 Y112.613 E-0.47331
G1 F5760
G1 X124.403 Y112.005 E-0.30089
G1 F5760
G1 X124.655 Y112.256 E-0.17581
G1 E-0.05000 F3000.00000
G1 Z0.700 F7200.000
G1 X125.918 Y113.418 F7200.000
G1 E1.00000 F3000.00000
M204 S800
G1 F580.106
G1 X124.082 Y113.418 E0.03271
G1 X124.082 Y96.582 E0.29996
G1 X125.918 Y96.582 E0.03271
G1 X125.918 Y113.380 E0.29929
M204 S1000
G1 X126.346 Y113.846 F7200.000
