; generated by Slic3r 1.31.6-prusa3d-win64 on 2017-03-01 at 14:04:57

; external perimeters extrusion width = 0.45mm
; perimeters extrusion width = 0.45mm
; infill extrusion width = 0.45mm
; solid infill extrusion width = 0.45mm
; top infill extrusion width = 0.40mm

M107
M115 U3.0.9 ; tell printer latest fw version
M83  ; extruder relative mode
M104 S230 ; set extruder temp
M140 S85 ; set bed temp
M190 S85 ; wait for bed temp
M109 S230 ; wait for extruder temp
G28 W ; home all without mesh bed level
G80 ; mesh bed leveling
G1 Y-3.0 F1000.0 ; go outside pritn area
G1 X60.0 E9.0  F1000.0 ; intro line
G1 X100.0 E12.5  F1000.0 ; intro line
G21 ; set units to millimeters
G90 ; use absolute coordinates
M83 ; use relative distances for extrusion
G1 E-0.80000 F2100.00000
G1 Z0.200 F7200.000
G1 X4.857 Y78.711 F7200.000
G1 E0.80000 F2100.00000
M204 S1000
G1 F2100
G1 X5.941 Y77.882 E0.04278
G1 X6.783 Y77.728 E0.02683
G1 X121.783 Y77.728 E3.60574
G1 X244.636 Y80.137 E3.85274
G1 X245.936 Y80.554 E0.04278
G1 X246.791 Y81.617 E0.04278
G1 X246.967 Y82.514 E0.02865
G1 X246.961 Y101.683 E0.60105
G1 X244.963 Y129.605 E0.87770
G1 X244.479 Y130.880 E0.04278
G1 X243.374 Y131.680 E0.04278
G1 X242.601 Y131.812 E0.02458
G1 X120.419 Y132.272 E3.83096
G1 X5.410 Y132.272 E3.60602
G1 X4.103 Y131.880 E0.04278
G1 X3.227 Y130.834 E0.04278
G1 X3.033 Y129.895 E0.03008
G1 X3.035 Y110.789 E0.59905
G1 X4.408 Y79.999 E0.96634
G1 X4.838 Y78.768 E0.04090
G1 F5760
G1 X5.941 Y77.882 E-0.49007
G1 F5760
G1 X6.708 Y77.742 E-0.26993
G1 E-0.04000 F2100.00000
G1 X7.747 Y81.069 F7200.000
G1 E0.80000 F2100.00000
G1 F1680
G1 X26.888 Y81.069 E0.60016
G1 X27.902 Y81.091 E0.03181
G1 X28.957 Y81.158 E0.03315
G1 X29.981 Y81.268 E0.03229
G1 X31.000 Y81.422 E0.03231
G1 X32.012 Y81.620 E0.03231
G1 X33.014 Y81.861 E0.03231
G1 X34.004 Y82.144 E0.03231
G1 X34.982 Y82.470 E0.03231
G1 X35.954 Y82.841 E0.03263
G1 X44.898 Y86.474 E0.30267
G1 X45.658 Y86.759 E0.02545
G1 X46.445 Y87.005 E0.02586
G1 X47.245 Y87.207 E0.02586
G1 X48.054 Y87.366 E0.02586
G1 X48.871 Y87.479 E0.02586
G1 X49.693 Y87.547 E0.02586
G1 X50.505 Y87.569 E0.02545
G1 X78.061 Y87.569 E0.86400
G1 X78.872 Y87.547 E0.02545
G1 X79.674 Y87.481 E0.02524
G1 X80.510 Y87.366 E0.02647
G1 X81.321 Y87.207 E0.02588
G1 X82.120 Y87.005 E0.02586
G1 X82.907 Y86.759 E0.02586
G1 X83.667 Y86.474 E0.02545
G1 X92.611 Y82.841 E0.30268
G1 X93.583 Y82.470 E0.03263
G1 X94.561 Y82.144 E0.03231
G1 X95.552 Y81.861 E0.03231
G1 X96.528 Y81.626 E0.03149
G1 X97.565 Y81.422 E0.03315
G1 X98.584 Y81.268 E0.03229
G1 X99.608 Y81.158 E0.03231
G1 X100.610 Y81.093 E0.03149
G1 X101.678 Y81.069 E0.03347
G1 X120.818 Y81.069 E0.60014
G1 X120.818 Y98.141 E0.53527
G1 X101.677 Y98.141 E0.60016
G1 X100.637 Y98.119 E0.03263
G1 X99.608 Y98.053 E0.03231
G1 X98.584 Y97.942 E0.03231
G1 X97.565 Y97.788 E0.03231
G1 X96.554 Y97.591 E0.03231
G1 X95.552 Y97.350 E0.03231
G1 X94.561 Y97.066 E0.03231
G1 X93.583 Y96.741 E0.03231
G1 X92.611 Y96.370 E0.03263
G1 X83.667 Y92.736 E0.30267
G1 X82.907 Y92.452 E0.02545
G1 X82.120 Y92.206 E0.02586
G1 X81.321 Y92.003 E0.02586
G1 X80.511 Y91.845 E0.02586
G1 X79.714 Y91.734 E0.02524
G1 X78.873 Y91.664 E0.02647
G1 X78.061 Y91.641 E0.02547
G1 X50.505 Y91.641 E0.86400
G1 X49.693 Y91.663 E0.02545
G1 X48.871 Y91.732 E0.02586
G1 X48.054 Y91.845 E0.02586
G1 X47.245 Y92.003 E0.02586
G1 X46.445 Y92.206 E0.02586
G1 X45.658 Y92.452 E0.02586
G1 X44.898 Y92.736 E0.02545
G1 X35.954 Y96.370 E0.30267
G1 X34.982 Y96.741 E0.03263
G1 X34.004 Y97.066 E0.03231
G1 X33.014 Y97.350 E0.03231
G1 X32.012 Y97.591 E0.03231
G1 X31.000 Y97.788 E0.03231
G1 X29.981 Y97.942 E0.03231
G1 X28.957 Y98.053 E0.03231
G1 X27.929 Y98.119 E0.03231
G1 X26.888 Y98.141 E0.03263
G1 X7.747 Y98.141 E0.60016
G1 X7.747 Y81.129 E0.53339
G1 X7.370 Y80.692 F7200.000
G1 F1680
G1 X26.892 Y80.692 E0.61211
G1 X27.918 Y80.714 E0.03218
G1 X28.990 Y80.782 E0.03366
G1 X30.030 Y80.894 E0.03281
G1 X31.065 Y81.051 E0.03282
G1 X32.092 Y81.251 E0.03282
G1 X33.110 Y81.496 E0.03282
G1 X34.116 Y81.784 E0.03282
G1 X35.109 Y82.115 E0.03282
G1 X36.093 Y82.490 E0.03301
G1 X45.035 Y86.123 E0.30264
G1 X45.780 Y86.402 E0.02496
G1 X46.548 Y86.642 E0.02521
G1 X47.327 Y86.839 E0.02521
G1 X48.116 Y86.994 E0.02521
G1 X48.913 Y87.104 E0.02521
G1 X49.714 Y87.170 E0.02521
G1 X50.510 Y87.192 E0.02496
G1 X78.056 Y87.192 E0.86368
G1 X78.851 Y87.170 E0.02496
G1 X79.633 Y87.106 E0.02459
G1 X80.448 Y86.994 E0.02581
G1 X81.238 Y86.839 E0.02522
G1 X82.017 Y86.642 E0.02521
G1 X82.785 Y86.402 E0.02521
G1 X83.530 Y86.123 E0.02496
G1 X92.473 Y82.490 E0.30264
G1 X93.456 Y82.115 E0.03301
G1 X94.449 Y81.784 E0.03282
G1 X95.456 Y81.496 E0.03282
G1 X96.448 Y81.258 E0.03199
G1 X97.501 Y81.051 E0.03366
G1 X98.535 Y80.894 E0.03281
G1 X99.576 Y80.782 E0.03282
G1 X100.594 Y80.717 E0.03199
G1 X101.674 Y80.692 E0.03385
G1 X121.196 Y80.692 E0.61210
G1 X121.196 Y98.518 E0.55892
G1 X101.673 Y98.518 E0.61211
G1 X100.621 Y98.496 E0.03301
G1 X99.576 Y98.428 E0.03282
G1 X98.535 Y98.316 E0.03282
G1 X97.501 Y98.160 E0.03282
G1 X96.473 Y97.959 E0.03282
G1 X95.456 Y97.715 E0.03282
G1 X94.449 Y97.427 E0.03282
G1 X93.456 Y97.096 E0.03282
G1 X92.473 Y96.721 E0.03301
G1 X83.530 Y93.088 E0.30264
G1 X82.785 Y92.809 E0.02496
G1 X82.017 Y92.569 E0.02521
G1 X81.238 Y92.371 E0.02521
G1 X80.449 Y92.217 E0.02521
G1 X79.672 Y92.109 E0.02459
G1 X78.852 Y92.040 E0.02581
G1 X78.056 Y92.018 E0.02497
G1 X50.510 Y92.018 E0.86368
G1 X49.714 Y92.040 E0.02496
G1 X48.913 Y92.107 E0.02521
G1 X48.116 Y92.217 E0.02521
G1 X47.327 Y92.371 E0.02521
G1 X46.548 Y92.569 E0.02521
G1 X45.780 Y92.809 E0.02521
G1 X45.035 Y93.088 E0.02496
G1 X36.093 Y96.721 E0.30264
G1 X35.109 Y97.096 E0.03301
G1 X34.116 Y97.427 E0.03282
G1 X33.110 Y97.715 E0.03282
G1 X32.092 Y97.959 E0.03282
G1 X31.065 Y98.160 E0.03282
G1 X30.030 Y98.316 E0.03282
G1 X28.989 Y98.428 E0.03282
G1 X27.945 Y98.496 E0.03282
G1 X26.892 Y98.518 E0.03301
G1 X7.370 Y98.518 E0.61211
G1 X7.370 Y80.752 E0.55704
G1 X6.993 Y80.315 F7200.000
G1 F1260
G1 X26.896 Y80.315 E0.62406
G1 X27.934 Y80.338 E0.03256
G1 X29.022 Y80.406 E0.03416
G1 X30.078 Y80.520 E0.03332
G1 X31.129 Y80.679 E0.03332
G1 X32.172 Y80.883 E0.03332
G1 X33.206 Y81.131 E0.03332
G1 X34.227 Y81.424 E0.03332
G1 X35.236 Y81.759 E0.03332
G1 X36.231 Y82.139 E0.03339
G1 X45.172 Y85.771 E0.30260
G1 X45.903 Y86.045 E0.02447
G1 X46.651 Y86.279 E0.02456
G1 X47.410 Y86.471 E0.02456
G1 X48.179 Y86.621 E0.02456
G1 X48.954 Y86.729 E0.02456
G1 X49.735 Y86.794 E0.02456
G1 X50.515 Y86.815 E0.02447
G1 X78.050 Y86.815 E0.86335
G1 X78.830 Y86.794 E0.02447
G1 X79.592 Y86.731 E0.02395
G1 X80.387 Y86.622 E0.02516
G1 X81.155 Y86.471 E0.02456
G1 X81.915 Y86.279 E0.02456
G1 X82.662 Y86.045 E0.02456
G1 X83.393 Y85.771 E0.02447
G1 X92.334 Y82.139 E0.30260
G1 X93.330 Y81.759 E0.03339
G1 X94.338 Y81.424 E0.03332
G1 X95.360 Y81.131 E0.03332
G1 X96.367 Y80.889 E0.03249
G1 X97.436 Y80.679 E0.03416
G1 X98.487 Y80.520 E0.03332
G1 X99.544 Y80.406 E0.03332
G1 X100.578 Y80.340 E0.03249
G1 X101.669 Y80.315 E0.03423
G1 X121.573 Y80.315 E0.62406
G1 X121.573 Y98.895 E0.58256
G1 X101.669 Y98.895 E0.62406
G1 X100.604 Y98.872 E0.03339
G1 X99.544 Y98.804 E0.03332
G1 X98.487 Y98.690 E0.03332
G1 X97.436 Y98.532 E0.03332
G1 X96.393 Y98.328 E0.03332
G1 X95.360 Y98.079 E0.03332
G1 X94.338 Y97.787 E0.03332
G1 X93.330 Y97.451 E0.03332
G1 X92.334 Y97.072 E0.03339
G1 X83.393 Y93.439 E0.30260
G1 X82.662 Y93.165 E0.02447
G1 X81.915 Y92.932 E0.02456
G1 X81.155 Y92.739 E0.02456
G1 X80.387 Y92.589 E0.02456
G1 X79.630 Y92.484 E0.02395
G1 X78.831 Y92.417 E0.02516
G1 X78.050 Y92.395 E0.02447
G1 X50.515 Y92.395 E0.86335
G1 X49.735 Y92.417 E0.02447
G1 X48.954 Y92.481 E0.02456
G1 X48.179 Y92.589 E0.02456
G1 X47.410 Y92.739 E0.02456
G1 X46.651 Y92.932 E0.02456
G1 X45.903 Y93.165 E0.02456
G1 X45.172 Y93.439 E0.02447
G1 X36.231 Y97.072 E0.30260
G1 X35.236 Y97.451 E0.03339
G1 X34.227 Y97.787 E0.03332
G1 X33.206 Y98.079 E0.03332
G1 X32.172 Y98.328 E0.03332
G1 X31.129 Y98.532 E0.03332
G1 X30.078 Y98.690 E0.03332
G1 X29.022 Y98.804 E0.03332
G1 X27.961 Y98.872 E0.03332
G1 X26.896 Y98.895 E0.03339
G1 X6.993 Y98.895 E0.62406
G1 X6.993 Y80.375 E0.58068
G1 X7.380 Y80.414 F7200.000
G1 F5760
G1 X9.187 Y80.369 E-0.76000
G1 E-0.04000 F2100.00000
G1 X7.860 Y97.265 F7200.000
G1 E0.80000 F2100.00000
G1 F1680
G1 X8.454 Y97.858 E0.02637
G1 X8.988 Y97.858 E0.01677
G1 X8.030 Y96.900 E0.04255
G1 X8.030 Y96.366 E0.01677
G1 X9.522 Y97.858 E0.06626
G1 X10.056 Y97.858 E0.01677
G1 X8.030 Y95.832 E0.08997
G1 X8.030 Y95.298 E0.01677
G1 X10.590 Y97.858 E0.11368
G1 X11.124 Y97.858 E0.01677
G1 X8.030 Y94.764 E0.13739
G1 X8.030 Y94.230 E0.01677
G1 X11.658 Y97.858 E0.16111
G1 X12.192 Y97.858 E0.01677
G1 X8.030 Y93.696 E0.18482
G1 X8.030 Y93.162 E0.01677
G1 X12.726 Y97.858 E0.20853
G1 X13.260 Y97.858 E0.01677
G1 X8.030 Y92.628 E0.23224
G1 X8.030 Y92.094 E0.01677
G1 X13.794 Y97.858 E0.25596
G1 X14.328 Y97.858 E0.01677
G1 X8.030 Y91.560 E0.27967
G1 X8.030 Y91.026 E0.01677
G1 X14.862 Y97.858 E0.30338
G1 X15.396 Y97.858 E0.01677
G1 X8.030 Y90.492 E0.32709
G1 X8.030 Y89.958 E0.01677
G1 X15.930 Y97.858 E0.35081
G1 X16.464 Y97.858 E0.01677
G1 X8.030 Y89.424 E0.37452
G1 X8.030 Y88.890 E0.01677
G1 X16.998 Y97.858 E0.39823
G1 X17.532 Y97.858 E0.01677
G1 X8.030 Y88.356 E0.42194
G1 X8.030 Y87.822 E0.01677
G1 X18.066 Y97.858 E0.44565
G1 X18.600 Y97.858 E0.01677
G1 X8.030 Y87.288 E0.46937
G1 X8.030 Y86.754 E0.01677
G1 X19.134 Y97.858 E0.49308
G1 X19.668 Y97.858 E0.01677
G1 X8.030 Y86.220 E0.51679
G1 X8.030 Y85.686 E0.01677
G1 X20.202 Y97.858 E0.54050
G1 X20.736 Y97.858 E0.01677
G1 X8.030 Y85.152 E0.56422
G1 X8.030 Y84.618 E0.01677
G1 X21.270 Y97.858 E0.58793
G1 X21.804 Y97.858 E0.01677
G1 X8.030 Y84.084 E0.61164
G1 X8.030 Y83.550 E0.01677
G1 X22.338 Y97.858 E0.63535
G1 X22.872 Y97.858 E0.01677
G1 X8.030 Y83.016 E0.65907
G1 X8.030 Y82.482 E0.01677
G1 X23.406 Y97.858 E0.68278
G1 X23.940 Y97.858 E0.01677
G1 X8.030 Y81.948 E0.70649
G1 X8.030 Y81.414 E0.01677
G1 X24.474 Y97.858 E0.73020
G1 X25.008 Y97.858 E0.01677
G1 X8.502 Y81.352 E0.73293
G1 X9.036 Y81.352 E0.01677
G1 X25.542 Y97.858 E0.73293
G1 X26.076 Y97.858 E0.01677
G1 X9.570 Y81.352 E0.73293
G1 X10.104 Y81.352 E0.01677
G1 X26.610 Y97.858 E0.73293
G1 X27.139 Y97.853 E0.01660
G1 X10.638 Y81.352 E0.73269
G1 X11.172 Y81.352 E0.01677
G1 X27.662 Y97.842 E0.73219
G1 X28.174 Y97.820 E0.01609
G1 X11.706 Y81.352 E0.73121
G1 X12.240 Y81.352 E0.01677
G1 X28.675 Y97.787 E0.72978
G1 X29.168 Y97.746 E0.01551
G1 X12.774 Y81.352 E0.72792
G1 X13.308 Y81.352 E0.01677
G1 X29.650 Y97.694 E0.72562
G1 X30.125 Y97.635 E0.01503
G1 X13.842 Y81.352 E0.72300
G1 X14.376 Y81.352 E0.01677
G1 X30.589 Y97.565 E0.71989
G1 X31.049 Y97.491 E0.01463
G1 X14.910 Y81.352 E0.71661
G1 X15.444 Y81.352 E0.01677
G1 X31.496 Y97.403 E0.71273
G1 X31.942 Y97.316 E0.01429
G1 X15.978 Y81.352 E0.70886
G1 X16.512 Y81.352 E0.01677
G1 X32.373 Y97.213 E0.70428
G1 X32.804 Y97.110 E0.01390
G1 X17.046 Y81.352 E0.69968
G1 X17.580 Y81.352 E0.01677
G1 X33.224 Y96.996 E0.69463
G1 X33.639 Y96.877 E0.01356
G1 X18.114 Y81.352 E0.68935
G1 X18.648 Y81.352 E0.01677
G1 X34.050 Y96.753 E0.68387
G1 X34.450 Y96.620 E0.01326
G1 X19.182 Y81.352 E0.67794
G1 X19.716 Y81.352 E0.01677
G1 X34.851 Y96.486 E0.67202
G1 X35.239 Y96.340 E0.01301
G1 X20.251 Y81.352 E0.66552
G1 X20.785 Y81.352 E0.01677
G1 X35.625 Y96.193 E0.65898
G1 X36.009 Y96.042 E0.01294
G1 X21.319 Y81.352 E0.65230
G1 X21.853 Y81.352 E0.01677
G1 X36.389 Y95.888 E0.64545
G1 X36.768 Y95.734 E0.01287
G1 X22.387 Y81.352 E0.63860
G1 X22.921 Y81.352 E0.01677
G1 X37.148 Y95.580 E0.63175
G1 X37.528 Y95.425 E0.01287
G1 X23.455 Y81.352 E0.62490
G1 X23.989 Y81.352 E0.01677
G1 X37.908 Y95.271 E0.61805
G1 X38.287 Y95.117 E0.01287
G1 X24.523 Y81.352 E0.61120
G1 X25.057 Y81.352 E0.01677
G1 X38.667 Y94.963 E0.60435
G1 X39.047 Y94.808 E0.01287
G1 X25.591 Y81.352 E0.59750
G1 X26.125 Y81.352 E0.01677
G1 X39.427 Y94.654 E0.59065
G1 X39.806 Y94.500 E0.01287
G1 X26.659 Y81.352 E0.58380
G1 X27.199 Y81.359 E0.01698
G1 X40.186 Y94.346 E0.57665
G1 X40.566 Y94.191 E0.01287
G1 X27.745 Y81.371 E0.56928
G1 X28.309 Y81.400 E0.01772
G1 X40.945 Y94.037 E0.56111
G1 X41.325 Y93.883 E0.01287
G1 X28.879 Y81.436 E0.55266
G1 X29.475 Y81.498 E0.01880
G1 X41.705 Y93.728 E0.54307
G1 X42.085 Y93.574 E0.01287
G1 X30.080 Y81.569 E0.53307
G1 X30.709 Y81.664 E0.01998
G1 X42.464 Y93.420 E0.52200
G1 X42.844 Y93.266 E0.01287
G1 X31.359 Y81.781 E0.50998
G1 X32.027 Y81.914 E0.02139
G1 X43.224 Y93.111 E0.49719
G1 X43.604 Y92.957 E0.01287
G1 X32.730 Y82.083 E0.48284
G1 X33.464 Y82.284 E0.02390
G1 X43.983 Y92.803 E0.46708
G1 X44.363 Y92.649 E0.01287
G1 X34.233 Y82.518 E0.44982
G1 X35.045 Y82.797 E0.02696
G1 X44.743 Y92.494 E0.43061
G1 X45.130 Y92.348 E0.01300
G1 X35.911 Y83.128 E0.40936
G1 X36.811 Y83.494 E0.03048
G1 X45.519 Y92.202 E0.38668
G1 X45.923 Y92.073 E0.01334
G1 X37.710 Y83.859 E0.36471
G1 X38.609 Y84.225 E0.03048
G1 X46.330 Y91.945 E0.34283
G1 X46.754 Y91.836 E0.01376
G1 X39.509 Y84.590 E0.32173
G1 X40.408 Y84.955 E0.03048
G1 X47.180 Y91.728 E0.30072
G1 X47.627 Y91.640 E0.01429
G1 X41.307 Y85.321 E0.28061
G1 X42.207 Y85.686 E0.03048
G1 X48.077 Y91.556 E0.26066
G1 X48.546 Y91.491 E0.01487
G1 X43.106 Y86.051 E0.24155
G1 X44.006 Y86.417 E0.03048
G1 X49.024 Y91.435 E0.22284
G1 X49.517 Y91.394 E0.01554
G1 X44.899 Y86.777 E0.20504
G1 X45.736 Y87.080 E0.02795
G1 X50.028 Y91.371 E0.19057
G1 X50.549 Y91.358 E0.01636
G1 X46.502 Y87.311 E0.17971
G1 X47.215 Y87.490 E0.02307
G1 X51.083 Y91.358 E0.17178
G1 X51.617 Y91.358 E0.01677
G1 X47.878 Y87.619 E0.16602
G1 X48.507 Y87.714 E0.01996
G1 X52.151 Y91.358 E0.16183
G1 X52.685 Y91.358 E0.01677
G1 X49.109 Y87.782 E0.15878
G1 X49.691 Y87.830 E0.01832
G1 X53.219 Y91.358 E0.15668
G1 X53.753 Y91.358 E0.01677
G1 X50.240 Y87.845 E0.15600
G1 X50.781 Y87.852 E0.01699
G1 X54.287 Y91.358 E0.15568
G1 X54.821 Y91.358 E0.01677
G1 X51.315 Y87.852 E0.15568
G1 X51.849 Y87.852 E0.01677
G1 X55.355 Y91.358 E0.15568
G1 X55.889 Y91.358 E0.01677
G1 X52.383 Y87.852 E0.15568
G1 X52.917 Y87.852 E0.01677
G1 X56.423 Y91.358 E0.15568
G1 X56.957 Y91.358 E0.01677
G1 X53.451 Y87.852 E0.15568
G1 X53.985 Y87.852 E0.01677
G1 X57.491 Y91.358 E0.15568
G1 X58.025 Y91.358 E0.01677
G1 X54.519 Y87.852 E0.15568
G1 X55.053 Y87.852 E0.01677
G1 X58.560 Y91.358 E0.15568
G1 X59.094 Y91.358 E0.01677
G1 X55.587 Y87.852 E0.15568
G1 X56.121 Y87.852 E0.01677
G1 X59.628 Y91.358 E0.15568
G1 X60.162 Y91.358 E0.01677
G1 X56.655 Y87.852 E0.15568
G1 X57.189 Y87.852 E0.01677
G1 X60.696 Y91.358 E0.15568
G1 X61.230 Y91.358 E0.01677
G1 X57.723 Y87.852 E0.15568
G1 X58.258 Y87.852 E0.01677
G1 X61.764 Y91.358 E0.15568
G1 X62.298 Y91.358 E0.01677
G1 X58.792 Y87.852 E0.15568
G1 X59.326 Y87.852 E0.01677
G1 X62.832 Y91.358 E0.15568
G1 X63.366 Y91.358 E0.01677
G1 X59.860 Y87.852 E0.15568
G1 X60.394 Y87.852 E0.01677
G1 X63.900 Y91.358 E0.15568
G1 X64.434 Y91.358 E0.01677
G1 X60.928 Y87.852 E0.15568
G1 X61.462 Y87.852 E0.01677
G1 X64.968 Y91.358 E0.15568
G1 X65.502 Y91.358 E0.01677
G1 X61.996 Y87.852 E0.15568
G1 X62.530 Y87.852 E0.01677
G1 X66.036 Y91.358 E0.15568
G1 X66.570 Y91.358 E0.01677
G1 X63.064 Y87.852 E0.15568
G1 X63.598 Y87.852 E0.01677
G1 X67.104 Y91.358 E0.15568
G1 X67.638 Y91.358 E0.01677
G1 X64.132 Y87.852 E0.15568
G1 X64.666 Y87.852 E0.01677
G1 X68.172 Y91.358 E0.15568
G1 X68.706 Y91.358 E0.01677
G1 X65.200 Y87.852 E0.15568
G1 X65.734 Y87.852 E0.01677
G1 X69.240 Y91.358 E0.15568
G1 X69.774 Y91.358 E0.01677
G1 X66.268 Y87.852 E0.15568
G1 X66.802 Y87.852 E0.01677
G1 X70.308 Y91.358 E0.15568
G1 X70.842 Y91.358 E0.01677
G1 X67.336 Y87.852 E0.15568
G1 X67.870 Y87.852 E0.01677
G1 X71.376 Y91.358 E0.15568
G1 X71.910 Y91.358 E0.01677
G1 X68.404 Y87.852 E0.15568
G1 X68.938 Y87.852 E0.01677
G1 X72.444 Y91.358 E0.15568
G1 X72.978 Y91.358 E0.01677
G1 X69.472 Y87.852 E0.15568
G1 X70.006 Y87.852 E0.01677
G1 X73.512 Y91.358 E0.15568
G1 X74.046 Y91.358 E0.01677
G1 X70.540 Y87.852 E0.15568
G1 X71.074 Y87.852 E0.01677
G1 X74.580 Y91.358 E0.15568
G1 X75.114 Y91.358 E0.01677
G1 X71.608 Y87.852 E0.15568
G1 X72.142 Y87.852 E0.01677
G1 X75.648 Y91.358 E0.15568
G1 X76.182 Y91.358 E0.01677
G1 X72.676 Y87.852 E0.15568
