; generated by Slic3r 1.31.6-prusa3d-win64 on 2017-03-14 at 14:13:24

; external perimeters extrusion width = 0.45mm
; perimeters extrusion width = 0.45mm
; infill extrusion width = 0.45mm
; solid infill extrusion width = 0.45mm
; top infill extrusion width = 0.40mm

M107
M115 U3.0.9 ; tell printer latest fw version
M83  ; extruder relative mode
M104 S230 ; set extruder temp
M140 S85 ; set bed temp
M190 S85 ; wait for bed temp
M109 S230 ; wait for extruder temp
G28 W ; home all without mesh bed level
G80 ; mesh bed leveling
G1 Y-3.0 F1000.0 ; go outside pritn area
G1 X60.0 E9.0  F1000.0 ; intro line
G1 X100.0 E12.5  F1000.0 ; intro line
G21 ; set units to millimeters
G90 ; use absolute coordinates
M83 ; use relative distances for extrusion
G1 E-0.80000 F2100.00000
G1 Z0.200 F7200.000
G1 X5.015 Y94.193 F7200.000
G1 E0.80000 F2100.00000
M204 S1000
G1 F2100
G1 X6.519 Y93.172 E0.05701
G1 X127.519 Y68.172 E3.87400
G1 X128.000 Y68.123 E0.01516
G1 X243.000 Y68.123 E3.60574
G1 X244.307 Y68.515 E0.04278
G1 X245.183 Y69.560 E0.04278
G1 X245.377 Y70.500 E0.03008
G1 X245.377 Y139.500 E2.16345
G1 X244.985 Y140.807 E0.04278
G1 X243.940 Y141.683 E0.04278
G1 X243.000 Y141.877 E0.03008
G1 X7.000 Y141.877 E7.39961
G1 X5.693 Y141.485 E0.04278
G1 X4.817 Y140.440 E0.04278
G1 X4.623 Y139.500 E0.03008
G1 X4.623 Y95.500 E1.37959
G1 X4.997 Y94.250 E0.04090
G1 F5760
G1 X6.519 Y93.172 E-0.64598
G1 F5760
G1 X6.841 Y93.105 E-0.11402
G1 E-0.04000 F2100.00000
G1 X128.964 Y88.536 F7200.000
G1 E0.80000 F2100.00000
G1 F1680
G1 X128.964 Y71.464 E0.53527
G1 X148.105 Y71.464 E0.60016
G1 X149.120 Y71.486 E0.03181
G1 X150.175 Y71.553 E0.03315
G1 X151.199 Y71.663 E0.03229
G1 X152.218 Y71.817 E0.03231
G1 X153.229 Y72.015 E0.03231
G1 X154.231 Y72.255 E0.03231
G1 X155.222 Y72.539 E0.03231
G1 X156.199 Y72.865 E0.03231
G1 X157.172 Y73.235 E0.03263
G1 X166.115 Y76.869 E0.30267
G1 X166.875 Y77.153 E0.02545
G1 X167.663 Y77.400 E0.02586
G1 X168.462 Y77.602 E0.02586
G1 X169.272 Y77.760 E0.02586
G1 X170.089 Y77.874 E0.02586
G1 X170.911 Y77.942 E0.02586
G1 X171.722 Y77.964 E0.02545
G1 X199.278 Y77.964 E0.86400
G1 X200.089 Y77.942 E0.02545
G1 X200.891 Y77.875 E0.02524
G1 X201.728 Y77.760 E0.02647
G1 X202.538 Y77.602 E0.02588
G1 X203.337 Y77.400 E0.02586
G1 X204.125 Y77.153 E0.02586
G1 X204.885 Y76.869 E0.02545
G1 X213.828 Y73.235 E0.30268
G1 X214.801 Y72.865 E0.03263
G1 X215.778 Y72.539 E0.03231
G1 X216.769 Y72.255 E0.03231
G1 X217.745 Y72.021 E0.03149
G1 X218.783 Y71.817 E0.03315
G1 X219.801 Y71.663 E0.03229
G1 X220.826 Y71.553 E0.03231
G1 X221.828 Y71.488 E0.03149
G1 X222.895 Y71.464 E0.03347
G1 X242.036 Y71.464 E0.60014
G1 X242.036 Y88.536 E0.53527
G1 X222.895 Y88.536 E0.60016
G1 X221.854 Y88.514 E0.03263
G1 X220.826 Y88.447 E0.03231
G1 X219.801 Y88.337 E0.03231
G1 X218.782 Y88.183 E0.03231
G1 X217.771 Y87.985 E0.03231
G1 X216.769 Y87.745 E0.03231
G1 X215.778 Y87.461 E0.03231
G1 X214.801 Y87.135 E0.03231
G1 X213.828 Y86.765 E0.03263
G1 X204.885 Y83.131 E0.30267
G1 X204.125 Y82.847 E0.02545
G1 X203.337 Y82.600 E0.02586
G1 X202.538 Y82.398 E0.02586
G1 X201.728 Y82.240 E0.02586
G1 X200.931 Y82.129 E0.02524
G1 X200.090 Y82.058 E0.02647
G1 X199.278 Y82.036 E0.02547
G1 X171.722 Y82.036 E0.86400
G1 X170.911 Y82.058 E0.02545
G1 X170.089 Y82.126 E0.02586
G1 X169.272 Y82.240 E0.02586
G1 X168.462 Y82.398 E0.02586
G1 X167.663 Y82.600 E0.02586
G1 X166.875 Y82.847 E0.02586
G1 X166.115 Y83.131 E0.02545
G1 X157.172 Y86.765 E0.30267
G1 X156.199 Y87.135 E0.03263
G1 X155.222 Y87.461 E0.03231
G1 X154.231 Y87.745 E0.03231
G1 X153.229 Y87.985 E0.03231
G1 X152.218 Y88.183 E0.03231
G1 X151.199 Y88.337 E0.03231
G1 X150.174 Y88.447 E0.03231
G1 X149.146 Y88.514 E0.03231
G1 X148.105 Y88.536 E0.03263
G1 X129.024 Y88.536 E0.59828
G1 X128.587 Y88.913 F7200.000
G1 F1680
G1 X128.587 Y71.087 E0.55892
G1 X148.109 Y71.087 E0.61211
G1 X149.136 Y71.109 E0.03218
G1 X150.207 Y71.177 E0.03366
G1 X151.247 Y71.289 E0.03281
G1 X152.282 Y71.445 E0.03282
G1 X153.309 Y71.646 E0.03282
G1 X154.327 Y71.891 E0.03282
G1 X155.333 Y72.179 E0.03282
G1 X156.326 Y72.509 E0.03282
G1 X157.310 Y72.885 E0.03301
G1 X166.252 Y76.517 E0.30264
G1 X166.998 Y76.797 E0.02496
G1 X167.765 Y77.037 E0.02521
G1 X168.545 Y77.234 E0.02521
G1 X169.334 Y77.388 E0.02521
G1 X170.130 Y77.499 E0.02521
G1 X170.931 Y77.565 E0.02521
G1 X171.727 Y77.587 E0.02496
G1 X199.273 Y77.587 E0.86368
G1 X200.069 Y77.565 E0.02496
G1 X200.850 Y77.500 E0.02459
G1 X201.666 Y77.388 E0.02581
G1 X202.455 Y77.234 E0.02522
G1 X203.235 Y77.037 E0.02521
G1 X204.002 Y76.797 E0.02521
G1 X204.748 Y76.517 E0.02496
G1 X213.690 Y72.885 E0.30264
G1 X214.674 Y72.509 E0.03301
G1 X215.667 Y72.179 E0.03282
G1 X216.673 Y71.891 E0.03282
G1 X217.665 Y71.652 E0.03199
G1 X218.718 Y71.445 E0.03366
G1 X219.753 Y71.289 E0.03281
G1 X220.793 Y71.177 E0.03282
G1 X221.811 Y71.111 E0.03199
G1 X222.891 Y71.087 E0.03385
G1 X242.413 Y71.087 E0.61210
G1 X242.413 Y88.913 E0.55892
G1 X222.891 Y88.913 E0.61211
G1 X221.838 Y88.890 E0.03301
G1 X220.793 Y88.823 E0.03282
G1 X219.753 Y88.711 E0.03282
G1 X218.718 Y88.555 E0.03282
G1 X217.691 Y88.354 E0.03282
G1 X216.673 Y88.109 E0.03282
G1 X215.667 Y87.821 E0.03282
G1 X214.674 Y87.491 E0.03282
G1 X213.690 Y87.115 E0.03301
G1 X204.748 Y83.483 E0.30264
G1 X204.002 Y83.203 E0.02496
G1 X203.235 Y82.963 E0.02521
G1 X202.455 Y82.766 E0.02521
G1 X201.666 Y82.612 E0.02521
G1 X200.889 Y82.504 E0.02459
G1 X200.069 Y82.435 E0.02581
G1 X199.273 Y82.413 E0.02497
G1 X171.727 Y82.413 E0.86368
G1 X170.931 Y82.435 E0.02496
G1 X170.130 Y82.501 E0.02521
G1 X169.334 Y82.612 E0.02521
G1 X168.545 Y82.766 E0.02521
G1 X167.765 Y82.963 E0.02521
G1 X166.998 Y83.203 E0.02521
G1 X166.252 Y83.483 E0.02496
G1 X157.310 Y87.115 E0.30264
G1 X156.326 Y87.491 E0.03301
G1 X155.333 Y87.821 E0.03282
G1 X154.327 Y88.109 E0.03282
G1 X153.309 Y88.354 E0.03282
G1 X152.282 Y88.555 E0.03282
G1 X151.247 Y88.711 E0.03282
G1 X150.207 Y88.823 E0.03282
G1 X149.162 Y88.890 E0.03282
G1 X148.109 Y88.913 E0.03301
G1 X128.647 Y88.913 E0.61023
G1 X128.210 Y89.290 F7200.000
G1 F1260
G1 X128.210 Y70.710 E0.58256
G1 X148.113 Y70.710 E0.62406
G1 X149.152 Y70.732 E0.03256
G1 X150.239 Y70.801 E0.03416
G1 X151.296 Y70.915 E0.03332
G1 X152.346 Y71.074 E0.03332
G1 X153.390 Y71.278 E0.03332
G1 X154.423 Y71.526 E0.03332
G1 X155.445 Y71.818 E0.03332
G1 X156.453 Y72.154 E0.03332
G1 X157.448 Y72.534 E0.03339
G1 X166.390 Y76.166 E0.30260
G1 X167.120 Y76.440 E0.02447
G1 X167.868 Y76.674 E0.02456
G1 X168.627 Y76.866 E0.02456
G1 X169.396 Y77.016 E0.02456
G1 X170.172 Y77.124 E0.02456
G1 X170.952 Y77.188 E0.02456
G1 X171.732 Y77.210 E0.02447
G1 X199.268 Y77.210 E0.86335
G1 X200.048 Y77.188 E0.02447
G1 X200.809 Y77.125 E0.02395
G1 X201.604 Y77.016 E0.02516
G1 X202.373 Y76.866 E0.02456
G1 X203.132 Y76.674 E0.02456
G1 X203.880 Y76.440 E0.02456
G1 X204.610 Y76.166 E0.02447
G1 X213.552 Y72.534 E0.30260
G1 X214.547 Y72.154 E0.03339
G1 X215.555 Y71.818 E0.03332
G1 X216.577 Y71.526 E0.03332
G1 X217.585 Y71.284 E0.03249
G1 X218.654 Y71.074 E0.03416
G1 X219.704 Y70.915 E0.03332
G1 X220.761 Y70.801 E0.03332
G1 X221.795 Y70.735 E0.03249
G1 X222.887 Y70.710 E0.03423
G1 X242.790 Y70.710 E0.62406
G1 X242.790 Y89.290 E0.58256
G1 X222.887 Y89.290 E0.62406
G1 X221.822 Y89.267 E0.03339
G1 X220.761 Y89.199 E0.03332
G1 X219.704 Y89.085 E0.03332
G1 X218.654 Y88.926 E0.03332
G1 X217.610 Y88.722 E0.03332
G1 X216.577 Y88.474 E0.03332
G1 X215.555 Y88.182 E0.03332
G1 X214.547 Y87.846 E0.03332
G1 X213.552 Y87.466 E0.03339
G1 X204.610 Y83.834 E0.30260
G1 X203.880 Y83.560 E0.02447
G1 X203.132 Y83.326 E0.02456
G1 X202.373 Y83.134 E0.02456
G1 X201.604 Y82.984 E0.02456
G1 X200.848 Y82.879 E0.02395
G1 X200.048 Y82.812 E0.02516
G1 X199.268 Y82.790 E0.02447
G1 X171.732 Y82.790 E0.86335
G1 X170.952 Y82.812 E0.02447
G1 X170.172 Y82.876 E0.02456
G1 X169.396 Y82.984 E0.02456
G1 X168.627 Y83.134 E0.02456
G1 X167.868 Y83.326 E0.02456
G1 X167.120 Y83.560 E0.02456
G1 X166.390 Y83.834 E0.02447
G1 X157.448 Y87.466 E0.30260
G1 X156.453 Y87.846 E0.03339
G1 X155.445 Y88.182 E0.03332
G1 X154.423 Y88.474 E0.03332
G1 X153.390 Y88.722 E0.03332
G1 X152.346 Y88.926 E0.03332
G1 X151.296 Y89.085 E0.03332
G1 X150.239 Y89.199 E0.03332
G1 X149.178 Y89.267 E0.03332
G1 X148.113 Y89.290 E0.03339
G1 X128.270 Y89.290 E0.62218
G1 X128.410 Y88.944 F7200.000
G1 F5760
G1 X128.263 Y87.096 E-0.76000
G1 E-0.04000 F2100.00000
G1 X129.077 Y87.659 F7200.000
G1 E0.80000 F2100.00000
G1 F1680
G1 X129.671 Y88.253 E0.02637
G1 X130.205 Y88.253 E0.01677
G1 X129.247 Y87.295 E0.04255
G1 X129.247 Y86.761 E0.01677
G1 X130.739 Y88.253 E0.06626
G1 X131.273 Y88.253 E0.01677
G1 X129.247 Y86.227 E0.08997
G1 X129.247 Y85.693 E0.01677
G1 X131.807 Y88.253 E0.11368
G1 X132.341 Y88.253 E0.01677
G1 X129.247 Y85.159 E0.13739
G1 X129.247 Y84.625 E0.01677
G1 X132.875 Y88.253 E0.16111
G1 X133.409 Y88.253 E0.01677
G1 X129.247 Y84.091 E0.18482
G1 X129.247 Y83.557 E0.01677
G1 X133.943 Y88.253 E0.20853
G1 X134.477 Y88.253 E0.01677
G1 X129.247 Y83.023 E0.23224
G1 X129.247 Y82.489 E0.01677
G1 X135.011 Y88.253 E0.25596
G1 X135.545 Y88.253 E0.01677
G1 X129.247 Y81.955 E0.27967
G1 X129.247 Y81.421 E0.01677
G1 X136.079 Y88.253 E0.30338
G1 X136.613 Y88.253 E0.01677
G1 X129.247 Y80.887 E0.32709
G1 X129.247 Y80.353 E0.01677
G1 X137.147 Y88.253 E0.35081
G1 X137.681 Y88.253 E0.01677
G1 X129.247 Y79.819 E0.37452
G1 X129.247 Y79.285 E0.01677
G1 X138.215 Y88.253 E0.39823
G1 X138.749 Y88.253 E0.01677
G1 X129.247 Y78.751 E0.42194
G1 X129.247 Y78.217 E0.01677
G1 X139.283 Y88.253 E0.44565
G1 X139.817 Y88.253 E0.01677
G1 X129.247 Y77.683 E0.46937
G1 X129.247 Y77.149 E0.01677
G1 X140.351 Y88.253 E0.49308
G1 X140.885 Y88.253 E0.01677
G1 X129.247 Y76.615 E0.51679
G1 X129.247 Y76.081 E0.01677
G1 X141.419 Y88.253 E0.54050
G1 X141.953 Y88.253 E0.01677
G1 X129.247 Y75.547 E0.56422
G1 X129.247 Y75.013 E0.01677
G1 X142.487 Y88.253 E0.58793
G1 X143.022 Y88.253 E0.01677
G1 X129.247 Y74.478 E0.61164
G1 X129.247 Y73.944 E0.01677
G1 X143.556 Y88.253 E0.63535
G1 X144.090 Y88.253 E0.01677
G1 X129.247 Y73.410 E0.65907
G1 X129.247 Y72.876 E0.01677
G1 X144.624 Y88.253 E0.68278
G1 X145.158 Y88.253 E0.01677
G1 X129.247 Y72.342 E0.70649
G1 X129.247 Y71.808 E0.01677
G1 X145.692 Y88.253 E0.73020
G1 X146.226 Y88.253 E0.01677
G1 X129.719 Y71.747 E0.73293
G1 X130.254 Y71.747 E0.01677
G1 X146.760 Y88.253 E0.73293
G1 X147.294 Y88.253 E0.01677
G1 X130.788 Y71.747 E0.73293
G1 X131.322 Y71.747 E0.01677
G1 X147.828 Y88.253 E0.73293
G1 X148.356 Y88.248 E0.01660
G1 X131.856 Y71.747 E0.73269
G1 X132.390 Y71.747 E0.01677
G1 X148.879 Y88.236 E0.73219
G1 X149.391 Y88.214 E0.01609
G1 X132.924 Y71.747 E0.73121
G1 X133.458 Y71.747 E0.01677
G1 X149.893 Y88.182 E0.72978
G1 X150.385 Y88.140 E0.01551
G1 X133.992 Y71.747 E0.72792
G1 X134.526 Y71.747 E0.01677
G1 X150.867 Y88.088 E0.72562
G1 X151.342 Y88.029 E0.01503
G1 X135.060 Y71.747 E0.72300
G1 X135.594 Y71.747 E0.01677
G1 X151.806 Y87.959 E0.71989
G1 X152.266 Y87.885 E0.01463
G1 X136.128 Y71.747 E0.71661
G1 X136.662 Y71.747 E0.01677
G1 X152.713 Y87.798 E0.71273
G1 X153.160 Y87.711 E0.01429
G1 X137.196 Y71.747 E0.70886
G1 X137.730 Y71.747 E0.01677
G1 X153.591 Y87.608 E0.70428
G1 X154.021 Y87.504 E0.01390
G1 X138.264 Y71.747 E0.69968
G1 X138.798 Y71.747 E0.01677
G1 X154.441 Y87.390 E0.69463
G1 X154.856 Y87.272 E0.01356
G1 X139.332 Y71.747 E0.68935
G1 X139.866 Y71.747 E0.01677
G1 X155.267 Y87.148 E0.68387
G1 X155.667 Y87.015 E0.01326
G1 X140.400 Y71.747 E0.67794
G1 X140.934 Y71.747 E0.01677
G1 X156.068 Y86.881 E0.67202
G1 X156.456 Y86.735 E0.01301
G1 X141.468 Y71.747 E0.66552
G1 X142.002 Y71.747 E0.01677
G1 X156.842 Y86.587 E0.65898
G1 X157.226 Y86.437 E0.01294
G1 X142.536 Y71.747 E0.65230
G1 X143.070 Y71.747 E0.01677
G1 X157.606 Y86.283 E0.64545
G1 X157.986 Y86.129 E0.01287
G1 X143.604 Y71.747 E0.63860
G1 X144.138 Y71.747 E0.01677
G1 X158.365 Y85.974 E0.63175
G1 X158.745 Y85.820 E0.01287
G1 X144.672 Y71.747 E0.62490
G1 X145.206 Y71.747 E0.01677
G1 X159.125 Y85.666 E0.61805
G1 X159.505 Y85.512 E0.01287
G1 X145.740 Y71.747 E0.61120
G1 X146.274 Y71.747 E0.01677
G1 X159.884 Y85.357 E0.60435
G1 X160.264 Y85.203 E0.01287
G1 X146.808 Y71.747 E0.59750
G1 X147.342 Y71.747 E0.01677
G1 X160.644 Y85.049 E0.59065
G1 X161.024 Y84.894 E0.01287
G1 X147.876 Y71.747 E0.58380
G1 X148.417 Y71.754 E0.01698
G1 X161.403 Y84.740 E0.57665
G1 X161.783 Y84.586 E0.01287
G1 X148.963 Y71.765 E0.56928
G1 X149.526 Y71.795 E0.01772
G1 X162.163 Y84.432 E0.56111
G1 X162.543 Y84.277 E0.01287
G1 X150.096 Y71.831 E0.55266
G1 X150.692 Y71.893 E0.01880
G1 X162.922 Y84.123 E0.54307
G1 X163.302 Y83.969 E0.01287
G1 X151.297 Y71.964 E0.53307
G1 X151.926 Y72.059 E0.01998
G1 X163.682 Y83.815 E0.52200
G1 X164.062 Y83.660 E0.01287
G1 X152.576 Y72.175 E0.50998
G1 X153.244 Y72.309 E0.02139
G1 X164.441 Y83.506 E0.49719
G1 X164.821 Y83.352 E0.01287
G1 X153.947 Y72.478 E0.48284
G1 X154.682 Y72.678 E0.02390
G1 X165.201 Y83.198 E0.46708
G1 X165.581 Y83.043 E0.01287
G1 X155.450 Y72.913 E0.44982
G1 X156.263 Y73.191 E0.02696
G1 X165.960 Y82.889 E0.43061
G1 X166.348 Y82.742 E0.01300
G1 X157.128 Y73.523 E0.40936
G1 X158.028 Y73.888 E0.03048
G1 X166.736 Y82.597 E0.38668
G1 X167.141 Y82.467 E0.01334
G1 X158.927 Y74.254 E0.36471
G1 X159.827 Y74.619 E0.03048
G1 X167.547 Y82.340 E0.34283
G1 X167.972 Y82.230 E0.01376
G1 X160.726 Y74.985 E0.32173
G1 X161.625 Y75.350 E0.03048
G1 X168.398 Y82.122 E0.30072
G1 X168.844 Y82.035 E0.01429
G1 X162.525 Y75.715 E0.28061
G1 X163.424 Y76.081 E0.03048
G1 X169.294 Y81.951 E0.26066
G1 X169.763 Y81.886 E0.01487
G1 X164.324 Y76.446 E0.24155
G1 X165.223 Y76.812 E0.03048
G1 X170.241 Y81.830 E0.22284
G1 X170.735 Y81.789 E0.01554
G1 X166.117 Y77.171 E0.20504
G1 X166.954 Y77.474 E0.02795
G1 X171.246 Y81.766 E0.19057
G1 X171.767 Y81.753 E0.01636
G1 X167.719 Y77.706 E0.17971
G1 X168.432 Y77.884 E0.02307
G1 X172.301 Y81.753 E0.17178
G1 X172.835 Y81.753 E0.01677
G1 X169.096 Y78.014 E0.16602
G1 X169.724 Y78.109 E0.01996
G1 X173.369 Y81.753 E0.16183
G1 X173.903 Y81.753 E0.01677
G1 X170.327 Y78.177 E0.15878
G1 X170.908 Y78.225 E0.01832
G1 X174.437 Y81.753 E0.15668
G1 X174.971 Y81.753 E0.01677
G1 X171.457 Y78.240 E0.15600
G1 X171.999 Y78.247 E0.01699
G1 X175.505 Y81.753 E0.15568
G1 X176.039 Y81.753 E0.01677
G1 X172.533 Y78.247 E0.15568
G1 X173.067 Y78.247 E0.01677
G1 X176.573 Y81.753 E0.15568
G1 X177.107 Y81.753 E0.01677
G1 X173.601 Y78.247 E0.15568
G1 X174.135 Y78.247 E0.01677
G1 X177.641 Y81.753 E0.15568
G1 X178.175 Y81.753 E0.01677
G1 X174.669 Y78.247 E0.15568
G1 X175.203 Y78.247 E0.01677
G1 X178.709 Y81.753 E0.15568
G1 X179.243 Y81.753 E0.01677
G1 X175.737 Y78.247 E0.15568
G1 X176.271 Y78.247 E0.01677
G1 X179.777 Y81.753 E0.15568
G1 X180.311 Y81.753 E0.01677
G1 X176.805 Y78.247 E0.15568
G1 X177.339 Y78.247 E0.01677
G1 X180.845 Y81.753 E0.15568
G1 X181.379 Y81.753 E0.01677
G1 X177.873 Y78.247 E0.15568
G1 X178.407 Y78.247 E0.01677
G1 X181.913 Y81.753 E0.15568
G1 X182.447 Y81.753 E0.01677
G1 X178.941 Y78.247 E0.15568
G1 X179.475 Y78.247 E0.01677
G1 X182.981 Y81.753 E0.15568
G1 X183.515 Y81.753 E0.01677
G1 X180.009 Y78.247 E0.15568
G1 X180.543 Y78.247 E0.01677
G1 X184.049 Y81.753 E0.15568
G1 X184.583 Y81.753 E0.01677
G1 X181.077 Y78.247 E0.15568
G1 X181.611 Y78.247 E0.01677
G1 X185.117 Y81.753 E0.15568
G1 X185.651 Y81.753 E0.01677
G1 X182.145 Y78.247 E0.15568
G1 X182.679 Y78.247 E0.01677
G1 X186.185 Y81.753 E0.15568
G1 X186.719 Y81.753 E0.01677
G1 X183.213 Y78.247 E0.15568
G1 X183.747 Y78.247 E0.01677
G1 X187.253 Y81.753 E0.15568
G1 X187.787 Y81.753 E0.01677
G1 X184.281 Y78.247 E0.15568
G1 X184.815 Y78.247 E0.01677
G1 X188.321 Y81.753 E0.15568
G1 X188.855 Y81.753 E0.01677
G1 X185.349 Y78.247 E0.15568
G1 X185.883 Y78.247 E0.01677
G1 X189.389 Y81.753 E0.15568
G1 X189.923 Y81.753 E0.01677
G1 X186.417 Y78.247 E0.15568
G1 X186.951 Y78.247 E0.01677
G1 X190.457 Y81.753 E0.15568
G1 X190.991 Y81.753 E0.01677
G1 X187.485 Y78.247 E0.15568
G1 X188.019 Y78.247 E0.01677
G1 X191.525 Y81.753 E0.15568
G1 X192.059 Y81.753 E0.01677
G1 X188.553 Y78.247 E0.15568
G1 X189.087 Y78.247 E0.01677
G1 X192.593 Y81.753 E0.15568
G1 X193.127 Y81.753 E0.01677
G1 X189.621 Y78.247 E0.15568
