; generated by Slic3r 1.31.6-prusa3d-win64 on 2017-02-20 at 14:48:23

; external perimeters extrusion width = 0.45mm
; perimeters extrusion width = 0.45mm
; infill extrusion width = 0.45mm
; solid infill extrusion width = 0.45mm
; top infill extrusion width = 0.40mm

M107
M115 U3.0.9 ; tell printer latest fw version
M83  ; extruder relative mode
M104 S230 ; set extruder temp
M140 S85 ; set bed temp
M190 S85 ; wait for bed temp
M109 S230 ; wait for extruder temp
G28 W ; home all without mesh bed level
G80 ; mesh bed leveling
G1 Y-3.0 F1000.0 ; go outside pritn area
G1 X60.0 E9.0  F1000.0 ; intro line
G1 X100.0 E12.5  F1000.0 ; intro line
G21 ; set units to millimeters
G90 ; use absolute coordinates
M83 ; use relative distances for extrusion
G1 E-0.80000 F2100.00000
G1 Z0.200 F7200.000
G1 X75.296 Y71.539 F7200.000
G1 E0.80000 F2100.00000
M204 S1000
G1 F2100
G1 X75.415 Y70.179 E0.04278
G1 X75.943 Y69.378 E0.03008
G1 X89.378 Y55.943 E0.59573
G1 X90.579 Y55.296 E0.04278
G1 X91.938 Y55.415 E0.04278
G1 X92.740 Y55.943 E0.03008
G1 X174.057 Y137.260 E3.60574
G1 X174.704 Y138.461 E0.04278
G1 X174.585 Y139.821 E0.04278
G1 X174.057 Y140.622 E0.03008
G1 X160.622 Y154.057 E0.59573
G1 X159.421 Y154.704 E0.04278
G1 X158.062 Y154.585 E0.04278
G1 X157.260 Y154.057 E0.03008
G1 X75.943 Y72.740 E3.60574
G1 X75.324 Y71.591 E0.04090
G1 F5760
G1 X75.415 Y70.179 E-0.49007
G1 F5760
G1 X75.844 Y69.528 E-0.26993
G1 E-0.04000 F2100.00000
G1 X78.987 Y71.059 F7200.000
G1 E0.80000 F2100.00000
G1 F1680
G1 X91.059 Y58.987 E0.53527
G1 X104.240 Y72.169 E0.58449
G1 X105.316 Y73.276 E0.04840
G1 X105.994 Y74.048 E0.03221
G1 X106.641 Y74.850 E0.03231
G1 X107.252 Y75.680 E0.03231
G1 X107.828 Y76.534 E0.03231
G1 X108.366 Y77.413 E0.03231
G1 X108.866 Y78.314 E0.03231
G1 X109.327 Y79.236 E0.03231
G1 X109.752 Y80.186 E0.03263
G1 X113.507 Y89.079 E0.30267
G1 X113.843 Y89.818 E0.02545
G1 X114.226 Y90.548 E0.02586
G1 X114.638 Y91.240 E0.02524
G1 X115.108 Y91.941 E0.02647
G1 X115.606 Y92.599 E0.02588
G1 X116.139 Y93.228 E0.02586
G1 X116.697 Y93.818 E0.02545
G1 X136.182 Y113.303 E0.86400
G1 X136.772 Y113.861 E0.02545
G1 X137.401 Y114.394 E0.02586
G1 X138.059 Y114.891 E0.02586
G1 X138.743 Y115.352 E0.02586
G1 X139.452 Y115.774 E0.02586
G1 X140.182 Y116.157 E0.02586
G1 X140.921 Y116.493 E0.02545
G1 X149.814 Y120.248 E0.30267
G1 X150.764 Y120.673 E0.03263
G1 X151.686 Y121.134 E0.03231
G1 X152.587 Y121.634 E0.03231
G1 X153.466 Y122.172 E0.03231
G1 X154.320 Y122.748 E0.03231
G1 X155.150 Y123.359 E0.03231
G1 X155.952 Y124.006 E0.03231
G1 X156.726 Y124.686 E0.03231
G1 X157.478 Y125.406 E0.03263
G1 X171.013 Y138.941 E0.60016
G1 X158.941 Y151.013 E0.53527
G1 X145.406 Y137.478 E0.60016
G1 X144.686 Y136.726 E0.03263
G1 X144.023 Y135.972 E0.03149
G1 X143.359 Y135.149 E0.03315
G1 X142.748 Y134.320 E0.03229
G1 X142.172 Y133.466 E0.03231
G1 X141.634 Y132.587 E0.03231
G1 X141.147 Y131.709 E0.03149
G1 X140.673 Y130.764 E0.03315
G1 X140.248 Y129.814 E0.03262
G1 X136.493 Y120.921 E0.30267
G1 X136.157 Y120.182 E0.02545
G1 X135.774 Y119.452 E0.02586
G1 X135.352 Y118.743 E0.02586
G1 X134.891 Y118.059 E0.02586
G1 X134.406 Y117.417 E0.02524
G1 X133.861 Y116.772 E0.02647
G1 X133.303 Y116.182 E0.02547
G1 X113.818 Y96.697 E0.86400
G1 X113.228 Y96.139 E0.02545
G1 X112.599 Y95.606 E0.02586
G1 X111.941 Y95.109 E0.02586
G1 X111.257 Y94.648 E0.02586
G1 X110.548 Y94.226 E0.02586
G1 X109.818 Y93.843 E0.02586
G1 X109.079 Y93.507 E0.02545
G1 X100.186 Y89.752 E0.30267
G1 X99.236 Y89.327 E0.03263
G1 X98.314 Y88.866 E0.03231
G1 X97.413 Y88.366 E0.03231
G1 X96.534 Y87.828 E0.03231
G1 X95.680 Y87.252 E0.03231
G1 X94.850 Y86.641 E0.03231
G1 X94.048 Y85.994 E0.03231
G1 X93.274 Y85.314 E0.03231
G1 X92.522 Y84.594 E0.03263
G1 X79.030 Y71.101 E0.59828
G1 X78.454 Y71.059 F7200.000
G1 F1680
G1 X91.059 Y58.454 E0.55892
G1 X104.509 Y71.904 E0.59640
G1 X105.593 Y73.020 E0.04878
G1 X106.283 Y73.805 E0.03275
G1 X106.939 Y74.620 E0.03282
G1 X107.560 Y75.462 E0.03282
G1 X108.145 Y76.331 E0.03282
G1 X108.692 Y77.223 E0.03282
G1 X109.199 Y78.138 E0.03282
G1 X109.668 Y79.074 E0.03282
G1 X110.098 Y80.035 E0.03301
G1 X113.852 Y88.927 E0.30264
G1 X114.182 Y89.652 E0.02496
G1 X114.555 Y90.364 E0.02521
G1 X114.956 Y91.038 E0.02459
G1 X115.415 Y91.722 E0.02581
G1 X115.901 Y92.363 E0.02522
G1 X116.420 Y92.977 E0.02521
G1 X116.967 Y93.555 E0.02496
G1 X136.445 Y113.033 E0.86368
G1 X137.023 Y113.580 E0.02496
G1 X137.637 Y114.099 E0.02521
G1 X138.278 Y114.584 E0.02521
G1 X138.945 Y115.033 E0.02521
G1 X139.636 Y115.445 E0.02521
G1 X140.348 Y115.818 E0.02521
G1 X141.073 Y116.148 E0.02496
G1 X149.965 Y119.902 E0.30264
G1 X150.926 Y120.332 E0.03301
G1 X151.862 Y120.801 E0.03282
G1 X152.777 Y121.308 E0.03282
G1 X153.669 Y121.855 E0.03282
G1 X154.538 Y122.440 E0.03282
G1 X155.380 Y123.061 E0.03282
G1 X156.195 Y123.717 E0.03282
G1 X156.981 Y124.408 E0.03282
G1 X157.742 Y125.137 E0.03301
G1 X171.546 Y138.941 E0.61211
G1 X158.941 Y151.546 E0.55892
G1 X145.137 Y137.742 E0.61211
G1 X144.408 Y136.981 E0.03301
G1 X143.735 Y136.215 E0.03199
G1 X143.061 Y135.380 E0.03366
G1 X142.440 Y134.538 E0.03281
G1 X141.855 Y133.669 E0.03282
G1 X141.308 Y132.777 E0.03282
G1 X140.813 Y131.885 E0.03199
G1 X140.332 Y130.925 E0.03366
G1 X139.902 Y129.965 E0.03300
G1 X136.148 Y121.073 E0.30264
G1 X135.818 Y120.348 E0.02496
G1 X135.445 Y119.636 E0.02521
G1 X135.033 Y118.945 E0.02521
G1 X134.584 Y118.278 E0.02521
G1 X134.111 Y117.652 E0.02459
G1 X133.580 Y117.023 E0.02581
G1 X133.033 Y116.445 E0.02497
G1 X113.555 Y96.967 E0.86368
G1 X112.977 Y96.420 E0.02496
G1 X112.363 Y95.901 E0.02521
G1 X111.722 Y95.416 E0.02521
G1 X111.055 Y94.967 E0.02521
G1 X110.364 Y94.555 E0.02521
G1 X109.652 Y94.182 E0.02521
G1 X108.927 Y93.852 E0.02496
G1 X100.035 Y90.098 E0.30264
G1 X99.074 Y89.668 E0.03301
G1 X98.138 Y89.199 E0.03282
G1 X97.223 Y88.692 E0.03282
G1 X96.331 Y88.145 E0.03282
G1 X95.462 Y87.560 E0.03282
G1 X94.620 Y86.939 E0.03282
G1 X93.805 Y86.283 E0.03282
G1 X93.019 Y85.592 E0.03282
G1 X92.258 Y84.863 E0.03301
G1 X78.497 Y71.101 E0.61023
G1 X77.921 Y71.059 F7200.000
G1 F1260
G1 X91.059 Y57.921 E0.58256
G1 X104.778 Y71.640 E0.60831
G1 X105.870 Y72.764 E0.04916
G1 X106.571 Y73.562 E0.03330
G1 X107.238 Y74.390 E0.03332
G1 X107.869 Y75.245 E0.03332
G1 X108.462 Y76.127 E0.03332
G1 X109.017 Y77.033 E0.03332
G1 X109.533 Y77.962 E0.03332
G1 X110.009 Y78.913 E0.03332
G1 X110.444 Y79.885 E0.03339
G1 X114.198 Y88.776 E0.30260
G1 X114.521 Y89.486 E0.02447
G1 X114.884 Y90.180 E0.02456
G1 X115.275 Y90.836 E0.02395
G1 X115.722 Y91.503 E0.02516
G1 X116.195 Y92.127 E0.02456
G1 X116.701 Y92.725 E0.02456
G1 X117.238 Y93.292 E0.02447
G1 X136.708 Y112.762 E0.86335
G1 X137.275 Y113.299 E0.02447
G1 X137.873 Y113.805 E0.02456
G1 X138.497 Y114.277 E0.02456
G1 X139.147 Y114.715 E0.02456
G1 X139.820 Y115.116 E0.02456
G1 X140.514 Y115.479 E0.02456
G1 X141.224 Y115.802 E0.02447
G1 X150.115 Y119.556 E0.30260
G1 X151.087 Y119.991 E0.03339
G1 X152.038 Y120.467 E0.03332
G1 X152.967 Y120.983 E0.03332
G1 X153.873 Y121.538 E0.03332
G1 X154.755 Y122.131 E0.03332
G1 X155.610 Y122.762 E0.03332
G1 X156.438 Y123.429 E0.03332
G1 X157.236 Y124.130 E0.03332
G1 X158.005 Y124.867 E0.03339
G1 X172.079 Y138.941 E0.62406
G1 X158.941 Y152.079 E0.58256
G1 X144.867 Y138.005 E0.62406
G1 X144.130 Y137.236 E0.03339
G1 X143.446 Y136.458 E0.03249
G1 X142.762 Y135.610 E0.03416
G1 X142.131 Y134.755 E0.03332
G1 X141.538 Y133.873 E0.03332
G1 X140.983 Y132.967 E0.03332
G1 X140.480 Y132.061 E0.03249
G1 X139.991 Y131.087 E0.03416
G1 X139.556 Y130.115 E0.03339
G1 X135.802 Y121.224 E0.30260
G1 X135.479 Y120.514 E0.02447
G1 X135.116 Y119.820 E0.02456
G1 X134.715 Y119.147 E0.02456
G1 X134.277 Y118.497 E0.02456
G1 X133.817 Y117.888 E0.02395
G1 X133.299 Y117.275 E0.02516
G1 X132.762 Y116.708 E0.02447
G1 X113.292 Y97.238 E0.86335
G1 X112.725 Y96.701 E0.02447
G1 X112.127 Y96.195 E0.02456
G1 X111.503 Y95.723 E0.02456
G1 X110.853 Y95.285 E0.02456
G1 X110.180 Y94.884 E0.02456
G1 X109.486 Y94.521 E0.02456
G1 X108.776 Y94.198 E0.02447
G1 X99.885 Y90.444 E0.30260
G1 X98.913 Y90.009 E0.03339
G1 X97.962 Y89.533 E0.03332
G1 X97.033 Y89.017 E0.03332
G1 X96.127 Y88.462 E0.03332
G1 X95.245 Y87.869 E0.03332
G1 X94.390 Y87.238 E0.03332
G1 X93.562 Y86.571 E0.03332
G1 X92.764 Y85.870 E0.03332
G1 X91.995 Y85.133 E0.03339
G1 X77.963 Y71.101 E0.62218
G1 X78.307 Y70.955 F7200.000
G1 F5760
G1 X79.510 Y69.545 E-0.76000
G1 E-0.04000 F2100.00000
G1 X79.687 Y70.519 F7200.000
G1 E0.80000 F2100.00000
G1 F1680
G1 X79.687 Y71.359 E0.02637
G1 X80.065 Y71.736 E0.01677
G1 X80.065 Y70.381 E0.04255
G1 X80.442 Y70.004 E0.01677
G1 X80.442 Y72.114 E0.06626
G1 X80.820 Y72.492 E0.01677
G1 X80.820 Y69.626 E0.08997
G1 X81.198 Y69.249 E0.01677
G1 X81.198 Y72.869 E0.11368
G1 X81.575 Y73.247 E0.01677
G1 X81.575 Y68.871 E0.13740
G1 X81.953 Y68.493 E0.01677
G1 X81.953 Y73.624 E0.16111
G1 X82.330 Y74.002 E0.01677
G1 X82.330 Y68.116 E0.18482
G1 X82.708 Y67.738 E0.01677
G1 X82.708 Y74.380 E0.20853
G1 X83.086 Y74.757 E0.01677
G1 X83.086 Y67.360 E0.23224
G1 X83.463 Y66.983 E0.01677
G1 X83.463 Y75.135 E0.25596
G1 X83.841 Y75.512 E0.01677
G1 X83.841 Y66.605 E0.27967
G1 X84.218 Y66.228 E0.01677
G1 X84.218 Y75.890 E0.30338
G1 X84.596 Y76.268 E0.01677
G1 X84.596 Y65.850 E0.32709
G1 X84.974 Y65.472 E0.01677
G1 X84.974 Y76.645 E0.35081
G1 X85.351 Y77.023 E0.01677
G1 X85.351 Y65.095 E0.37452
G1 X85.729 Y64.717 E0.01677
G1 X85.729 Y77.401 E0.39823
G1 X86.107 Y77.778 E0.01677
G1 X86.107 Y64.340 E0.42194
G1 X86.484 Y63.962 E0.01677
G1 X86.484 Y78.156 E0.44566
G1 X86.862 Y78.533 E0.01677
G1 X86.862 Y63.584 E0.46937
G1 X87.239 Y63.207 E0.01677
G1 X87.239 Y78.911 E0.49308
G1 X87.617 Y79.289 E0.01677
G1 X87.617 Y62.829 E0.51679
G1 X87.995 Y62.452 E0.01677
G1 X87.995 Y79.666 E0.54050
G1 X88.372 Y80.044 E0.01677
G1 X88.372 Y62.074 E0.56422
G1 X88.750 Y61.696 E0.01677
G1 X88.750 Y80.421 E0.58793
G1 X89.127 Y80.799 E0.01677
G1 X89.127 Y61.319 E0.61164
G1 X89.505 Y60.941 E0.01677
G1 X89.505 Y81.177 E0.63535
G1 X89.883 Y81.554 E0.01677
G1 X89.883 Y60.564 E0.65907
G1 X90.260 Y60.186 E0.01677
G1 X90.260 Y81.932 E0.68278
G1 X90.638 Y82.309 E0.01677
G1 X90.638 Y59.808 E0.70649
G1 X91.015 Y59.431 E0.01677
G1 X91.015 Y82.687 E0.73020
G1 X91.393 Y83.065 E0.01677
G1 X91.393 Y59.721 E0.73293
G1 X91.771 Y60.099 E0.01677
G1 X91.771 Y83.442 E0.73293
G1 X92.148 Y83.820 E0.01677
G1 X92.148 Y60.477 E0.73293
G1 X92.526 Y60.854 E0.01677
G1 X92.526 Y84.197 E0.73293
G1 X92.903 Y84.567 E0.01660
G1 X92.903 Y61.232 E0.73269
G1 X93.281 Y61.609 E0.01677
G1 X93.281 Y84.929 E0.73219
G1 X93.659 Y85.276 E0.01609
G1 X93.659 Y61.987 E0.73121
G1 X94.036 Y62.365 E0.01677
G1 X94.036 Y85.607 E0.72978
G1 X94.414 Y85.926 E0.01551
G1 X94.414 Y62.742 E0.72792
G1 X94.791 Y63.120 E0.01677
G1 X94.791 Y86.230 E0.72562
G1 X95.169 Y86.524 E0.01503
G1 X95.169 Y63.498 E0.72300
G1 X95.547 Y63.875 E0.01677
G1 X95.547 Y86.803 E0.71989
G1 X95.924 Y87.076 E0.01463
G1 X95.924 Y64.253 E0.71661
G1 X96.302 Y64.630 E0.01677
G1 X96.302 Y87.330 E0.71273
G1 X96.680 Y87.584 E0.01429
G1 X96.680 Y65.008 E0.70886
G1 X97.057 Y65.386 E0.01677
G1 X97.057 Y87.816 E0.70428
G1 X97.435 Y88.047 E0.01390
G1 X97.435 Y65.763 E0.69968
G1 X97.812 Y66.141 E0.01677
G1 X97.812 Y88.264 E0.69463
G1 X98.190 Y88.473 E0.01356
G1 X98.190 Y66.518 E0.68935
G1 X98.568 Y66.896 E0.01677
G1 X98.568 Y88.676 E0.68387
G1 X98.945 Y88.865 E0.01326
G1 X98.945 Y67.274 E0.67794
G1 X99.323 Y67.651 E0.01677
G1 X99.323 Y89.054 E0.67202
G1 X99.700 Y89.225 E0.01301
G1 X99.700 Y68.029 E0.66552
G1 X100.078 Y68.406 E0.01677
G1 X100.078 Y89.394 E0.65898
G1 X100.456 Y89.559 E0.01294
G1 X100.456 Y68.784 E0.65230
G1 X100.833 Y69.162 E0.01677
G1 X100.833 Y89.719 E0.64545
G1 X101.211 Y89.878 E0.01287
G1 X101.211 Y69.539 E0.63860
G1 X101.588 Y69.917 E0.01677
G1 X101.588 Y90.037 E0.63175
G1 X101.966 Y90.197 E0.01287
G1 X101.966 Y70.294 E0.62490
G1 X102.344 Y70.672 E0.01677
G1 X102.344 Y90.356 E0.61805
G1 X102.721 Y90.516 E0.01287
G1 X102.721 Y71.050 E0.61120
G1 X103.099 Y71.427 E0.01677
G1 X103.099 Y90.675 E0.60435
G1 X103.476 Y90.835 E0.01287
G1 X103.476 Y71.805 E0.59750
G1 X103.854 Y72.182 E0.01677
G1 X103.854 Y90.994 E0.59065
G1 X104.232 Y91.154 E0.01287
G1 X104.232 Y72.566 E0.58362
G1 X104.609 Y72.955 E0.01702
G1 X104.609 Y91.313 E0.57642
G1 X104.987 Y91.472 E0.01287
G1 X104.987 Y73.343 E0.56922
G1 X105.364 Y73.760 E0.01765
G1 X105.364 Y91.632 E0.56115
G1 X105.742 Y91.791 E0.01287
G1 X105.742 Y74.189 E0.55266
G1 X106.120 Y74.654 E0.01881
G1 X106.120 Y91.951 E0.54307
G1 X106.497 Y92.110 E0.01287
G1 X106.497 Y75.132 E0.53307
G1 X106.875 Y75.645 E0.01998
G1 X106.875 Y92.270 E0.52200
G1 X107.253 Y92.429 E0.01287
G1 X107.253 Y76.187 E0.50998
G1 X107.630 Y76.754 E0.02139
G1 X107.630 Y92.588 E0.49719
G1 X108.008 Y92.748 E0.01287
G1 X108.008 Y77.370 E0.48284
G1 X108.385 Y78.031 E0.02390
G1 X108.385 Y92.907 E0.46708
G1 X108.763 Y93.067 E0.01287
G1 X108.763 Y78.741 E0.44982
G1 X109.141 Y79.512 E0.02696
G1 X109.141 Y93.226 E0.43061
G1 X109.518 Y93.396 E0.01300
G1 X109.518 Y80.358 E0.40936
G1 X109.896 Y81.253 E0.03048
G1 X109.896 Y93.568 E0.38668
G1 X110.273 Y93.763 E0.01334
G1 X110.273 Y82.147 E0.36471
G1 X110.651 Y83.041 E0.03048
G1 X110.651 Y93.960 E0.34283
G1 X111.029 Y94.183 E0.01376
G1 X111.029 Y83.936 E0.32173
G1 X111.406 Y84.830 E0.03048
G1 X111.406 Y94.408 E0.30072
G1 X111.784 Y94.662 E0.01429
G1 X111.784 Y85.724 E0.28061
G1 X112.161 Y86.619 E0.03048
G1 X112.161 Y94.921 E0.26066
G1 X112.539 Y95.206 E0.01487
G1 X112.539 Y87.513 E0.24155
G1 X112.917 Y88.407 E0.03048
G1 X112.917 Y95.505 E0.22283
G1 X113.294 Y95.824 E0.01554
G1 X113.294 Y89.294 E0.20504
G1 X113.672 Y90.100 E0.02795
G1 X113.672 Y96.169 E0.19057
G1 X114.049 Y96.529 E0.01636
G1 X114.049 Y90.805 E0.17971
G1 X114.427 Y91.433 E0.02302
G1 X114.427 Y96.906 E0.17184
G1 X114.805 Y97.284 E0.01677
G1 X114.805 Y91.996 E0.16603
G1 X115.182 Y92.507 E0.01996
G1 X115.182 Y97.661 E0.16183
G1 X115.560 Y98.039 E0.01677
G1 X115.560 Y92.982 E0.15878
G1 X115.937 Y93.427 E0.01832
G1 X115.937 Y98.417 E0.15668
G1 X116.315 Y98.794 E0.01677
G1 X116.315 Y93.826 E0.15600
G1 X116.693 Y94.213 E0.01699
G1 X116.693 Y99.172 E0.15568
G1 X117.070 Y99.549 E0.01677
G1 X117.070 Y94.591 E0.15568
G1 X117.448 Y94.969 E0.01677
G1 X117.448 Y99.927 E0.15568
G1 X117.826 Y100.305 E0.01677
G1 X117.826 Y95.346 E0.15568
G1 X118.203 Y95.724 E0.01677
G1 X118.203 Y100.682 E0.15568
G1 X118.581 Y101.060 E0.01677
G1 X118.581 Y96.102 E0.15568
G1 X118.958 Y96.479 E0.01677
G1 X118.958 Y101.438 E0.15568
G1 X119.336 Y101.815 E0.01677
G1 X119.336 Y96.857 E0.15568
G1 X119.714 Y97.234 E0.01677
G1 X119.714 Y102.193 E0.15568
G1 X120.091 Y102.570 E0.01677
G1 X120.091 Y97.612 E0.15568
G1 X120.469 Y97.990 E0.01677
G1 X120.469 Y102.948 E0.15568
G1 X120.846 Y103.326 E0.01677
G1 X120.846 Y98.367 E0.15568
G1 X121.224 Y98.745 E0.01677
G1 X121.224 Y103.703 E0.15568
G1 X121.602 Y104.081 E0.01677
G1 X121.602 Y99.122 E0.15568
G1 X121.979 Y99.500 E0.01677
G1 X121.979 Y104.458 E0.15568
G1 X122.357 Y104.836 E0.01677
G1 X122.357 Y99.878 E0.15568
G1 X122.734 Y100.255 E0.01677
G1 X122.734 Y105.214 E0.15568
G1 X123.112 Y105.591 E0.01677
G1 X123.112 Y100.633 E0.15568
G1 X123.490 Y101.010 E0.01677
G1 X123.490 Y105.969 E0.15568
G1 X123.867 Y106.346 E0.01677
G1 X123.867 Y101.388 E0.15568
G1 X124.245 Y101.766 E0.01677
G1 X124.245 Y106.724 E0.15568
G1 X124.622 Y107.102 E0.01677
G1 X124.622 Y102.143 E0.15568
G1 X125.000 Y102.521 E0.01677
G1 X125.000 Y107.479 E0.15568
G1 X125.378 Y107.857 E0.01677
G1 X125.378 Y102.898 E0.15568
G1 X125.755 Y103.276 E0.01677
G1 X125.755 Y108.234 E0.15568
G1 X126.133 Y108.612 E0.01677
G1 X126.133 Y103.654 E0.15568
G1 X126.510 Y104.031 E0.01677
G1 X126.510 Y108.990 E0.15568
G1 X126.888 Y109.367 E0.01677
G1 X126.888 Y104.409 E0.15568
G1 X127.266 Y104.786 E0.01677
G1 X127.266 Y109.745 E0.15568
G1 X127.643 Y110.122 E0.01677
G1 X127.643 Y105.164 E0.15568
G1 X128.021 Y105.542 E0.01677
G1 X128.021 Y110.500 E0.15568
G1 X128.399 Y110.878 E0.01677
G1 X128.399 Y105.919 E0.15568
G1 X128.776 Y106.297 E0.01677
G1 X128.776 Y111.255 E0.15568
G1 X129.154 Y111.633 E0.01677
G1 X129.154 Y106.675 E0.15568
