; generated by Slic3r 1.31.6-prusa3d-win64 on 2017-01-13 at 09:28:14

; external perimeters extrusion width = 0.45mm
; perimeters extrusion width = 0.45mm
; infill extrusion width = 0.45mm
; solid infill extrusion width = 0.45mm
; top infill extrusion width = 0.45mm

M107
M115 U3.0.9 ; tell printer latest fw version
M83  ; extruder relative mode
M104 S230 ; set extruder temp
M140 S85 ; set bed temp
M190 S85 ; wait for bed temp
M109 S230 ; wait for extruder temp
G28 W ; home all without mesh bed level
G80 ; mesh bed leveling
G1 Y-3.0 F1000.0 ; go outside pritn area
G1 X60.0 E9.0  F1000.0 ; intro line
G1 X100.0 E12.5  F1000.0 ; intro line
G21 ; set units to millimeters
G90 ; use absolute coordinates
M83 ; use relative distances for extrusion
G1 E-0.80000 F2100.00000
G1 Z0.200 F7200.000
G1 X67.903 Y66.041 F7200.000
G1 E0.80000 F2100.00000
M204 S1000
G1 F2100
G1 X69.016 Y65.252 E0.04278
G1 X69.776 Y65.127 E0.02414
G1 X184.776 Y65.127 E3.60574
G1 X186.083 Y65.519 E0.04278
G1 X186.959 Y66.565 E0.04278
G1 X187.153 Y67.504 E0.03008
G1 X187.145 Y86.697 E0.60177
G1 X182.593 Y142.688 E1.76135
G1 X182.097 Y143.959 E0.04278
G1 X180.984 Y144.748 E0.04278
G1 X180.224 Y144.873 E0.02414
G1 X65.224 Y144.873 E3.60574
G1 X63.917 Y144.481 E0.04278
G1 X63.041 Y143.435 E0.04278
G1 X62.847 Y142.496 E0.03008
G1 X62.855 Y123.303 E0.60177
G1 X67.407 Y67.312 E1.76135
G1 X67.881 Y66.097 E0.04090
G1 F5760
G1 X69.016 Y65.252 E-0.49007
G1 F5760
G1 X69.776 Y65.127 E-0.26666
G1 F5760
G1 X69.785 Y65.127 E-0.00327
G1 E-0.04000 F2100.00000
G1 X70.740 Y68.469 F7200.000
G1 E0.80000 F2100.00000
G1 F1680
G1 X89.881 Y68.469 E0.60016
G1 X90.896 Y68.490 E0.03181
G1 X91.951 Y68.557 E0.03315
G1 X92.975 Y68.667 E0.03229
G1 X93.994 Y68.821 E0.03231
G1 X95.005 Y69.019 E0.03231
G1 X96.007 Y69.260 E0.03231
G1 X96.998 Y69.543 E0.03231
G1 X97.975 Y69.869 E0.03231
G1 X98.948 Y70.240 E0.03263
G1 X107.891 Y73.873 E0.30267
G1 X108.651 Y74.158 E0.02545
G1 X109.438 Y74.404 E0.02586
G1 X110.238 Y74.607 E0.02586
G1 X111.048 Y74.765 E0.02586
G1 X111.865 Y74.878 E0.02586
G1 X112.687 Y74.946 E0.02586
G1 X113.498 Y74.969 E0.02545
G1 X141.054 Y74.969 E0.86400
G1 X141.865 Y74.946 E0.02545
G1 X142.667 Y74.880 E0.02524
G1 X143.504 Y74.765 E0.02647
G1 X144.314 Y74.607 E0.02588
G1 X145.113 Y74.404 E0.02586
G1 X145.901 Y74.158 E0.02586
G1 X146.661 Y73.873 E0.02545
G1 X155.604 Y70.240 E0.30268
G1 X156.577 Y69.869 E0.03263
G1 X157.554 Y69.543 E0.03231
G1 X158.545 Y69.260 E0.03231
G1 X159.521 Y69.025 E0.03149
G1 X160.559 Y68.821 E0.03315
G1 X161.577 Y68.667 E0.03229
G1 X162.602 Y68.557 E0.03231
G1 X163.604 Y68.493 E0.03149
G1 X164.671 Y68.469 E0.03347
G1 X183.812 Y68.469 E0.60014
G1 X183.812 Y85.540 E0.53527
G1 X164.671 Y85.540 E0.60016
G1 X163.630 Y85.518 E0.03263
G1 X162.602 Y85.452 E0.03231
G1 X161.577 Y85.341 E0.03231
G1 X160.558 Y85.187 E0.03231
G1 X159.547 Y84.990 E0.03231
G1 X158.545 Y84.749 E0.03231
G1 X157.554 Y84.466 E0.03231
G1 X156.577 Y84.140 E0.03231
G1 X155.604 Y83.769 E0.03263
G1 X146.661 Y80.136 E0.30267
G1 X145.901 Y79.851 E0.02545
G1 X145.113 Y79.605 E0.02586
G1 X144.314 Y79.402 E0.02586
G1 X143.504 Y79.244 E0.02586
G1 X142.707 Y79.134 E0.02524
G1 X141.866 Y79.063 E0.02647
G1 X141.054 Y79.040 E0.02547
G1 X113.498 Y79.040 E0.86400
G1 X112.687 Y79.063 E0.02545
G1 X111.865 Y79.131 E0.02586
G1 X111.048 Y79.244 E0.02586
G1 X110.238 Y79.402 E0.02586
G1 X109.438 Y79.605 E0.02586
G1 X108.651 Y79.851 E0.02586
G1 X107.891 Y80.136 E0.02545
G1 X98.948 Y83.769 E0.30267
G1 X97.975 Y84.140 E0.03263
G1 X96.998 Y84.466 E0.03231
G1 X96.007 Y84.749 E0.03231
G1 X95.005 Y84.990 E0.03231
G1 X93.994 Y85.187 E0.03231
G1 X92.975 Y85.341 E0.03231
G1 X91.950 Y85.452 E0.03231
G1 X90.922 Y85.518 E0.03231
G1 X89.881 Y85.540 E0.03263
G1 X70.740 Y85.540 E0.60016
G1 X70.740 Y68.529 E0.53339
G1 X70.363 Y68.092 F7200.000
G1 F1680
G1 X89.885 Y68.092 E0.61211
G1 X90.912 Y68.114 E0.03218
G1 X91.983 Y68.181 E0.03366
G1 X93.023 Y68.293 E0.03281
G1 X94.058 Y68.450 E0.03282
G1 X95.085 Y68.650 E0.03282
G1 X96.103 Y68.895 E0.03282
G1 X97.109 Y69.183 E0.03282
G1 X98.102 Y69.514 E0.03282
G1 X99.086 Y69.889 E0.03301
G1 X108.028 Y73.522 E0.30264
G1 X108.774 Y73.801 E0.02496
G1 X109.541 Y74.041 E0.02521
G1 X110.321 Y74.239 E0.02521
G1 X111.110 Y74.393 E0.02521
G1 X111.906 Y74.503 E0.02521
G1 X112.707 Y74.570 E0.02521
G1 X113.503 Y74.592 E0.02496
G1 X141.049 Y74.592 E0.86368
G1 X141.844 Y74.570 E0.02496
G1 X142.626 Y74.505 E0.02459
G1 X143.442 Y74.393 E0.02581
G1 X144.231 Y74.239 E0.02522
G1 X145.011 Y74.041 E0.02521
G1 X145.778 Y73.801 E0.02521
G1 X146.523 Y73.522 E0.02496
G1 X155.466 Y69.889 E0.30264
G1 X156.450 Y69.514 E0.03301
G1 X157.443 Y69.183 E0.03282
G1 X158.449 Y68.895 E0.03282
G1 X159.441 Y68.657 E0.03199
G1 X160.494 Y68.450 E0.03366
G1 X161.529 Y68.293 E0.03281
G1 X162.569 Y68.181 E0.03282
G1 X163.587 Y68.116 E0.03199
G1 X164.667 Y68.092 E0.03385
G1 X184.189 Y68.092 E0.61210
G1 X184.189 Y85.917 E0.55892
G1 X164.667 Y85.917 E0.61211
G1 X163.614 Y85.895 E0.03301
G1 X162.569 Y85.828 E0.03282
G1 X161.529 Y85.716 E0.03282
G1 X160.494 Y85.559 E0.03282
G1 X159.467 Y85.358 E0.03282
G1 X158.449 Y85.114 E0.03282
G1 X157.443 Y84.826 E0.03282
G1 X156.450 Y84.495 E0.03282
G1 X155.466 Y84.120 E0.03301
G1 X146.523 Y80.487 E0.30264
G1 X145.778 Y80.208 E0.02496
G1 X145.011 Y79.968 E0.02521
G1 X144.231 Y79.770 E0.02521
G1 X143.442 Y79.616 E0.02521
G1 X142.665 Y79.508 E0.02459
G1 X141.845 Y79.439 E0.02581
G1 X141.049 Y79.417 E0.02497
G1 X113.503 Y79.417 E0.86368
G1 X112.707 Y79.439 E0.02496
G1 X111.906 Y79.506 E0.02521
G1 X111.110 Y79.616 E0.02521
G1 X110.321 Y79.770 E0.02521
G1 X109.541 Y79.968 E0.02521
G1 X108.774 Y80.208 E0.02521
G1 X108.028 Y80.487 E0.02496
G1 X99.086 Y84.120 E0.30264
G1 X98.102 Y84.495 E0.03301
G1 X97.109 Y84.826 E0.03282
G1 X96.103 Y85.114 E0.03282
G1 X95.085 Y85.358 E0.03282
G1 X94.058 Y85.559 E0.03282
G1 X93.023 Y85.716 E0.03282
G1 X91.983 Y85.828 E0.03282
G1 X90.938 Y85.895 E0.03282
G1 X89.885 Y85.917 E0.03301
G1 X70.363 Y85.917 E0.61211
G1 X70.363 Y68.152 E0.55704
G1 X69.986 Y67.714 F7200.000
G1 F1050
G1 X89.889 Y67.714 E0.62406
G1 X90.928 Y67.737 E0.03256
G1 X92.015 Y67.806 E0.03416
G1 X93.072 Y67.919 E0.03332
G1 X94.122 Y68.078 E0.03332
G1 X95.165 Y68.282 E0.03332
G1 X96.199 Y68.530 E0.03332
G1 X97.221 Y68.823 E0.03332
G1 X98.229 Y69.159 E0.03332
G1 X99.224 Y69.538 E0.03339
G1 X108.165 Y73.171 E0.30260
G1 X108.896 Y73.444 E0.02447
G1 X109.644 Y73.678 E0.02456
G1 X110.403 Y73.870 E0.02456
G1 X111.172 Y74.021 E0.02456
G1 X111.948 Y74.128 E0.02456
G1 X112.728 Y74.193 E0.02456
G1 X113.508 Y74.214 E0.02447
G1 X141.044 Y74.214 E0.86335
G1 X141.824 Y74.193 E0.02447
G1 X142.585 Y74.130 E0.02395
G1 X143.380 Y74.021 E0.02516
G1 X144.149 Y73.870 E0.02456
G1 X144.908 Y73.678 E0.02456
G1 X145.656 Y73.444 E0.02456
G1 X146.386 Y73.171 E0.02447
G1 X155.328 Y69.538 E0.30260
G1 X156.323 Y69.159 E0.03339
G1 X157.331 Y68.823 E0.03332
G1 X158.353 Y68.530 E0.03332
G1 X159.360 Y68.288 E0.03249
G1 X160.430 Y68.078 E0.03416
G1 X161.480 Y67.919 E0.03332
G1 X162.537 Y67.806 E0.03332
G1 X163.571 Y67.739 E0.03249
G1 X164.663 Y67.714 E0.03423
G1 X184.566 Y67.714 E0.62406
G1 X184.566 Y86.294 E0.58256
G1 X164.662 Y86.294 E0.62406
G1 X163.598 Y86.272 E0.03339
G1 X162.537 Y86.203 E0.03332
G1 X161.480 Y86.090 E0.03332
G1 X160.429 Y85.931 E0.03332
G1 X159.386 Y85.727 E0.03332
G1 X158.353 Y85.479 E0.03332
G1 X157.331 Y85.186 E0.03332
G1 X156.323 Y84.850 E0.03332
G1 X155.328 Y84.471 E0.03339
G1 X146.386 Y80.838 E0.30260
G1 X145.656 Y80.565 E0.02447
G1 X144.908 Y80.331 E0.02456
G1 X144.149 Y80.138 E0.02456
G1 X143.380 Y79.988 E0.02456
G1 X142.623 Y79.883 E0.02395
G1 X141.824 Y79.816 E0.02516
G1 X141.044 Y79.794 E0.02447
G1 X113.508 Y79.794 E0.86335
G1 X112.728 Y79.816 E0.02447
G1 X111.948 Y79.881 E0.02456
G1 X111.172 Y79.988 E0.02456
G1 X110.403 Y80.138 E0.02456
G1 X109.644 Y80.331 E0.02456
G1 X108.896 Y80.565 E0.02456
G1 X108.165 Y80.838 E0.02447
G1 X99.224 Y84.471 E0.30260
G1 X98.229 Y84.850 E0.03339
G1 X97.221 Y85.186 E0.03332
G1 X96.199 Y85.479 E0.03332
G1 X95.165 Y85.727 E0.03332
G1 X94.122 Y85.931 E0.03332
G1 X93.072 Y86.090 E0.03332
G1 X92.015 Y86.203 E0.03332
G1 X90.954 Y86.272 E0.03332
G1 X89.889 Y86.294 E0.03339
G1 X69.986 Y86.294 E0.62406
G1 X69.986 Y67.774 E0.58068
G1 X70.373 Y67.814 F7200.000
G1 F5760
G1 X72.180 Y67.768 E-0.76000
G1 E-0.04000 F2100.00000
G1 X70.853 Y84.664 F7200.000
G1 E0.80000 F2100.00000
G1 F1680
G1 X71.447 Y85.257 E0.02637
G1 X71.981 Y85.257 E0.01677
G1 X71.023 Y84.299 E0.04255
G1 X71.023 Y83.765 E0.01677
G1 X72.515 Y85.257 E0.06626
G1 X73.049 Y85.257 E0.01677
G1 X71.023 Y83.231 E0.08997
G1 X71.023 Y82.697 E0.01677
G1 X73.583 Y85.257 E0.11368
G1 X74.117 Y85.257 E0.01677
G1 X71.023 Y82.163 E0.13739
G1 X71.023 Y81.629 E0.01677
G1 X74.651 Y85.257 E0.16111
G1 X75.185 Y85.257 E0.01677
G1 X71.023 Y81.095 E0.18482
G1 X71.023 Y80.561 E0.01677
G1 X75.719 Y85.257 E0.20853
G1 X76.253 Y85.257 E0.01677
G1 X71.023 Y80.027 E0.23224
G1 X71.023 Y79.493 E0.01677
G1 X76.787 Y85.257 E0.25596
G1 X77.321 Y85.257 E0.01677
G1 X71.023 Y78.959 E0.27967
G1 X71.023 Y78.425 E0.01677
G1 X77.855 Y85.257 E0.30338
G1 X78.389 Y85.257 E0.01677
G1 X71.023 Y77.891 E0.32709
G1 X71.023 Y77.357 E0.01677
G1 X78.923 Y85.257 E0.35081
G1 X79.457 Y85.257 E0.01677
G1 X71.023 Y76.823 E0.37452
G1 X71.023 Y76.289 E0.01677
G1 X79.991 Y85.257 E0.39823
G1 X80.525 Y85.257 E0.01677
G1 X71.023 Y75.755 E0.42194
G1 X71.023 Y75.221 E0.01677
G1 X81.059 Y85.257 E0.44565
G1 X81.593 Y85.257 E0.01677
G1 X71.023 Y74.687 E0.46937
G1 X71.023 Y74.153 E0.01677
G1 X82.127 Y85.257 E0.49308
G1 X82.661 Y85.257 E0.01677
G1 X71.023 Y73.619 E0.51679
G1 X71.023 Y73.085 E0.01677
G1 X83.195 Y85.257 E0.54050
G1 X83.729 Y85.257 E0.01677
G1 X71.023 Y72.551 E0.56422
G1 X71.023 Y72.017 E0.01677
G1 X84.263 Y85.257 E0.58793
G1 X84.797 Y85.257 E0.01677
G1 X71.023 Y71.483 E0.61164
G1 X71.023 Y70.949 E0.01677
G1 X85.331 Y85.257 E0.63535
G1 X85.865 Y85.257 E0.01677
G1 X71.023 Y70.415 E0.65907
G1 X71.023 Y69.881 E0.01677
G1 X86.399 Y85.257 E0.68278
G1 X86.933 Y85.257 E0.01677
G1 X71.023 Y69.347 E0.70649
G1 X71.023 Y68.813 E0.01677
G1 X87.468 Y85.257 E0.73020
G1 X88.002 Y85.257 E0.01677
G1 X71.495 Y68.751 E0.73293
G1 X72.029 Y68.751 E0.01677
G1 X88.536 Y85.257 E0.73293
G1 X89.070 Y85.257 E0.01677
G1 X72.563 Y68.751 E0.73293
G1 X73.097 Y68.751 E0.01677
G1 X89.604 Y85.257 E0.73293
G1 X90.132 Y85.252 E0.01660
G1 X73.631 Y68.751 E0.73269
G1 X74.166 Y68.751 E0.01677
G1 X90.655 Y85.241 E0.73219
G1 X91.167 Y85.219 E0.01609
G1 X74.700 Y68.751 E0.73121
G1 X75.234 Y68.751 E0.01677
G1 X91.669 Y85.186 E0.72978
G1 X92.161 Y85.145 E0.01551
G1 X75.768 Y68.751 E0.72792
G1 X76.302 Y68.751 E0.01677
G1 X92.643 Y85.093 E0.72562
G1 X93.118 Y85.034 E0.01503
G1 X76.836 Y68.751 E0.72300
G1 X77.370 Y68.751 E0.01677
G1 X93.582 Y84.964 E0.71989
G1 X94.042 Y84.890 E0.01463
G1 X77.904 Y68.751 E0.71661
G1 X78.438 Y68.751 E0.01677
G1 X94.489 Y84.803 E0.71273
G1 X94.936 Y84.715 E0.01429
G1 X78.972 Y68.751 E0.70886
G1 X79.506 Y68.751 E0.01677
G1 X95.366 Y84.612 E0.70428
G1 X95.797 Y84.509 E0.01390
G1 X80.040 Y68.751 E0.69968
G1 X80.574 Y68.751 E0.01677
G1 X96.217 Y84.395 E0.69463
G1 X96.632 Y84.276 E0.01356
G1 X81.108 Y68.751 E0.68935
G1 X81.642 Y68.751 E0.01677
G1 X97.043 Y84.152 E0.68387
G1 X97.443 Y84.019 E0.01326
G1 X82.176 Y68.751 E0.67794
G1 X82.710 Y68.751 E0.01677
G1 X97.844 Y83.886 E0.67202
G1 X98.232 Y83.739 E0.01301
G1 X83.244 Y68.751 E0.66552
G1 X83.778 Y68.751 E0.01677
G1 X98.618 Y83.592 E0.65898
G1 X99.002 Y83.442 E0.01294
G1 X84.312 Y68.751 E0.65230
G1 X84.846 Y68.751 E0.01677
G1 X99.382 Y83.287 E0.64545
G1 X99.762 Y83.133 E0.01287
G1 X85.380 Y68.751 E0.63860
G1 X85.914 Y68.751 E0.01677
G1 X100.141 Y82.979 E0.63175
G1 X100.521 Y82.825 E0.01287
G1 X86.448 Y68.751 E0.62490
G1 X86.982 Y68.751 E0.01677
G1 X100.901 Y82.670 E0.61805
G1 X101.281 Y82.516 E0.01287
G1 X87.516 Y68.751 E0.61120
G1 X88.050 Y68.751 E0.01677
G1 X101.660 Y82.362 E0.60435
G1 X102.040 Y82.207 E0.01287
G1 X88.584 Y68.751 E0.59750
G1 X89.118 Y68.751 E0.01677
G1 X102.420 Y82.053 E0.59065
G1 X102.800 Y81.899 E0.01287
G1 X89.652 Y68.751 E0.58380
G1 X90.193 Y68.758 E0.01698
G1 X103.179 Y81.745 E0.57665
G1 X103.559 Y81.590 E0.01287
G1 X90.738 Y68.770 E0.56928
G1 X91.302 Y68.799 E0.01772
G1 X103.939 Y81.436 E0.56111
G1 X104.319 Y81.282 E0.01287
G1 X91.872 Y68.836 E0.55266
G1 X92.468 Y68.897 E0.01880
G1 X104.698 Y81.128 E0.54307
G1 X105.078 Y80.973 E0.01287
G1 X93.073 Y68.968 E0.53307
G1 X93.702 Y69.063 E0.01998
G1 X105.458 Y80.819 E0.52200
G1 X105.838 Y80.665 E0.01287
G1 X94.352 Y69.180 E0.50998
G1 X95.020 Y69.314 E0.02139
G1 X106.217 Y80.510 E0.49719
G1 X106.597 Y80.356 E0.01287
G1 X95.723 Y69.482 E0.48284
G1 X96.458 Y69.683 E0.02390
G1 X106.977 Y80.202 E0.46708
G1 X107.356 Y80.048 E0.01287
G1 X97.226 Y69.918 E0.44982
G1 X98.039 Y70.196 E0.02696
G1 X107.736 Y79.893 E0.43061
G1 X108.124 Y79.747 E0.01300
G1 X98.904 Y70.528 E0.40936
G1 X99.804 Y70.893 E0.03048
G1 X108.512 Y79.601 E0.38668
G1 X108.917 Y79.472 E0.01334
G1 X100.703 Y71.258 E0.36471
G1 X101.603 Y71.624 E0.03048
G1 X109.323 Y79.344 E0.34283
G1 X109.748 Y79.235 E0.01376
G1 X102.502 Y71.989 E0.32173
G1 X103.401 Y72.354 E0.03048
G1 X110.174 Y79.127 E0.30072
G1 X110.620 Y79.039 E0.01429
G1 X104.301 Y72.720 E0.28061
G1 X105.200 Y73.085 E0.03048
G1 X111.070 Y78.955 E0.26066
G1 X111.539 Y78.890 E0.01487
G1 X106.100 Y73.451 E0.24155
G1 X106.999 Y73.816 E0.03048
G1 X112.017 Y78.834 E0.22284
G1 X112.511 Y78.793 E0.01554
G1 X107.893 Y74.176 E0.20504
G1 X108.730 Y74.479 E0.02795
G1 X113.022 Y78.771 E0.19057
G1 X113.543 Y78.757 E0.01636
G1 X109.495 Y74.710 E0.17971
G1 X110.208 Y74.889 E0.02307
G1 X114.077 Y78.757 E0.17178
G1 X114.611 Y78.757 E0.01677
G1 X110.872 Y75.019 E0.16602
G1 X111.500 Y75.113 E0.01996
G1 X115.145 Y78.757 E0.16183
G1 X115.679 Y78.757 E0.01677
G1 X112.103 Y75.182 E0.15878
G1 X112.684 Y75.229 E0.01832
G1 X116.213 Y78.757 E0.15668
G1 X116.747 Y78.757 E0.01677
G1 X113.233 Y75.244 E0.15600
G1 X113.775 Y75.251 E0.01699
G1 X117.281 Y78.757 E0.15568
G1 X117.815 Y78.757 E0.01677
G1 X114.309 Y75.251 E0.15568
G1 X114.843 Y75.251 E0.01677
G1 X118.349 Y78.757 E0.15568
G1 X118.883 Y78.757 E0.01677
G1 X115.377 Y75.251 E0.15568
G1 X115.911 Y75.251 E0.01677
G1 X119.417 Y78.757 E0.15568
G1 X119.951 Y78.757 E0.01677
G1 X116.445 Y75.251 E0.15568
G1 X116.979 Y75.251 E0.01677
G1 X120.485 Y78.757 E0.15568
G1 X121.019 Y78.757 E0.01677
G1 X117.513 Y75.251 E0.15568
G1 X118.047 Y75.251 E0.01677
G1 X121.553 Y78.757 E0.15568
G1 X122.087 Y78.757 E0.01677
G1 X118.581 Y75.251 E0.15568
G1 X119.115 Y75.251 E0.01677
G1 X122.621 Y78.757 E0.15568
G1 X123.155 Y78.757 E0.01677
G1 X119.649 Y75.251 E0.15568
G1 X120.183 Y75.251 E0.01677
G1 X123.689 Y78.757 E0.15568
G1 X124.223 Y78.757 E0.01677
G1 X120.717 Y75.251 E0.15568
G1 X121.251 Y75.251 E0.01677
G1 X124.757 Y78.757 E0.15568
G1 X125.291 Y78.757 E0.01677
G1 X121.785 Y75.251 E0.15568
G1 X122.319 Y75.251 E0.01677
G1 X125.825 Y78.757 E0.15568
G1 X126.359 Y78.757 E0.01677
G1 X122.853 Y75.251 E0.15568
G1 X123.387 Y75.251 E0.01677
G1 X126.893 Y78.757 E0.15568
G1 X127.427 Y78.757 E0.01677
G1 X123.921 Y75.251 E0.15568
G1 X124.455 Y75.251 E0.01677
G1 X127.961 Y78.757 E0.15568
G1 X128.495 Y78.757 E0.01677
G1 X124.989 Y75.251 E0.15568
G1 X125.523 Y75.251 E0.01677
G1 X129.029 Y78.757 E0.15568
G1 X129.563 Y78.757 E0.01677
G1 X126.057 Y75.251 E0.15568
G1 X126.591 Y75.251 E0.01677
G1 X130.097 Y78.757 E0.15568
G1 X130.631 Y78.757 E0.01677
G1 X127.125 Y75.251 E0.15568
G1 X127.659 Y75.251 E0.01677
G1 X131.165 Y78.757 E0.15568
G1 X131.699 Y78.757 E0.01677
G1 X128.193 Y75.251 E0.15568
G1 X128.727 Y75.251 E0.01677
G1 X132.233 Y78.757 E0.15568
G1 X132.767 Y78.757 E0.01677
G1 X129.261 Y75.251 E0.15568
G1 X129.795 Y75.251 E0.01677
G1 X133.301 Y78.757 E0.15568
G1 X133.835 Y78.757 E0.01677
G1 X130.329 Y75.251 E0.15568
G1 X130.863 Y75.251 E0.01677
G1 X134.369 Y78.757 E0.15568
G1 X134.903 Y78.757 E0.01677
G1 X131.397 Y75.251 E0.15568
G1 X131.931 Y75.251 E0.01677
G1 X135.437 Y78.757 E0.15568
G1 X135.971 Y78.757 E0.01677
G1 X132.465 Y75.251 E0.15568
