; generated by Slic3r 1.31.6-prusa3d-win64 on 2017-01-12 at 15:50:05

; external perimeters extrusion width = 0.45mm
; perimeters extrusion width = 0.45mm
; infill extrusion width = 0.45mm
; solid infill extrusion width = 0.45mm
; top infill extrusion width = 0.45mm

M107
M115 U3.0.9 ; tell printer latest fw version
M83  ; extruder relative mode
M104 S230 ; set extruder temp
M140 S85 ; set bed temp
M190 S85 ; wait for bed temp
M109 S230 ; wait for extruder temp
G28 W ; home all without mesh bed level
G80 ; mesh bed leveling
G1 Y-3.0 F1000.0 ; go outside pritn area
G1 X60.0 E9.0  F1000.0 ; intro line
G1 X100.0 E12.5  F1000.0 ; intro line
G21 ; set units to millimeters
G90 ; use absolute coordinates
M83 ; use relative distances for extrusion
G1 E-0.80000 F2100.00000
G1 Z0.200 F7200.000
G1 X65.515 Y94.193 F7200.000
G1 E0.80000 F2100.00000
M204 S1000
G1 F2100
G1 X66.560 Y93.317 E0.04278
G1 X67.500 Y93.123 E0.03008
G1 X182.500 Y93.123 E3.60574
G1 X183.807 Y93.515 E0.04278
G1 X184.683 Y94.560 E0.04278
G1 X184.877 Y95.500 E0.03008
G1 X184.877 Y114.500 E0.59573
G1 X184.485 Y115.807 E0.04278
G1 X183.440 Y116.683 E0.04278
G1 X182.500 Y116.877 E0.03008
G1 X67.500 Y116.877 E3.60574
G1 X66.193 Y116.485 E0.04278
G1 X65.317 Y115.440 E0.04278
G1 X65.123 Y114.500 E0.03008
G1 X65.123 Y95.500 E0.59573
G1 X65.497 Y94.250 E0.04090
G1 F5760
G1 X66.560 Y93.317 E-0.49007
G1 F5760
G1 X67.324 Y93.159 E-0.26993
G1 E-0.04000 F2100.00000
G1 X68.464 Y96.464 F7200.000
G1 E0.80000 F2100.00000
G1 F1680
G1 X87.605 Y96.464 E0.60016
G1 X88.620 Y96.486 E0.03181
G1 X89.675 Y96.553 E0.03315
G1 X90.699 Y96.663 E0.03229
G1 X91.718 Y96.817 E0.03231
G1 X92.729 Y97.015 E0.03231
G1 X93.731 Y97.255 E0.03231
G1 X94.722 Y97.539 E0.03231
G1 X95.699 Y97.865 E0.03231
G1 X96.672 Y98.235 E0.03263
G1 X105.615 Y101.869 E0.30267
G1 X106.375 Y102.153 E0.02545
G1 X107.163 Y102.400 E0.02586
G1 X107.962 Y102.602 E0.02586
G1 X108.772 Y102.760 E0.02586
G1 X109.589 Y102.874 E0.02586
G1 X110.411 Y102.942 E0.02586
G1 X111.222 Y102.964 E0.02545
G1 X138.778 Y102.964 E0.86400
G1 X139.589 Y102.942 E0.02545
G1 X140.391 Y102.875 E0.02524
G1 X141.228 Y102.760 E0.02647
G1 X142.038 Y102.602 E0.02588
G1 X142.837 Y102.400 E0.02586
G1 X143.625 Y102.153 E0.02586
G1 X144.385 Y101.869 E0.02545
G1 X153.328 Y98.235 E0.30268
G1 X154.301 Y97.865 E0.03263
G1 X155.278 Y97.539 E0.03231
G1 X156.269 Y97.255 E0.03231
G1 X157.245 Y97.021 E0.03149
G1 X158.283 Y96.817 E0.03315
G1 X159.301 Y96.663 E0.03229
G1 X160.326 Y96.553 E0.03231
G1 X161.328 Y96.488 E0.03149
G1 X162.395 Y96.464 E0.03347
G1 X181.536 Y96.464 E0.60014
G1 X181.536 Y113.536 E0.53527
G1 X162.395 Y113.536 E0.60016
G1 X161.354 Y113.514 E0.03263
G1 X160.326 Y113.447 E0.03231
G1 X159.301 Y113.337 E0.03231
G1 X158.282 Y113.183 E0.03231
G1 X157.271 Y112.985 E0.03231
G1 X156.269 Y112.745 E0.03231
G1 X155.278 Y112.461 E0.03231
G1 X154.301 Y112.135 E0.03231
G1 X153.328 Y111.765 E0.03263
G1 X144.385 Y108.131 E0.30267
G1 X143.625 Y107.847 E0.02545
G1 X142.837 Y107.600 E0.02586
G1 X142.038 Y107.398 E0.02586
G1 X141.228 Y107.240 E0.02586
G1 X140.431 Y107.129 E0.02524
G1 X139.590 Y107.058 E0.02647
G1 X138.778 Y107.036 E0.02547
G1 X111.222 Y107.036 E0.86400
G1 X110.411 Y107.058 E0.02545
G1 X109.589 Y107.126 E0.02586
G1 X108.772 Y107.240 E0.02586
G1 X107.962 Y107.398 E0.02586
G1 X107.163 Y107.600 E0.02586
G1 X106.375 Y107.847 E0.02586
G1 X105.615 Y108.131 E0.02545
G1 X96.672 Y111.765 E0.30267
G1 X95.699 Y112.135 E0.03263
G1 X94.722 Y112.461 E0.03231
G1 X93.731 Y112.745 E0.03231
G1 X92.729 Y112.985 E0.03231
G1 X91.718 Y113.183 E0.03231
G1 X90.699 Y113.337 E0.03231
G1 X89.674 Y113.447 E0.03231
G1 X88.646 Y113.514 E0.03231
G1 X87.605 Y113.536 E0.03263
G1 X68.464 Y113.536 E0.60016
G1 X68.464 Y96.524 E0.53339
G1 X68.087 Y96.087 F7200.000
G1 F1680
G1 X87.609 Y96.087 E0.61211
G1 X88.636 Y96.109 E0.03218
G1 X89.707 Y96.177 E0.03366
G1 X90.747 Y96.289 E0.03281
G1 X91.782 Y96.445 E0.03282
G1 X92.809 Y96.646 E0.03282
G1 X93.827 Y96.891 E0.03282
G1 X94.833 Y97.179 E0.03282
G1 X95.826 Y97.509 E0.03282
G1 X96.810 Y97.885 E0.03301
G1 X105.752 Y101.517 E0.30264
G1 X106.498 Y101.797 E0.02496
G1 X107.265 Y102.037 E0.02521
G1 X108.045 Y102.234 E0.02521
G1 X108.834 Y102.388 E0.02521
G1 X109.630 Y102.499 E0.02521
G1 X110.431 Y102.565 E0.02521
G1 X111.227 Y102.587 E0.02496
G1 X138.773 Y102.587 E0.86368
G1 X139.569 Y102.565 E0.02496
G1 X140.350 Y102.500 E0.02459
G1 X141.166 Y102.388 E0.02581
G1 X141.955 Y102.234 E0.02522
G1 X142.735 Y102.037 E0.02521
G1 X143.502 Y101.797 E0.02521
G1 X144.248 Y101.517 E0.02496
G1 X153.190 Y97.885 E0.30264
G1 X154.174 Y97.509 E0.03301
G1 X155.167 Y97.179 E0.03282
G1 X156.173 Y96.891 E0.03282
G1 X157.165 Y96.652 E0.03199
G1 X158.218 Y96.445 E0.03366
G1 X159.253 Y96.289 E0.03281
G1 X160.293 Y96.177 E0.03282
G1 X161.311 Y96.111 E0.03199
G1 X162.391 Y96.087 E0.03385
G1 X181.913 Y96.087 E0.61210
G1 X181.913 Y113.913 E0.55892
G1 X162.391 Y113.913 E0.61211
G1 X161.338 Y113.890 E0.03301
G1 X160.293 Y113.823 E0.03282
G1 X159.253 Y113.711 E0.03282
G1 X158.218 Y113.555 E0.03282
G1 X157.191 Y113.354 E0.03282
G1 X156.173 Y113.109 E0.03282
G1 X155.167 Y112.821 E0.03282
G1 X154.174 Y112.491 E0.03282
G1 X153.190 Y112.115 E0.03301
G1 X144.248 Y108.483 E0.30264
G1 X143.502 Y108.203 E0.02496
G1 X142.735 Y107.963 E0.02521
G1 X141.955 Y107.766 E0.02521
G1 X141.166 Y107.612 E0.02521
G1 X140.389 Y107.504 E0.02459
G1 X139.569 Y107.435 E0.02581
G1 X138.773 Y107.413 E0.02497
G1 X111.227 Y107.413 E0.86368
G1 X110.431 Y107.435 E0.02496
G1 X109.630 Y107.501 E0.02521
G1 X108.834 Y107.612 E0.02521
G1 X108.045 Y107.766 E0.02521
G1 X107.265 Y107.963 E0.02521
G1 X106.498 Y108.203 E0.02521
G1 X105.752 Y108.483 E0.02496
G1 X96.810 Y112.115 E0.30264
G1 X95.826 Y112.491 E0.03301
G1 X94.833 Y112.821 E0.03282
G1 X93.827 Y113.109 E0.03282
G1 X92.809 Y113.354 E0.03282
G1 X91.782 Y113.555 E0.03282
G1 X90.747 Y113.711 E0.03282
G1 X89.707 Y113.823 E0.03282
G1 X88.662 Y113.890 E0.03282
G1 X87.609 Y113.913 E0.03301
G1 X68.087 Y113.913 E0.61211
G1 X68.087 Y96.147 E0.55704
G1 X67.710 Y95.710 F7200.000
G1 F1050
G1 X87.613 Y95.710 E0.62406
G1 X88.652 Y95.732 E0.03256
G1 X89.739 Y95.801 E0.03416
G1 X90.796 Y95.915 E0.03332
G1 X91.846 Y96.074 E0.03332
G1 X92.890 Y96.278 E0.03332
G1 X93.923 Y96.526 E0.03332
G1 X94.945 Y96.818 E0.03332
G1 X95.953 Y97.154 E0.03332
G1 X96.948 Y97.534 E0.03339
G1 X105.890 Y101.166 E0.30260
G1 X106.620 Y101.440 E0.02447
G1 X107.368 Y101.674 E0.02456
G1 X108.127 Y101.866 E0.02456
G1 X108.896 Y102.016 E0.02456
G1 X109.672 Y102.124 E0.02456
G1 X110.452 Y102.188 E0.02456
G1 X111.232 Y102.210 E0.02447
G1 X138.768 Y102.210 E0.86335
G1 X139.548 Y102.188 E0.02447
G1 X140.309 Y102.125 E0.02395
G1 X141.104 Y102.016 E0.02516
G1 X141.873 Y101.866 E0.02456
G1 X142.632 Y101.674 E0.02456
G1 X143.380 Y101.440 E0.02456
G1 X144.110 Y101.166 E0.02447
G1 X153.052 Y97.534 E0.30260
G1 X154.047 Y97.154 E0.03339
G1 X155.055 Y96.818 E0.03332
G1 X156.077 Y96.526 E0.03332
G1 X157.085 Y96.284 E0.03249
G1 X158.154 Y96.074 E0.03416
G1 X159.204 Y95.915 E0.03332
G1 X160.261 Y95.801 E0.03332
G1 X161.295 Y95.735 E0.03249
G1 X162.387 Y95.710 E0.03423
G1 X182.290 Y95.710 E0.62406
G1 X182.290 Y114.290 E0.58256
G1 X162.387 Y114.290 E0.62406
G1 X161.322 Y114.267 E0.03339
G1 X160.261 Y114.199 E0.03332
G1 X159.204 Y114.085 E0.03332
G1 X158.154 Y113.926 E0.03332
G1 X157.110 Y113.722 E0.03332
G1 X156.077 Y113.474 E0.03332
G1 X155.055 Y113.182 E0.03332
G1 X154.047 Y112.846 E0.03332
G1 X153.052 Y112.466 E0.03339
G1 X144.110 Y108.834 E0.30260
G1 X143.380 Y108.560 E0.02447
G1 X142.632 Y108.326 E0.02456
G1 X141.873 Y108.134 E0.02456
G1 X141.104 Y107.984 E0.02456
G1 X140.348 Y107.879 E0.02395
G1 X139.548 Y107.812 E0.02516
G1 X138.768 Y107.790 E0.02447
G1 X111.232 Y107.790 E0.86335
G1 X110.452 Y107.812 E0.02447
G1 X109.672 Y107.876 E0.02456
G1 X108.896 Y107.984 E0.02456
G1 X108.127 Y108.134 E0.02456
G1 X107.368 Y108.326 E0.02456
G1 X106.620 Y108.560 E0.02456
G1 X105.890 Y108.834 E0.02447
G1 X96.948 Y112.466 E0.30260
G1 X95.953 Y112.846 E0.03339
G1 X94.945 Y113.182 E0.03332
G1 X93.923 Y113.474 E0.03332
G1 X92.890 Y113.722 E0.03332
G1 X91.846 Y113.926 E0.03332
G1 X90.796 Y114.085 E0.03332
G1 X89.739 Y114.199 E0.03332
G1 X88.678 Y114.267 E0.03332
G1 X87.613 Y114.290 E0.03339
G1 X67.710 Y114.290 E0.62406
G1 X67.710 Y95.770 E0.58068
G1 X68.098 Y95.809 F7200.000
G1 F5760
G1 X69.904 Y95.763 E-0.76000
G1 E-0.04000 F2100.00000
G1 X68.577 Y112.659 F7200.000
G1 E0.80000 F2100.00000
G1 F1680
G1 X69.171 Y113.253 E0.02637
G1 X69.705 Y113.253 E0.01677
G1 X68.747 Y112.295 E0.04255
G1 X68.747 Y111.761 E0.01677
G1 X70.239 Y113.253 E0.06626
G1 X70.773 Y113.253 E0.01677
G1 X68.747 Y111.227 E0.08997
G1 X68.747 Y110.693 E0.01677
G1 X71.307 Y113.253 E0.11368
G1 X71.841 Y113.253 E0.01677
G1 X68.747 Y110.159 E0.13739
G1 X68.747 Y109.625 E0.01677
G1 X72.375 Y113.253 E0.16111
G1 X72.909 Y113.253 E0.01677
G1 X68.747 Y109.091 E0.18482
G1 X68.747 Y108.557 E0.01677
G1 X73.443 Y113.253 E0.20853
G1 X73.977 Y113.253 E0.01677
G1 X68.747 Y108.023 E0.23224
G1 X68.747 Y107.489 E0.01677
G1 X74.511 Y113.253 E0.25596
G1 X75.045 Y113.253 E0.01677
G1 X68.747 Y106.955 E0.27967
G1 X68.747 Y106.421 E0.01677
G1 X75.579 Y113.253 E0.30338
G1 X76.113 Y113.253 E0.01677
G1 X68.747 Y105.887 E0.32709
G1 X68.747 Y105.353 E0.01677
G1 X76.647 Y113.253 E0.35081
G1 X77.181 Y113.253 E0.01677
G1 X68.747 Y104.819 E0.37452
G1 X68.747 Y104.285 E0.01677
G1 X77.715 Y113.253 E0.39823
G1 X78.249 Y113.253 E0.01677
G1 X68.747 Y103.751 E0.42194
G1 X68.747 Y103.217 E0.01677
G1 X78.783 Y113.253 E0.44565
G1 X79.317 Y113.253 E0.01677
G1 X68.747 Y102.683 E0.46937
G1 X68.747 Y102.149 E0.01677
G1 X79.851 Y113.253 E0.49308
G1 X80.385 Y113.253 E0.01677
G1 X68.747 Y101.615 E0.51679
G1 X68.747 Y101.081 E0.01677
G1 X80.919 Y113.253 E0.54050
G1 X81.453 Y113.253 E0.01677
G1 X68.747 Y100.547 E0.56422
G1 X68.747 Y100.013 E0.01677
G1 X81.987 Y113.253 E0.58793
G1 X82.522 Y113.253 E0.01677
G1 X68.747 Y99.478 E0.61164
G1 X68.747 Y98.944 E0.01677
G1 X83.056 Y113.253 E0.63535
G1 X83.590 Y113.253 E0.01677
G1 X68.747 Y98.410 E0.65907
G1 X68.747 Y97.876 E0.01677
G1 X84.124 Y113.253 E0.68278
G1 X84.658 Y113.253 E0.01677
G1 X68.747 Y97.342 E0.70649
G1 X68.747 Y96.808 E0.01677
G1 X85.192 Y113.253 E0.73020
G1 X85.726 Y113.253 E0.01677
G1 X69.219 Y96.747 E0.73293
G1 X69.754 Y96.747 E0.01677
G1 X86.260 Y113.253 E0.73293
G1 X86.794 Y113.253 E0.01677
G1 X70.288 Y96.747 E0.73293
G1 X70.822 Y96.747 E0.01677
G1 X87.328 Y113.253 E0.73293
G1 X87.856 Y113.248 E0.01660
G1 X71.356 Y96.747 E0.73269
G1 X71.890 Y96.747 E0.01677
G1 X88.379 Y113.236 E0.73219
G1 X88.891 Y113.214 E0.01609
G1 X72.424 Y96.747 E0.73121
G1 X72.958 Y96.747 E0.01677
G1 X89.393 Y113.182 E0.72978
G1 X89.885 Y113.140 E0.01551
G1 X73.492 Y96.747 E0.72792
G1 X74.026 Y96.747 E0.01677
G1 X90.367 Y113.088 E0.72562
G1 X90.842 Y113.029 E0.01503
G1 X74.560 Y96.747 E0.72300
G1 X75.094 Y96.747 E0.01677
G1 X91.306 Y112.959 E0.71989
G1 X91.766 Y112.885 E0.01463
G1 X75.628 Y96.747 E0.71661
G1 X76.162 Y96.747 E0.01677
G1 X92.213 Y112.798 E0.71273
G1 X92.660 Y112.711 E0.01429
G1 X76.696 Y96.747 E0.70886
G1 X77.230 Y96.747 E0.01677
G1 X93.091 Y112.608 E0.70428
G1 X93.521 Y112.504 E0.01390
G1 X77.764 Y96.747 E0.69968
G1 X78.298 Y96.747 E0.01677
G1 X93.941 Y112.390 E0.69463
G1 X94.356 Y112.272 E0.01356
G1 X78.832 Y96.747 E0.68935
G1 X79.366 Y96.747 E0.01677
G1 X94.767 Y112.148 E0.68387
G1 X95.167 Y112.015 E0.01326
G1 X79.900 Y96.747 E0.67794
G1 X80.434 Y96.747 E0.01677
G1 X95.568 Y111.881 E0.67202
G1 X95.956 Y111.735 E0.01301
G1 X80.968 Y96.747 E0.66552
G1 X81.502 Y96.747 E0.01677
G1 X96.342 Y111.587 E0.65898
G1 X96.726 Y111.437 E0.01294
G1 X82.036 Y96.747 E0.65230
G1 X82.570 Y96.747 E0.01677
G1 X97.106 Y111.283 E0.64545
G1 X97.486 Y111.129 E0.01287
G1 X83.104 Y96.747 E0.63860
G1 X83.638 Y96.747 E0.01677
G1 X97.865 Y110.974 E0.63175
G1 X98.245 Y110.820 E0.01287
G1 X84.172 Y96.747 E0.62490
G1 X84.706 Y96.747 E0.01677
G1 X98.625 Y110.666 E0.61805
G1 X99.005 Y110.512 E0.01287
G1 X85.240 Y96.747 E0.61120
G1 X85.774 Y96.747 E0.01677
G1 X99.384 Y110.357 E0.60435
G1 X99.764 Y110.203 E0.01287
G1 X86.308 Y96.747 E0.59750
G1 X86.842 Y96.747 E0.01677
G1 X100.144 Y110.049 E0.59065
G1 X100.524 Y109.894 E0.01287
G1 X87.376 Y96.747 E0.58380
G1 X87.917 Y96.754 E0.01698
G1 X100.903 Y109.740 E0.57665
G1 X101.283 Y109.586 E0.01287
G1 X88.463 Y96.765 E0.56928
G1 X89.026 Y96.795 E0.01772
G1 X101.663 Y109.432 E0.56111
G1 X102.043 Y109.277 E0.01287
G1 X89.596 Y96.831 E0.55266
G1 X90.192 Y96.893 E0.01880
G1 X102.422 Y109.123 E0.54307
G1 X102.802 Y108.969 E0.01287
G1 X90.797 Y96.964 E0.53307
G1 X91.426 Y97.059 E0.01998
G1 X103.182 Y108.815 E0.52200
G1 X103.562 Y108.660 E0.01287
G1 X92.076 Y97.175 E0.50998
G1 X92.744 Y97.309 E0.02139
G1 X103.941 Y108.506 E0.49719
G1 X104.321 Y108.352 E0.01287
G1 X93.447 Y97.478 E0.48284
G1 X94.182 Y97.678 E0.02390
G1 X104.701 Y108.198 E0.46708
G1 X105.081 Y108.043 E0.01287
G1 X94.950 Y97.913 E0.44982
G1 X95.763 Y98.191 E0.02696
G1 X105.460 Y107.889 E0.43061
G1 X105.848 Y107.742 E0.01300
G1 X96.628 Y98.523 E0.40936
G1 X97.528 Y98.888 E0.03048
G1 X106.236 Y107.597 E0.38668
G1 X106.641 Y107.467 E0.01334
G1 X98.427 Y99.254 E0.36471
G1 X99.327 Y99.619 E0.03048
G1 X107.047 Y107.340 E0.34283
G1 X107.472 Y107.230 E0.01376
G1 X100.226 Y99.985 E0.32173
G1 X101.125 Y100.350 E0.03048
G1 X107.898 Y107.122 E0.30072
G1 X108.344 Y107.035 E0.01429
G1 X102.025 Y100.715 E0.28061
G1 X102.924 Y101.081 E0.03048
G1 X108.794 Y106.951 E0.26066
G1 X109.263 Y106.886 E0.01487
G1 X103.824 Y101.446 E0.24155
G1 X104.723 Y101.812 E0.03048
G1 X109.741 Y106.830 E0.22284
G1 X110.235 Y106.789 E0.01554
G1 X105.617 Y102.171 E0.20504
G1 X106.454 Y102.474 E0.02795
G1 X110.746 Y106.766 E0.19057
G1 X111.267 Y106.753 E0.01636
G1 X107.219 Y102.706 E0.17971
G1 X107.932 Y102.884 E0.02307
G1 X111.801 Y106.753 E0.17178
G1 X112.335 Y106.753 E0.01677
G1 X108.596 Y103.014 E0.16602
G1 X109.224 Y103.109 E0.01996
G1 X112.869 Y106.753 E0.16183
G1 X113.403 Y106.753 E0.01677
G1 X109.827 Y103.177 E0.15878
G1 X110.408 Y103.225 E0.01832
G1 X113.937 Y106.753 E0.15668
G1 X114.471 Y106.753 E0.01677
G1 X110.957 Y103.240 E0.15600
G1 X111.499 Y103.247 E0.01699
G1 X115.005 Y106.753 E0.15568
G1 X115.539 Y106.753 E0.01677
G1 X112.033 Y103.247 E0.15568
G1 X112.567 Y103.247 E0.01677
G1 X116.073 Y106.753 E0.15568
G1 X116.607 Y106.753 E0.01677
G1 X113.101 Y103.247 E0.15568
G1 X113.635 Y103.247 E0.01677
G1 X117.141 Y106.753 E0.15568
G1 X117.675 Y106.753 E0.01677
G1 X114.169 Y103.247 E0.15568
G1 X114.703 Y103.247 E0.01677
G1 X118.209 Y106.753 E0.15568
G1 X118.743 Y106.753 E0.01677
G1 X115.237 Y103.247 E0.15568
G1 X115.771 Y103.247 E0.01677
G1 X119.277 Y106.753 E0.15568
G1 X119.811 Y106.753 E0.01677
G1 X116.305 Y103.247 E0.15568
G1 X116.839 Y103.247 E0.01677
G1 X120.345 Y106.753 E0.15568
G1 X120.879 Y106.753 E0.01677
G1 X117.373 Y103.247 E0.15568
G1 X117.907 Y103.247 E0.01677
G1 X121.413 Y106.753 E0.15568
G1 X121.947 Y106.753 E0.01677
G1 X118.441 Y103.247 E0.15568
G1 X118.975 Y103.247 E0.01677
G1 X122.481 Y106.753 E0.15568
G1 X123.015 Y106.753 E0.01677
G1 X119.509 Y103.247 E0.15568
G1 X120.043 Y103.247 E0.01677
G1 X123.549 Y106.753 E0.15568
G1 X124.083 Y106.753 E0.01677
G1 X120.577 Y103.247 E0.15568
G1 X121.111 Y103.247 E0.01677
G1 X124.617 Y106.753 E0.15568
G1 X125.151 Y106.753 E0.01677
G1 X121.645 Y103.247 E0.15568
G1 X122.179 Y103.247 E0.01677
G1 X125.685 Y106.753 E0.15568
G1 X126.219 Y106.753 E0.01677
G1 X122.713 Y103.247 E0.15568
G1 X123.247 Y103.247 E0.01677
G1 X126.753 Y106.753 E0.15568
G1 X127.287 Y106.753 E0.01677
G1 X123.781 Y103.247 E0.15568
G1 X124.315 Y103.247 E0.01677
G1 X127.821 Y106.753 E0.15568
G1 X128.355 Y106.753 E0.01677
G1 X124.849 Y103.247 E0.15568
G1 X125.383 Y103.247 E0.01677
G1 X128.889 Y106.753 E0.15568
G1 X129.423 Y106.753 E0.01677
G1 X125.917 Y103.247 E0.15568
G1 X126.451 Y103.247 E0.01677
G1 X129.957 Y106.753 E0.15568
G1 X130.491 Y106.753 E0.01677
G1 X126.985 Y103.247 E0.15568
G1 X127.519 Y103.247 E0.01677
G1 X131.025 Y106.753 E0.15568
G1 X131.559 Y106.753 E0.01677
G1 X128.053 Y103.247 E0.15568
